( Made using CamBam - http://www.cambam.co.uk )
( assbot_logo-steel 8/7/2013 8:14:35 PM )
( T14 : 3.0 )
( T102 : 0.6 )
( T105 : 1.6 )
( T202 : 1.5 )
G21 G90 G91.1 G64 G40
G0 Z3.0
( T102 : 0.6 )
T102 M6
( Logo Pocket )
G17
M3 S1000
G0 X91.1805 Y13.9016
G0 Z1.0
G1 F300.0 Z-0.5
G3 X91.1024 Y13.9656 I-0.3035 J-0.2904
G3 X91.1609 Y14.049 I-0.3116 J0.2808
G1 X91.1805 Y13.9016
G0 Z3.0
G0 X88.372 Y14.0312
G0 Z1.0
G1 Z-0.5
G1 X88.3596
G3 X88.2967 Y14.0265 I0.0 J-0.42
G1 X88.3395 Y14.0985
G3 X88.372 Y14.0312 I0.3926 J0.148
G1 Y13.9112
G1 X88.3596
G3 X88.1003 Y13.7622 I0.0 J-0.3
G1 X87.2303 Y12.2682
G1 X87.1108
G1 X90.2281 Y17.507
G1 X90.8221
G1 X91.5187 Y12.2682
G1 X91.3394
G1 X91.1749 Y13.6468
G3 X90.877 Y13.9112 I-0.2979 J-0.0355
G1 X88.372
G1 X88.5125 Y14.042
G3 X88.7321 Y13.9465 I0.2196 J0.2044
G1 X90.7908
G3 X91.0884 Y14.2841 I0.0 J0.3
G1 X90.7237 Y17.1663
G3 X90.1674 Y17.2806 I-0.2976 J-0.0377
G1 X88.4734 Y14.3985
G3 X88.5125 Y14.042 I0.2586 J-0.152
G1 Z-1.0
G3 X88.7321 Y13.9465 I0.2196 J0.2044
G1 X90.7908
G3 X91.0884 Y14.2841 I0.0 J0.3
G1 X90.7237 Y17.1663
G3 X90.1674 Y17.2806 I-0.2976 J-0.0377
G1 X88.4734 Y14.3985
G3 X88.5125 Y14.042 I0.2586 J-0.152
G1 X88.372 Y14.0312
G1 X88.3596
G3 X88.2967 Y14.0265 I0.0 J-0.42
G1 X88.3395 Y14.0985
G3 X88.372 Y14.0312 I0.3926 J0.148
G0 Z3.0
G0 X91.1024 Y13.9656
G0 Z0.5
G1 Z-1.0
G3 X91.1609 Y14.049 I-0.3116 J0.2808
G1 X91.1805 Y13.9016
G3 X91.1024 Y13.9656 I-0.3035 J-0.2904
G1 X91.038 Y13.8644
G3 X90.877 Y13.9112 I-0.161 J-0.2531
G1 X88.3596
G3 X88.1003 Y13.7622 I0.0 J-0.3
G1 X87.2303 Y12.2682
G1 X87.1108
G1 X90.2281 Y17.507
G1 X90.8221
G1 X91.5187 Y12.2682
G1 X91.3394
G1 X91.1749 Y13.6468
G3 X91.038 Y13.8644 I-0.2979 J-0.0355
G0 Z3.0
G0 X93.2286 Y12.4735
G0 Z1.0
G1 Z-0.5
G3 X93.2752 Y12.3882 I0.3894 J0.1574
G1 X93.2089
G1 X93.2286 Y12.4735
G1 X93.1117 Y12.5005
G1 X94.2683 Y17.507
G1 X94.4368
G1 X93.3257 Y12.6984
G3 X93.618 Y12.3309 I0.2923 J-0.0675
G1 X96.1544
G1 X96.1399 Y12.2682
G1 X93.058
G1 X93.1117 Y12.5005
G1 X93.2286 Y12.4735
G1 Z-1.0
G3 X93.2752 Y12.3882 I0.3894 J0.1574
G1 X93.2089
G1 X93.2286 Y12.4735
G1 X93.1117 Y12.5005
G1 X94.2683 Y17.507
G1 X94.4368
G1 X93.3257 Y12.6984
G3 X93.618 Y12.3309 I0.2923 J-0.0675
G1 X96.1544
G1 X96.1399 Y12.2682
G1 X93.058
G1 X93.1117 Y12.5005
G0 Z3.0
G0 X97.9317 Y12.2682
G0 Z1.0
G1 Z-0.5
G3 X98.0903 Y12.469 I-0.1336 J0.2686
G1 X99.1805 Y17.1706
G3 X99.0219 Y17.507 I-0.2922 J0.0678
G1 X99.5388
G3 X99.3802 Y17.3062 I0.1336 J-0.2686
G1 X98.2901 Y12.6045
G3 X98.4487 Y12.2682 I0.2922 J-0.0678
G1 X97.9317
G1 Z-1.0
G3 X98.0903 Y12.469 I-0.1336 J0.2686
G1 X99.1805 Y17.1706
G3 X99.0219 Y17.507 I-0.2922 J0.0678
G1 X99.5388
G3 X99.3802 Y17.3062 I0.1336 J-0.2686
G1 X98.2901 Y12.6045
G3 X98.4487 Y12.2682 I0.2922 J-0.0678
G1 X97.9317
G0 Z3.0
G0 X101.6447 Y14.0265
G0 Z1.0
G1 Z-0.5
G1 X101.6876 Y14.0985
G3 X101.72 Y14.0312 I0.3926 J0.148
G1 X101.7076
G3 X101.6447 Y14.0265 I0.0 J-0.42
G0 Z3.0
G0 X104.4505 Y13.9656
G0 Z1.0
G1 Z-0.5
G3 X104.5089 Y14.049 I-0.3116 J0.2808
G1 X104.5285 Y13.9016
G3 X104.4505 Y13.9656 I-0.3035 J-0.2904
G1 X104.3861 Y13.8644
G3 X104.2251 Y13.9112 I-0.161 J-0.2531
G1 X101.7076
G3 X101.4484 Y13.7622 I0.0 J-0.3
G1 X100.5784 Y12.2682
G1 X100.4589
G1 X103.5761 Y17.507
G1 X104.1702
G1 X104.8668 Y12.2682
G1 X104.6875
G1 X104.523 Y13.6468
G3 X104.3861 Y13.8644 I-0.2979 J-0.0355
G1 X104.3018 Y13.9946
G3 X104.4364 Y14.2841 I-0.163 J0.2519
G1 X104.0717 Y17.1663
G3 X103.5155 Y17.2806 I-0.2976 J-0.0377
G1 X101.8215 Y14.3985
G3 X102.0801 Y13.9465 I0.2586 J-0.152
G1 X104.1388
G3 X104.3018 Y13.9946 I0.0 J0.3
G1 Z-1.0
G3 X104.4364 Y14.2841 I-0.163 J0.2519
G1 X104.0717 Y17.1663
G3 X103.5155 Y17.2806 I-0.2976 J-0.0377
G1 X101.8215 Y14.3985
G3 X102.0801 Y13.9465 I0.2586 J-0.152
G1 X104.1388
G3 X104.3018 Y13.9946 I0.0 J0.3
G1 X104.4505 Y13.9656
G3 X104.5089 Y14.049 I-0.3116 J0.2808
G1 X104.5285 Y13.9016
G3 X104.4505 Y13.9656 I-0.3035 J-0.2904
G0 Z3.0
G0 X101.72 Y14.0312
G0 Z0.5
G1 Z-1.0
G1 X101.7076
G3 X101.6447 Y14.0265 I0.0 J-0.42
G1 X101.6876 Y14.0985
G3 X101.72 Y14.0312 I0.3926 J0.148
G1 Y13.9112
G1 X101.7076
G3 X101.4484 Y13.7622 I0.0 J-0.3
G1 X100.5784 Y12.2682
G1 X100.4589
G1 X103.5761 Y17.507
G1 X104.1702
G1 X104.8668 Y12.2682
G1 X104.6875
G1 X104.523 Y13.6468
G3 X104.2251 Y13.9112 I-0.2979 J-0.0355
G1 X101.72
G0 Z3.0
G0 X105.0776 Y19.9707
G0 Z1.0
G1 Z-0.5
G1 X104.9899 Y20.2576
G3 X105.4224 Y20.2592 I0.2149 J0.3609
G1 X105.3558 Y19.9707
G1 X105.0776
G1 X104.9628 Y19.9356
G1 X103.4618 Y24.848
G3 X102.8826 Y24.8279 I-0.2869 J-0.0877
G1 X101.7317 Y19.8507
G1 X101.6161
G1 X102.8229 Y25.0744
G1 X103.5279
G1 X104.9179 Y20.5307
G3 X105.4971 Y20.5509 I0.2869 J0.0878
G1 X106.5424 Y25.0744
G1 X106.658
G1 X105.4512 Y19.8507
G1 X104.9888
G1 X104.9628 Y19.9356
G1 X105.0776 Y19.9707
G1 Z-1.0
G1 X104.9899 Y20.2576
G3 X105.4224 Y20.2592 I0.2149 J0.3609
G1 X105.3558 Y19.9707
G1 X105.0776
G1 X104.9628 Y19.9356
G1 X103.4618 Y24.848
G3 X102.8826 Y24.8279 I-0.2869 J-0.0877
G1 X101.7317 Y19.8507
G1 X101.6161
G1 X102.8229 Y25.0744
G1 X103.5279
G1 X104.9179 Y20.5307
G3 X105.4971 Y20.5509 I0.2869 J0.0878
G1 X106.5424 Y25.0744
G1 X106.658
G1 X105.4512 Y19.8507
G1 X104.9888
G1 X104.9628 Y19.9356
G0 Z3.0
G0 X108.002 Y20.9305
G0 Z1.0
G1 Z-0.5
G2 X107.9246 Y21.2549 I1.9293 J0.6316
G1 X107.912 Y21.3538
G1 X107.9053 Y21.4266
G2 X107.9045 Y21.4369 I2.8567 J0.215
G3 X108.0288 Y20.8921 I2.4496 J0.2721
G3 X108.0292 Y20.8908 I0.3963 J0.1392
G3 X108.1737 Y20.5786 I1.7604 J0.6248
G2 X108.0123 Y20.9 I1.1589 J0.7831
G2 X108.002 Y20.9305 I1.9191 J0.6621
G1 X107.888 Y20.8932
G2 X107.8058 Y21.2382 I2.0434 J0.6689
G1 X107.7927 Y21.3406
G1 X107.7857 Y21.4166
G2 X107.7772 Y21.643 I2.9762 J0.225
G3 Y21.6444 I-0.3 J0.0001
G2 X107.8315 Y22.3578 I4.4809 J0.018
G3 X107.8317 Y22.3594 I-0.2964 J0.0466
G2 X108.0027 Y23.0455 I3.7288 J-0.5649
G3 X108.0035 Y23.0479 I-0.283 J0.0995
G2 X108.2703 Y23.6403 I3.2941 J-1.1272
G3 X108.271 Y23.6415 I-0.2609 J0.1482
G2 X108.6419 Y24.1681 I2.7699 J-1.5572
G2 X109.6447 Y24.9067 I2.1815 J-1.9117
G3 X109.646 Y24.9073 I-0.1219 J0.2741
G2 X110.297 Y25.1151 I1.2291 J-2.727
G2 X110.9891 Y25.18 I0.6884 J-3.6166
G3 X110.991 I0.0003 J0.3
G2 X111.864 Y25.0676 I0.0175 J-3.3095
G2 X112.3003 Y24.9141 I-1.0293 J-3.622
G3 X112.3005 Y24.914 I0.1168 J0.2763
G2 X112.5289 Y24.8087 I-1.4894 J-3.531
G1 X112.491 Y24.6201
G3 X112.3326 Y24.7244 I-0.9972 J-1.3415
G3 X112.3312 Y24.7252 I-0.1506 J-0.2595
G1 X112.2307 Y24.7829
G3 X112.2233 Y24.787 I-0.1492 J-0.2603
G1 X112.1787 Y24.8109
G3 X112.1076 Y24.8477 I-0.3565 J-0.601
G3 X111.5374 Y25.0578 I-1.1753 J-2.3117
G3 X110.8085 Y25.1425 I-0.7015 J-2.8572
G3 X110.2292 Y25.0803 I-0.0065 J-2.6705
G3 X109.6696 Y24.8817 I0.5063 J-2.3138
G3 X108.7773 Y24.163 I1.2167 J-2.4239
G3 X108.4414 Y23.6528 I2.3877 J-1.9371
G3 X108.2084 Y23.0958 I3.0292 J-1.5945
G3 X108.0064 Y21.7881 I3.9738 J-1.2835
G3 X108.0111 Y21.6105 I2.6234 J-0.0183
G3 X108.0134 Y21.5735 I0.3908 J0.0051
G3 X108.142 Y20.9319 I2.3408 J0.1355
G3 X108.1423 Y20.931 I0.283 J0.0994
G3 X108.5043 Y20.331 I1.6473 J0.5847
G3 X108.5067 Y20.3284 I0.2206 J0.2033
G3 X109.1895 Y19.897 I1.1834 J1.1167
G3 X109.1909 Y19.8965 I0.0923 J0.2854
G3 X109.9355 Y19.7865 I0.7107 J2.2358
G3 X110.71 Y19.879 I0.0023 J3.2691
G3 X111.3744 Y20.1119 I-0.8264 J3.4222
G3 X111.6274 Y20.2416 I-1.5886 J3.4097
G3 X111.6301 Y20.2431 I-0.1469 J0.2616
G1 X111.6762 Y20.2697
G1 X111.6602 Y20.1911
G2 X110.8924 Y19.8983 I-2.4996 J5.4014
G3 X110.8916 Y19.8981 I0.0873 J-0.287
G2 X109.8466 Y19.7451 I-1.0204 J3.3233
G1 X109.7314 Y19.7467
G2 X108.9546 Y19.8716 I0.0471 J2.7698
G2 X108.3083 Y20.2404 I0.5269 J1.6742
G2 X107.8989 Y20.8606 I1.0242 J1.1213
G2 X107.888 Y20.8932 I2.0324 J0.7015
G1 X108.002 Y20.9305
G1 Z-1.0
G2 X107.9246 Y21.2549 I1.9293 J0.6316
G1 X107.912 Y21.3538
G1 X107.9053 Y21.4266
G2 X107.9045 Y21.4369 I2.8567 J0.215
G3 X108.0288 Y20.8921 I2.4496 J0.2721
G3 X108.0292 Y20.8908 I0.3963 J0.1392
G3 X108.1737 Y20.5786 I1.7604 J0.6248
G2 X108.0123 Y20.9 I1.1589 J0.7831
G2 X108.002 Y20.9305 I1.9191 J0.6621
G1 X107.888 Y20.8932
G2 X107.8058 Y21.2382 I2.0434 J0.6689
G1 X107.7927 Y21.3406
G1 X107.7857 Y21.4166
G2 X107.7772 Y21.643 I2.9762 J0.225
G3 Y21.6444 I-0.3 J0.0001
G2 X107.8315 Y22.3578 I4.4809 J0.018
G3 X107.8317 Y22.3594 I-0.2964 J0.0466
G2 X108.0027 Y23.0455 I3.7288 J-0.5649
G3 X108.0035 Y23.0479 I-0.283 J0.0995
G2 X108.2703 Y23.6403 I3.2941 J-1.1272
G3 X108.271 Y23.6415 I-0.2609 J0.1482
G2 X108.6419 Y24.1681 I2.7699 J-1.5572
G2 X109.6447 Y24.9067 I2.1815 J-1.9117
G3 X109.646 Y24.9073 I-0.1219 J0.2741
G2 X110.297 Y25.1151 I1.2291 J-2.727
G2 X110.9891 Y25.18 I0.6884 J-3.6166
G3 X110.991 I0.0003 J0.3
G2 X111.864 Y25.0676 I0.0175 J-3.3095
G2 X112.3003 Y24.9141 I-1.0293 J-3.622
G3 X112.3005 Y24.914 I0.1168 J0.2763
G2 X112.5289 Y24.8087 I-1.4894 J-3.531
G1 X112.491 Y24.6201
G3 X112.3326 Y24.7244 I-0.9972 J-1.3415
G3 X112.3312 Y24.7252 I-0.1506 J-0.2595
G1 X112.2307 Y24.7829
G3 X112.2233 Y24.787 I-0.1492 J-0.2603
G1 X112.1787 Y24.8109
G3 X112.1076 Y24.8477 I-0.3565 J-0.601
G3 X111.5374 Y25.0578 I-1.1753 J-2.3117
G3 X110.8085 Y25.1425 I-0.7015 J-2.8572
G3 X110.2292 Y25.0803 I-0.0065 J-2.6705
G3 X109.6696 Y24.8817 I0.5063 J-2.3138
G3 X108.7773 Y24.163 I1.2167 J-2.4239
G3 X108.4414 Y23.6528 I2.3877 J-1.9371
G3 X108.2084 Y23.0958 I3.0292 J-1.5945
G3 X108.0064 Y21.7881 I3.9738 J-1.2835
G3 X108.0111 Y21.6105 I2.6234 J-0.0183
G3 X108.0134 Y21.5735 I0.3908 J0.0051
G3 X108.142 Y20.9319 I2.3408 J0.1355
G3 X108.1423 Y20.931 I0.283 J0.0994
G3 X108.5043 Y20.331 I1.6473 J0.5847
G3 X108.5067 Y20.3284 I0.2206 J0.2033
G3 X109.1895 Y19.897 I1.1834 J1.1167
G3 X109.1909 Y19.8965 I0.0923 J0.2854
G3 X109.9355 Y19.7865 I0.7107 J2.2358
G3 X110.71 Y19.879 I0.0023 J3.2691
G3 X111.3744 Y20.1119 I-0.8264 J3.4222
G3 X111.6274 Y20.2416 I-1.5886 J3.4097
G3 X111.6301 Y20.2431 I-0.1469 J0.2616
G1 X111.6762 Y20.2697
G1 X111.6602 Y20.1911
G2 X110.8924 Y19.8983 I-2.4996 J5.4014
G3 X110.8916 Y19.8981 I0.0873 J-0.287
G2 X109.8466 Y19.7451 I-1.0204 J3.3233
G1 X109.7314 Y19.7467
G2 X108.9546 Y19.8716 I0.0471 J2.7698
G2 X108.3083 Y20.2404 I0.5269 J1.6742
G2 X107.8989 Y20.8606 I1.0242 J1.1213
G2 X107.888 Y20.8932 I2.0324 J0.7015
G0 Z3.0
G0 X113.9999 Y22.7345
G0 Z1.0
G1 Z-0.5
G1 X114.0386 Y22.9025
G3 X114.1034 Y22.7988 I0.3848 J0.1682
G3 X113.9999 Y22.7345 I0.1675 J-0.3851
G0 Z3.0
G0 X117.497 Y22.6856
G0 Z1.0
G1 Z-0.5
G3 X117.5953 Y22.7456 I-0.1675 J0.3851
G1 X117.559 Y22.588
G3 X117.497 Y22.6856 I-0.3821 J-0.1744
G1 X117.4491 Y22.7956
G3 X117.6219 Y23.0037 I-0.1197 J0.2751
G1 X118.0965 Y25.0744
G1 X118.2549
G1 X117.0516 Y19.8507
G1 X116.8931
G1 X117.4692 Y22.3462
G3 X117.1769 Y22.7137 I-0.2923 J0.0675
G1 X114.2709
G3 X113.9786 Y22.4811 I0.0 J-0.3
G1 X113.3713 Y19.8507
G1 X113.2125
G1 X114.4158 Y25.0744
G1 X114.5749
G1 X114.131 Y23.1378
G3 X114.4234 Y22.7707 I0.2924 J-0.067
G1 X117.3294
G3 X117.4491 Y22.7956 I0.0 J0.3
G1 X117.497 Y22.6856
G1 Z-1.0
G3 X117.5953 Y22.7456 I-0.1675 J0.3851
G1 X117.559 Y22.588
G3 X117.497 Y22.6856 I-0.3821 J-0.1744
G0 Z3.0
G0 X114.1034 Y22.7988
G0 Z0.5
G1 Z-1.0
G3 X113.9999 Y22.7345 I0.1675 J-0.3851
G1 X114.0386 Y22.9025
G3 X114.1034 Y22.7988 I0.3848 J0.1682
G1 X114.1948 Y22.8765
G3 X114.4234 Y22.7707 I0.2286 J0.1942
G1 X117.3294
G3 X117.6219 Y23.0037 I0.0 J0.3
G1 X118.0965 Y25.0744
G1 X118.2549
G1 X117.0516 Y19.8507
G1 X116.8931
G1 X117.4692 Y22.3462
G3 X117.1769 Y22.7137 I-0.2923 J0.0675
G1 X114.2709
G3 X113.9786 Y22.4811 I0.0 J-0.3
G1 X113.3713 Y19.8507
G1 X113.2125
G1 X114.4158 Y25.0744
G1 X114.5749
G1 X114.131 Y23.1378
G3 X114.1948 Y22.8765 I0.2924 J-0.067
G0 Z3.0
G0 X119.8943 Y22.1921
G0 Z1.0
G1 Z-0.5
G1 X119.9262 Y22.3309
G3 X119.9729 Y22.2472 I0.3874 J0.1609
G3 X119.8943 Y22.1921 I0.2 J-0.3693
G0 Z3.0
G0 X123.2738 Y23.9875
G0 Z1.0
G1 Z-0.5
G3 X123.2582 Y24.1621 I-1.9061 J-0.0828
G3 X123.257 Y24.1704 I-0.4157 J-0.0566
G3 X123.1794 Y24.4415 I-1.1316 J-0.177
G3 X123.1774 Y24.4461 I-0.3861 J-0.1641
G3 X123.0496 Y24.662 I-0.9567 J-0.4203
G2 X123.203 Y24.4691 I-0.5154 J-0.5672
G2 X123.2573 Y24.3162 I-0.4861 J-0.2585
G2 X123.2768 Y24.1035 I-1.1398 J-0.212
G3 Y24.0997 I0.42 J-0.0002
G2 X123.2738 Y23.9875 I-1.5826 J-0.0135
G1 X123.1544 Y23.9823
G3 X123.1397 Y24.146 I-1.7867 J-0.0777
G3 X123.1389 Y24.1519 I-0.2973 J-0.0405
G3 X123.0694 Y24.3947 I-1.0135 J-0.1585
G3 X123.068 Y24.398 I-0.2761 J-0.1174
G3 X122.7858 Y24.7587 I-0.8473 J-0.3722
G3 X122.3031 Y24.9828 I-0.7203 J-0.9192
G3 X122.1427 Y25.0108 I-0.3119 J-1.3145
G3 X121.7092 Y25.0369 I-0.4168 J-3.3134
G1 X120.8339
G3 X120.5416 Y24.8046 I0.0 J-0.3
G1 X120.0214 Y22.5596
G3 X120.3137 Y22.1919 I0.2923 J-0.0677
G1 X121.1346
G3 X121.491 Y22.2078 I0.0109 J3.7533
G3 X121.5494 Y22.2138 I-0.0354 J0.6335
G3 X121.8198 Y22.2584 I-0.2188 J2.1699
G3 X121.7969 Y21.895 I0.2265 J-0.1967
G1 X123.1629 Y19.8507
G1 X122.9745
G1 X121.5302 Y22.0429
G3 X121.2797 Y22.1778 I-0.2505 J-0.165
G1 X120.1729
G3 X119.8805 Y21.9451 I0.0 J-0.3
G1 X119.3983 Y19.8507
G1 X119.2318
G1 X120.4351 Y25.0744
G1 X121.784
G2 X122.1995 Y25.0614 I-0.0127 J-7.0635
G2 X122.5919 Y25.0114 I-0.1986 J-3.1203
G3 X122.5921 Y25.0113 I0.0567 J0.2946
G2 X123.0525 Y24.8139 I-0.2204 J-1.1494
G2 X123.3084 Y24.5266 I-0.5183 J-0.7191
G2 X123.3752 Y24.3386 I-0.5915 J-0.316
G2 X123.3968 Y24.1034 I-1.2577 J-0.2345
G3 Y24.1007 I0.3 J-0.0002
G2 X123.3015 Y23.5243 I-1.7026 J-0.0145
G2 X123.0109 Y23.0185 I-1.5832 J0.5734
G3 X123.0102 Y23.0177 I0.2303 J-0.1923
G2 X122.5424 Y22.6064 I-1.5278 J1.2658
G2 X122.5337 Y22.6009 I-1.1777 J1.8775
G3 X122.9837 Y23.1699 I-1.0234 J1.2719
G3 X123.1559 Y23.9278 I-1.5673 J0.7547
G3 Y23.9318 I-0.3 J-0.0006
G3 X123.1544 Y23.9823 I-1.7882 J-0.0271
G1 X123.2738 Y23.9875
G1 Z-1.0
G3 X123.2582 Y24.1621 I-1.9061 J-0.0828
G3 X123.257 Y24.1704 I-0.4157 J-0.0566
G3 X123.1794 Y24.4415 I-1.1316 J-0.177
G3 X123.1774 Y24.4461 I-0.3861 J-0.1641
G3 X123.0496 Y24.662 I-0.9567 J-0.4203
G2 X123.203 Y24.4691 I-0.5154 J-0.5672
G2 X123.2573 Y24.3162 I-0.4861 J-0.2585
G2 X123.2768 Y24.1035 I-1.1398 J-0.212
G3 Y24.0997 I0.42 J-0.0002
G2 X123.2738 Y23.9875 I-1.5826 J-0.0135
G0 Z3.0
G0 X119.9729 Y22.2472
G0 Z0.5
G1 Z-1.0
G3 X119.8943 Y22.1921 I0.2 J-0.3693
G1 X119.9262 Y22.3309
G3 X119.9729 Y22.2472 I0.3874 J0.1609
G1 X120.07 Y22.3169
G3 X120.3137 Y22.1919 I0.2437 J0.175
G1 X121.1346
G3 X121.491 Y22.2078 I0.0109 J3.7533
G3 X121.5494 Y22.2138 I-0.0354 J0.6335
G3 X121.8198 Y22.2584 I-0.2188 J2.1699
G3 X121.7969 Y21.895 I0.2265 J-0.1967
G1 X123.1629 Y19.8507
G1 X122.9745
G1 X121.5302 Y22.0429
G3 X121.2797 Y22.1778 I-0.2505 J-0.165
G1 X120.1729
G3 X119.8805 Y21.9451 I0.0 J-0.3
G1 X119.3983 Y19.8507
G1 X119.2318
G1 X120.4351 Y25.0744
G1 X121.784
G2 X122.1995 Y25.0614 I-0.0127 J-7.0635
G2 X122.5919 Y25.0114 I-0.1986 J-3.1203
G3 X122.5921 Y25.0113 I0.0567 J0.2946
G2 X123.0525 Y24.8139 I-0.2204 J-1.1494
G2 X123.3084 Y24.5266 I-0.5183 J-0.7191
G2 X123.3752 Y24.3386 I-0.5915 J-0.316
G2 X123.3968 Y24.1034 I-1.2577 J-0.2345
G3 Y24.1007 I0.3 J-0.0002
G2 X123.3015 Y23.5243 I-1.7026 J-0.0145
G2 X123.0109 Y23.0185 I-1.5832 J0.5734
G3 X123.0102 Y23.0177 I0.2303 J-0.1923
G2 X122.5424 Y22.6064 I-1.5278 J1.2658
G2 X122.5337 Y22.6009 I-1.1777 J1.8775
G3 X122.9837 Y23.1699 I-1.0234 J1.2719
G3 X123.1559 Y23.9278 I-1.5673 J0.7547
G3 Y23.9318 I-0.3 J-0.0006
G3 X123.1397 Y24.146 I-1.7882 J-0.0271
G3 X123.1389 Y24.1519 I-0.2973 J-0.0405
G3 X123.0694 Y24.3947 I-1.0135 J-0.1585
G3 X123.068 Y24.398 I-0.2761 J-0.1174
G3 X122.7858 Y24.7587 I-0.8473 J-0.3722
G3 X122.3031 Y24.9828 I-0.7203 J-0.9192
G3 X122.1427 Y25.0108 I-0.3119 J-1.3145
G3 X121.7092 Y25.0369 I-0.4168 J-3.3134
G1 X120.8339
G3 X120.5416 Y24.8046 I0.0 J-0.3
G1 X120.0214 Y22.5596
G3 X120.07 Y22.3169 I0.2923 J-0.0677
G0 Z3.0
G0 X124.9871 Y21.9619
G0 Z1.0
G1 Z-0.5
G2 X125.0274 Y22.3262 I4.8042 J-0.3468
G3 X125.0275 Y22.3267 I-0.2967 J0.0443
G2 X125.1931 Y23.0087 I3.793 J-0.56
G3 X125.1938 Y23.0107 I-0.2838 J0.0972
G2 X125.8183 Y24.1521 I3.4892 J-1.1676
G2 X126.7832 Y24.9112 I2.2399 J-1.8545
G3 X126.7857 Y24.9124 I-0.1315 J0.2696
G2 X127.394 Y25.1265 I1.1605 J-2.3256
G2 X128.0458 Y25.1957 I0.6491 J-3.012
G3 X128.0479 I0.0003 J0.3
G2 X128.4454 Y25.1703 I0.0173 J-2.8603
G3 X128.4478 Y25.17 I0.0399 J0.2973
G2 X129.0044 Y25.0194 I-0.2608 J-2.0677
G2 X129.4652 Y24.7142 I-0.6176 J-1.433
G2 X129.8511 Y24.0923 I-1.0408 J-1.0767
G3 X129.8518 Y24.0903 I0.2858 J0.0911
G2 X129.9373 Y23.7158 I-2.0062 J-0.6553
G1 X129.9498 Y23.6105
G2 X129.9637 Y23.3162 I-2.5703 J-0.269
G3 Y23.3125 I0.3 J-0.0029
G2 X129.7494 Y21.9428 I-4.415 J-0.011
G3 X129.7489 Y21.9409 I0.2854 J-0.0923
G2 X129.1378 Y20.7982 I-3.3662 J1.0652
G2 X128.1662 Y20.0126 I-2.2805 J1.8271
G2 X127.5508 Y19.7969 I-1.1629 J2.3322
G2 X126.8895 Y19.7294 I-0.655 J3.1435
G2 X126.4853 Y19.7552 I0.0206 J3.4999
G2 X125.9301 Y19.9062 I0.2516 J2.0217
G2 X125.4706 Y20.2135 I0.6246 J1.4315
G2 X125.0866 Y20.8377 I1.0682 J1.0871
G2 X125.0004 Y21.2173 I2.1765 J0.6941
G2 X124.9746 Y21.6136 I2.7279 J0.3765
G3 Y21.6157 I-0.3 J0.0022
G2 X124.9871 Y21.9619 I4.8167 J-0.0006
G1 X125.197 Y21.952
G3 X125.1921 Y21.7389 I4.4206 J-0.2095
G3 X125.2859 Y21.0014 I2.6669 J-0.0355
G3 X125.6707 Y20.2977 I1.6565 J0.4487
G3 X125.6728 Y20.2954 I0.2223 J0.2014
G3 X126.3101 Y19.879 I1.1498 J1.0641
G3 X126.6653 Y19.7919 I0.6269 J1.788
G3 X126.8431 Y19.7728 I0.3186 J2.1261
G3 X126.8476 Y19.7725 I0.0196 J0.2994
G1 X126.9248 Y19.7686
G3 X126.9351 Y19.7683 I0.0152 J0.2996
G1 X127.0125 Y19.767
G3 X127.0141 I0.0049 J0.3
G3 X128.1664 Y20.059 I0.0254 J2.3193
G3 X128.1677 Y20.0597 I-0.1457 J0.2622
G3 X129.0235 Y20.8207 I-1.3198 J2.3458
G3 X129.5652 Y21.9063 I-2.8841 J2.1171
G3 X129.7047 Y22.5536 I-3.8093 J1.1593
G3 X129.7463 Y23.2001 I-4.9679 J0.6443
G3 X129.7449 Y23.2982 I-1.3285 J0.0311
G3 X129.7162 Y23.6354 I-3.0443 J-0.0893
G3 X129.5734 Y24.1565 I-2.0803 J-0.2903
G3 X129.2649 Y24.6343 I-1.4924 J-0.6249
G3 X129.2641 Y24.6352 I-0.2195 J-0.2045
G3 X128.629 Y25.047 I-1.1529 J-1.0823
G3 X128.626 Y25.048 I-0.0982 J-0.2835
G3 X127.9231 Y25.1581 I-0.6764 J-2.0196
G3 X127.3331 Y25.0884 I-0.0024 J-2.509
G3 X127.3311 Y25.0879 I0.0703 J-0.2917
G3 X126.7676 Y24.8628 I0.5372 J-2.163
G3 X126.7664 Y24.8621 I0.1482 J-0.2609
G3 X125.8989 Y24.0845 I1.3931 J-2.4265
G3 X125.8972 Y24.082 I0.2424 J-0.1768
G3 X125.3721 Y22.9919 I2.89 J-2.0635
G3 X125.197 Y21.952 I4.2456 J-1.2494
G1 Z-1.0
G3 X125.1921 Y21.7389 I4.4206 J-0.2095
G3 X125.2859 Y21.0014 I2.6669 J-0.0355
G3 X125.6707 Y20.2977 I1.6565 J0.4487
G3 X125.6728 Y20.2954 I0.2223 J0.2014
G3 X126.3101 Y19.879 I1.1498 J1.0641
G3 X126.6653 Y19.7919 I0.6269 J1.788
G3 X126.8431 Y19.7728 I0.3186 J2.1261
G3 X126.8476 Y19.7725 I0.0196 J0.2994
G1 X126.9248 Y19.7686
G3 X126.9351 Y19.7683 I0.0152 J0.2996
G1 X127.0125 Y19.767
G3 X127.0141 I0.0049 J0.3
G3 X128.1664 Y20.059 I0.0254 J2.3193
G3 X128.1677 Y20.0597 I-0.1457 J0.2622
G3 X129.0235 Y20.8207 I-1.3198 J2.3458
G3 X129.5652 Y21.9063 I-2.8841 J2.1171
G3 X129.7047 Y22.5536 I-3.8093 J1.1593
G3 X129.7463 Y23.2001 I-4.9679 J0.6443
G3 X129.7449 Y23.2982 I-1.3285 J0.0311
G3 X129.7162 Y23.6354 I-3.0443 J-0.0893
G3 X129.5734 Y24.1565 I-2.0803 J-0.2903
G3 X129.2649 Y24.6343 I-1.4924 J-0.6249
G3 X129.2641 Y24.6352 I-0.2195 J-0.2045
G3 X128.629 Y25.047 I-1.1529 J-1.0823
G3 X128.626 Y25.048 I-0.0982 J-0.2835
G3 X127.9231 Y25.1581 I-0.6764 J-2.0196
G3 X127.3331 Y25.0884 I-0.0024 J-2.509
G3 X127.3311 Y25.0879 I0.0703 J-0.2917
G3 X126.7676 Y24.8628 I0.5372 J-2.163
G3 X126.7664 Y24.8621 I0.1482 J-0.2609
G3 X125.8989 Y24.0845 I1.3931 J-2.4265
G3 X125.8972 Y24.082 I0.2424 J-0.1768
G3 X125.3721 Y22.9919 I2.89 J-2.0635
G3 X125.197 Y21.952 I4.2456 J-1.2494
G1 X124.9875 Y21.9674
G2 X125.0274 Y22.3262 I4.8038 J-0.3522
G3 X125.0275 Y22.3267 I-0.2967 J0.0443
G2 X125.1931 Y23.0087 I3.793 J-0.56
G3 X125.1938 Y23.0107 I-0.2838 J0.0972
G2 X125.8183 Y24.1521 I3.4892 J-1.1676
G2 X126.7832 Y24.9112 I2.2399 J-1.8545
G3 X126.7857 Y24.9124 I-0.1315 J0.2696
G2 X127.394 Y25.1265 I1.1605 J-2.3256
G2 X128.0458 Y25.1957 I0.6491 J-3.012
G3 X128.0479 I0.0003 J0.3
G2 X128.4454 Y25.1703 I0.0173 J-2.8603
G3 X128.4478 Y25.17 I0.0399 J0.2973
G2 X129.0044 Y25.0194 I-0.2608 J-2.0677
G2 X129.4652 Y24.7142 I-0.6176 J-1.433
G2 X129.8511 Y24.0923 I-1.0408 J-1.0767
G3 X129.8518 Y24.0903 I0.2858 J0.0911
G2 X129.9373 Y23.7158 I-2.0062 J-0.6553
G1 X129.9498 Y23.6105
G2 X129.9637 Y23.3162 I-2.5703 J-0.269
G3 Y23.3125 I0.3 J-0.0029
G2 X129.7494 Y21.9428 I-4.415 J-0.011
G3 X129.7489 Y21.9409 I0.2854 J-0.0923
G2 X129.1378 Y20.7982 I-3.3662 J1.0652
G2 X128.1662 Y20.0126 I-2.2805 J1.8271
G2 X127.5508 Y19.7969 I-1.1629 J2.3322
G2 X126.8895 Y19.7294 I-0.655 J3.1435
G2 X126.4853 Y19.7552 I0.0206 J3.4999
G2 X125.9301 Y19.9062 I0.2516 J2.0217
G2 X125.4706 Y20.2135 I0.6246 J1.4315
G2 X125.0866 Y20.8377 I1.0682 J1.0871
G2 X125.0004 Y21.2173 I2.1765 J0.6941
G2 X124.9746 Y21.6136 I2.7279 J0.3765
G3 Y21.6157 I-0.3 J0.0022
G2 X124.9875 Y21.9674 I4.8167 J-0.0006
G0 Z3.0
G0 X127.6572 Y27.4827
G0 Z1.0
G1 Z-0.5
G2 X127.3969 Y27.6573 I0.4898 J1.0119
G2 X127.1218 Y28.0706 I0.7115 J0.7717
G2 X127.0361 Y28.6006 I1.4672 J0.5091
G3 X127.0362 Y28.6052 I-0.3 J0.004
G2 X127.0663 Y29.0238 I2.8433 J0.0057
G1 X127.1043 Y29.2416
G1 X127.149 Y29.4584
G1 X127.9166 Y32.7784
G1 X128.0991
G1 X127.3545 Y29.553
G3 X127.2704 Y29.0969 I3.5085 J-0.8827
G3 X127.2701 Y29.0947 I0.2979 J-0.0354
G1 X127.2505 Y28.9181
G3 X127.2463 Y28.8707 I0.4486 J-0.0633
G1 X127.2413 Y28.7969
G3 X127.2407 Y28.785 I0.2993 J-0.0204
G1 X127.2385 Y28.7048
G3 X127.2384 Y28.7014 I0.2999 J-0.0085
G3 X127.3191 Y28.1832 I1.5382 J-0.0256
G3 X127.32 Y28.1806 I0.2842 J0.096
G3 X127.6378 Y27.7044 I1.0783 J0.3754
G3 X127.6434 Y27.6995 I0.1998 J0.2238
G3 X128.1914 Y27.4234 I0.8438 J0.993
G3 X128.7333 Y27.3627 I0.5094 J2.0976
G3 X129.1607 Y27.3961 I0.0099 J2.6249
G3 X129.5936 Y27.516 I-0.3197 J1.9962
G3 X129.5951 Y27.5166 I-0.1117 J0.2784
G3 X130.2675 Y27.9887 I-0.6941 J1.7034
G3 X130.2704 Y27.9919 I-0.2229 J0.2008
G3 X130.6655 Y28.6198 I-1.7815 J1.5593
G3 X130.742 Y28.8146 I-2.8518 J1.2324
G3 X130.9081 Y29.3972 I-4.4455 J1.5828
G1 X131.6881 Y32.7784
G1 X131.8704
G1 X131.1332 Y29.5901
G3 X131.1331 Y29.5897 I0.2923 J-0.0676
G2 X130.9775 Y29.0387 I-5.6575 J1.3005
G3 X130.9774 Y29.0385 I0.2843 J-0.0957
G2 X130.7624 Y28.5218 I-3.7558 J1.2602
G2 X130.2062 Y27.8274 I-1.9169 J0.9651
G2 X129.5041 Y27.4403 I-1.4279 J1.7596
G2 X129.0656 Y27.3416 I-0.7065 J2.1163
G3 X129.0621 Y27.3412 I0.036 J-0.2978
G2 X128.5944 Y27.3122 I-0.4405 J3.3205
G3 X128.5909 I-0.0024 J-0.3
G2 X128.2516 Y27.3291 I-0.0116 J3.181
G3 X128.2495 Y27.3293 I-0.0309 J-0.2984
G2 X127.7748 Y27.4338 I0.1938 J2.0111
G2 X127.6572 Y27.4827 I0.3723 J1.0608
G1 Z-1.0
G2 X127.3969 Y27.6573 I0.4898 J1.0119
G2 X127.1218 Y28.0706 I0.7115 J0.7717
G2 X127.0361 Y28.6006 I1.4672 J0.5091
G3 X127.0362 Y28.6052 I-0.3 J0.004
G2 X127.0663 Y29.0238 I2.8433 J0.0057
G1 X127.1043 Y29.2416
G1 X127.149 Y29.4584
G1 X127.9166 Y32.7784
G1 X128.0991
G1 X127.3545 Y29.553
G3 X127.2704 Y29.0969 I3.5085 J-0.8827
G3 X127.2701 Y29.0947 I0.2979 J-0.0354
G1 X127.2505 Y28.9181
G3 X127.2463 Y28.8707 I0.4486 J-0.0633
G1 X127.2413 Y28.7969
G3 X127.2407 Y28.785 I0.2993 J-0.0204
G1 X127.2385 Y28.7048
G3 X127.2384 Y28.7014 I0.2999 J-0.0085
G3 X127.3191 Y28.1832 I1.5382 J-0.0256
G3 X127.32 Y28.1806 I0.2842 J0.096
G3 X127.6378 Y27.7044 I1.0783 J0.3754
G3 X127.6434 Y27.6995 I0.1998 J0.2238
G3 X128.1914 Y27.4234 I0.8438 J0.993
G3 X128.7333 Y27.3627 I0.5094 J2.0976
G3 X129.1607 Y27.3961 I0.0099 J2.6249
G3 X129.5936 Y27.516 I-0.3197 J1.9962
G3 X129.5951 Y27.5166 I-0.1117 J0.2784
G3 X130.2675 Y27.9887 I-0.6941 J1.7034
G3 X130.2704 Y27.9919 I-0.2229 J0.2008
G3 X130.6655 Y28.6198 I-1.7815 J1.5593
G3 X130.742 Y28.8146 I-2.8518 J1.2324
G3 X130.9081 Y29.3972 I-4.4455 J1.5828
G1 X131.6881 Y32.7784
G1 X131.8704
G1 X131.1332 Y29.5901
G3 X131.1331 Y29.5897 I0.2923 J-0.0676
G2 X130.9775 Y29.0387 I-5.6575 J1.3005
G3 X130.9774 Y29.0385 I0.2843 J-0.0957
G2 X130.7624 Y28.5218 I-3.7558 J1.2602
G2 X130.2062 Y27.8274 I-1.9169 J0.9651
G2 X129.5041 Y27.4403 I-1.4279 J1.7596
G2 X129.0656 Y27.3416 I-0.7065 J2.1163
G3 X129.0621 Y27.3412 I0.036 J-0.2978
G2 X128.5944 Y27.3122 I-0.4405 J3.3205
G3 X128.5909 I-0.0024 J-0.3
G2 X128.2516 Y27.3291 I-0.0116 J3.181
G3 X128.2495 Y27.3293 I-0.0309 J-0.2984
G2 X127.7748 Y27.4338 I0.1938 J2.0111
G2 X127.6572 Y27.4827 I0.3723 J1.0608
G0 Z3.0
G0 X133.4293 Y29.8055
G0 Z1.0
G1 Z-0.5
G1 X133.4746 Y30.0024
G3 X133.537 Y29.8845 I0.3973 J0.1347
G3 X133.4293 Y29.8055 I0.1912 J-0.3739
G0 Z3.0
G0 X135.2046 Y29.7474
G0 Z1.0
G1 Z-0.5
G3 X135.2231 Y29.7498 I-0.295 J2.3207
G3 X135.2207 Y29.723 I0.4168 J-0.0517
G1 X135.2084 Y29.7416
G3 X135.2046 Y29.7474 I-0.3507 J-0.2311
G0 Z3.0
G0 X136.8832 Y31.5036
G0 Z1.0
G1 Z-0.5
G3 X136.8856 Y31.6026 I-1.8858 J0.0953
G3 X136.8855 Y31.6082 I-0.4195 J-0.0008
G3 X136.868 Y31.8402 I-1.941 J-0.0297
G3 X136.8668 Y31.8485 I-0.4157 J-0.0566
G3 X136.7883 Y32.1231 I-1.1463 J-0.1793
G3 X136.7863 Y32.1277 I-0.3861 J-0.1641
G3 X136.6006 Y32.4138 I-0.9684 J-0.4255
G2 X136.8278 Y32.1587 I-0.4631 J-0.6413
G2 X136.884 Y32.0002 I-0.503 J-0.2676
G2 X136.9041 Y31.7816 I-1.1729 J-0.2181
G3 Y31.7778 I0.42 J-0.0002
G2 X136.8832 Y31.5036 I-1.6231 J-0.0138
G1 X136.7638 Y31.5097
G3 X136.7661 Y31.6024 I-1.7664 J0.0893
G3 X136.766 Y31.6064 I-0.3 J-0.0006
G3 X136.7496 Y31.8241 I-1.8215 J-0.0279
G3 X136.7487 Y31.83 I-0.2973 J-0.0404
G3 X136.6783 Y32.0763 I-1.0282 J-0.1609
G3 X136.6769 Y32.0796 I-0.2761 J-0.1174
G3 X136.3908 Y32.4453 I-0.859 J-0.3774
G3 X135.9006 Y32.6729 I-0.7311 J-0.9327
G3 X135.7375 Y32.7014 I-0.3167 J-1.334
G3 X135.296 Y32.7279 I-0.4246 J-3.3764
G1 X134.4028
G3 X134.1105 Y32.4956 I0.0 J-0.3
G1 X133.5797 Y30.2048
G3 X133.872 Y29.8371 I0.2923 J-0.0677
G1 X134.7096
G3 X135.0728 Y29.8533 I0.0112 J3.822
G3 X135.1322 Y29.8594 I-0.0357 J0.6403
G3 X135.427 Y29.9094 I-0.2226 J2.2086
G3 X135.3905 Y29.5314 I0.213 J-0.2113
G1 X136.7908 Y27.4359
G1 X136.5838
G1 X135.1082 Y29.6756
G3 X134.8577 Y29.8105 I-0.2505 J-0.165
G1 X133.7283
G3 X133.4359 Y29.5778 I0.0 J-0.3
G1 X132.9427 Y27.4359
G1 X132.7603
G1 X133.991 Y32.7784
G1 X135.3723
G2 X135.7966 Y32.7652 I-0.0137 J-7.2386
G2 X136.1979 Y32.714 I-0.2038 J-3.196
G3 X136.1981 I0.0567 J0.2946
G2 X136.6702 Y32.5115 I-0.2261 J-1.179
G2 X136.9331 Y32.2162 I-0.5328 J-0.739
G2 X137.0019 Y32.0227 I-0.6084 J-0.3251
G2 X137.0241 Y31.7815 I-1.2908 J-0.2406
G3 Y31.7788 I0.3 J-0.0001
G2 X136.9265 Y31.1885 I-1.7431 J-0.0149
G2 X136.6289 Y30.6706 I-1.6217 J0.5873
G3 X136.6282 Y30.6697 I0.2303 J-0.1922
G2 X136.1494 Y30.2488 I-1.5633 J1.2951
G2 X136.0508 Y30.1903 I-1.2051 J1.9212
G3 X136.0929 Y30.2216 I-1.0022 J1.3948
G3 X136.5909 Y30.8316 I-0.9997 J1.3245
G3 X136.7638 Y31.5097 I-1.5935 J0.7674
G1 X136.8832 Y31.5036
G1 Z-1.0
G3 X136.8856 Y31.6026 I-1.8858 J0.0953
G3 X136.8855 Y31.6082 I-0.4195 J-0.0008
G3 X136.868 Y31.8402 I-1.941 J-0.0297
G3 X136.8668 Y31.8485 I-0.4157 J-0.0566
G3 X136.7883 Y32.1231 I-1.1463 J-0.1793
G3 X136.7863 Y32.1277 I-0.3861 J-0.1641
G3 X136.6006 Y32.4138 I-0.9684 J-0.4255
G2 X136.8278 Y32.1587 I-0.4631 J-0.6413
G2 X136.884 Y32.0002 I-0.503 J-0.2676
G2 X136.9041 Y31.7816 I-1.1729 J-0.2181
G3 Y31.7778 I0.42 J-0.0002
G2 X136.8832 Y31.5036 I-1.6231 J-0.0138
G0 Z3.0
G0 X135.2231 Y29.7498
G0 Z0.5
G1 Z-1.0
G3 X135.2207 Y29.723 I0.4168 J-0.0517
G1 X135.2084 Y29.7416
G3 X135.2046 Y29.7474 I-0.3507 J-0.2311
G3 X135.2231 Y29.7498 I-0.295 J2.3207
G0 Z3.0
G0 X133.537 Y29.8845
G0 Z0.5
G1 Z-1.0
G3 X133.4293 Y29.8055 I0.1912 J-0.3739
G1 X133.4746 Y30.0024
G3 X133.537 Y29.8845 I0.3973 J0.1347
G1 X133.6325 Y29.9564
G3 X133.872 Y29.8371 I0.2395 J0.1807
G1 X134.7096
G3 X135.0728 Y29.8533 I0.0112 J3.822
G3 X135.1322 Y29.8594 I-0.0357 J0.6403
G3 X135.427 Y29.9094 I-0.2226 J2.2086
G3 X135.3905 Y29.5314 I0.213 J-0.2113
G1 X136.7908 Y27.4359
G1 X136.5838
G1 X135.1082 Y29.6756
G3 X134.8577 Y29.8105 I-0.2505 J-0.165
G1 X133.7283
G3 X133.4359 Y29.5778 I0.0 J-0.3
G1 X132.9427 Y27.4359
G1 X132.7603
G1 X133.991 Y32.7784
G1 X135.3723
G2 X135.7966 Y32.7652 I-0.0137 J-7.2386
G2 X136.1979 Y32.714 I-0.2038 J-3.196
G3 X136.1981 I0.0567 J0.2946
G2 X136.6702 Y32.5115 I-0.2261 J-1.179
G2 X136.9331 Y32.2162 I-0.5328 J-0.739
G2 X137.0019 Y32.0227 I-0.6084 J-0.3251
G2 X137.0241 Y31.7815 I-1.2908 J-0.2406
G3 Y31.7788 I0.3 J-0.0001
G2 X136.9265 Y31.1885 I-1.7431 J-0.0149
G2 X136.6289 Y30.6706 I-1.6217 J0.5873
G3 X136.6282 Y30.6697 I0.2303 J-0.1922
G2 X136.1494 Y30.2488 I-1.5633 J1.2951
G2 X136.0508 Y30.1903 I-1.2051 J1.9212
G3 X136.0929 Y30.2216 I-1.0022 J1.3948
G3 X136.5909 Y30.8316 I-0.9997 J1.3245
G3 X136.7661 Y31.6024 I-1.5935 J0.7674
G3 X136.766 Y31.6064 I-0.3 J-0.0006
G3 X136.7496 Y31.8241 I-1.8215 J-0.0279
G3 X136.7487 Y31.83 I-0.2973 J-0.0404
G3 X136.6783 Y32.0763 I-1.0282 J-0.1609
G3 X136.6769 Y32.0796 I-0.2761 J-0.1174
G3 X136.3908 Y32.4453 I-0.859 J-0.3774
G3 X135.9006 Y32.6729 I-0.7311 J-0.9327
G3 X135.7375 Y32.7014 I-0.3167 J-1.334
G3 X135.296 Y32.7279 I-0.4246 J-3.3764
G1 X134.4028
G3 X134.1105 Y32.4956 I0.0 J-0.3
G1 X133.5797 Y30.2048
G3 X133.6325 Y29.9564 I0.2923 J-0.0677
G0 Z3.0
G0 Y24.9544
G0 Z1.0
G1 Z-0.5
G1 X133.6588
G3 X133.6116 Y24.8665 I0.344 J-0.241
G3 X133.5645 Y24.9544 I-0.3911 J-0.1531
G1 X133.6325
G1 Y25.0744
G1 X135.8533
G1 X135.8396 Y25.0134
G1 X134.0028
G3 X133.7105 Y24.781 I0.0 J-0.3
G1 X132.5713 Y19.8507
G1 X132.4048
G1 X133.5128 Y24.6459
G3 X133.2205 Y25.0134 I-0.2923 J0.0675
G1 X131.5186
G1 X131.5324 Y25.0744
G1 X133.6325
G1 Y24.9544
G1 Z-1.0
G1 X133.6588
G3 X133.6116 Y24.8665 I0.344 J-0.241
G3 X133.5645 Y24.9544 I-0.3911 J-0.1531
G1 X133.6325
G1 Y25.0744
G1 X135.8533
G1 X135.8396 Y25.0134
G1 X134.0028
G3 X133.7105 Y24.781 I0.0 J-0.3
G1 X132.5713 Y19.8507
G1 X132.4048
G1 X133.5128 Y24.6459
G3 X133.2205 Y25.0134 I-0.2923 J0.0675
G1 X131.5186
G1 X131.5324 Y25.0744
G1 X133.6325
G0 Z3.0
G0 X136.7443 Y22.3309
G0 Z1.0
G1 Z-0.5
G3 X136.7909 Y22.2472 I0.3874 J0.1609
G3 X136.7123 Y22.1921 I0.2 J-0.3693
G1 X136.7443 Y22.3309
G0 Z3.0
G0 X140.0919 Y23.9875
G0 Z1.0
G1 Z-0.5
G3 X140.0762 Y24.1621 I-1.9061 J-0.0828
G3 X140.075 Y24.1704 I-0.4157 J-0.0566
G3 X139.9975 Y24.4415 I-1.1314 J-0.177
G3 X139.9955 Y24.4461 I-0.3861 J-0.1641
G3 X139.8677 Y24.662 I-0.9567 J-0.4203
G2 X140.0211 Y24.4691 I-0.5154 J-0.5672
G2 X140.0753 Y24.3161 I-0.4861 J-0.2585
G2 X140.0949 Y24.1035 I-1.1398 J-0.212
G3 Y24.0997 I0.42 J-0.0002
G2 X140.0919 Y23.9875 I-1.5826 J-0.0135
G1 X139.9724 Y23.9823
G3 X139.9578 Y24.146 I-1.7866 J-0.0776
G3 X139.9569 Y24.1519 I-0.2973 J-0.0405
G3 X139.8875 Y24.3947 I-1.0133 J-0.1585
G3 X139.886 Y24.398 I-0.2761 J-0.1174
G3 X139.6038 Y24.7587 I-0.8473 J-0.3723
G3 X139.1211 Y24.9828 I-0.7203 J-0.9191
G3 X138.9607 Y25.0108 I-0.312 J-1.3151
G3 X138.5272 Y25.0369 I-0.4167 J-3.3114
G1 X137.6519
G3 X137.3596 Y24.8046 I0.0 J-0.3
G1 X136.8394 Y22.5596
G3 X137.1317 Y22.1919 I0.2923 J-0.0677
G1 X137.9526
G3 X138.309 Y22.2078 I0.011 J3.75
G3 X138.3675 Y22.2138 I-0.0354 J0.6335
G3 X138.6379 Y22.2584 I-0.2189 J2.1705
G3 X138.6149 Y21.895 I0.2265 J-0.1967
G1 X139.981 Y19.8507
G1 X139.7925
G1 X138.3483 Y22.0429
G3 X138.0978 Y22.1778 I-0.2505 J-0.165
G1 X136.9909
G3 X136.6986 Y21.9451 I0.0 J-0.3
G1 X136.2163 Y19.8507
G1 X136.0498
G1 X137.2531 Y25.0744
G1 X138.602
G2 X139.0175 Y25.0614 I-0.0131 J-7.0787
G2 X139.41 Y25.0114 I-0.1988 J-3.1212
G3 X139.4102 Y25.0113 I0.0567 J0.2946
G2 X139.8706 Y24.8139 I-0.2204 J-1.1494
G2 X140.1264 Y24.5266 I-0.5183 J-0.7191
G2 X140.1932 Y24.3386 I-0.5915 J-0.316
G2 X140.2149 Y24.1034 I-1.2577 J-0.2345
G3 Y24.1007 I0.3 J-0.0002
G2 X140.1195 Y23.5243 I-1.7026 J-0.0145
G2 X139.8289 Y23.0185 I-1.5832 J0.5733
G3 X139.8282 Y23.0177 I0.2303 J-0.1923
G2 X139.3605 Y22.6064 I-1.5277 J1.2657
G2 X139.3517 Y22.6009 I-1.1777 J1.8775
G3 X139.8017 Y23.1699 I-1.0234 J1.2719
G3 X139.974 Y23.9278 I-1.5673 J0.7547
G3 X139.9739 Y23.9318 I-0.3 J-0.0006
G3 X139.9724 Y23.9823 I-1.7881 J-0.0271
G1 X140.0919 Y23.9875
G1 Z-1.0
G3 X140.0762 Y24.1621 I-1.9061 J-0.0828
G3 X140.075 Y24.1704 I-0.4157 J-0.0566
G3 X139.9975 Y24.4415 I-1.1314 J-0.177
G3 X139.9955 Y24.4461 I-0.3861 J-0.1641
G3 X139.8677 Y24.662 I-0.9567 J-0.4203
G2 X140.0211 Y24.4691 I-0.5154 J-0.5672
G2 X140.0753 Y24.3161 I-0.4861 J-0.2585
G2 X140.0949 Y24.1035 I-1.1398 J-0.212
G3 Y24.0997 I0.42 J-0.0002
G2 X140.0919 Y23.9875 I-1.5826 J-0.0135
G0 Z3.0
G0 X136.7909 Y22.2472
G0 Z0.5
G1 Z-1.0
G3 X136.7123 Y22.1921 I0.2 J-0.3693
G1 X136.7443 Y22.3309
G3 X136.7909 Y22.2472 I0.3874 J0.1609
G1 X136.888 Y22.3169
G3 X137.1317 Y22.1919 I0.2437 J0.175
G1 X137.9526
G3 X138.309 Y22.2078 I0.011 J3.75
G3 X138.3675 Y22.2138 I-0.0354 J0.6335
G3 X138.6379 Y22.2584 I-0.2189 J2.1705
G3 X138.6149 Y21.895 I0.2265 J-0.1967
G1 X139.981 Y19.8507
G1 X139.7925
G1 X138.3483 Y22.0429
G3 X138.0978 Y22.1778 I-0.2505 J-0.165
G1 X136.9909
G3 X136.6986 Y21.9451 I0.0 J-0.3
G1 X136.2163 Y19.8507
G1 X136.0498
G1 X137.2531 Y25.0744
G1 X138.602
G2 X139.0175 Y25.0614 I-0.0131 J-7.0787
G2 X139.41 Y25.0114 I-0.1988 J-3.1212
G3 X139.4102 Y25.0113 I0.0567 J0.2946
G2 X139.8706 Y24.8139 I-0.2204 J-1.1494
G2 X140.1264 Y24.5266 I-0.5183 J-0.7191
G2 X140.1932 Y24.3386 I-0.5915 J-0.316
G2 X140.2149 Y24.1034 I-1.2577 J-0.2345
G3 Y24.1007 I0.3 J-0.0002
G2 X140.1195 Y23.5243 I-1.7026 J-0.0145
G2 X139.8289 Y23.0185 I-1.5832 J0.5733
G3 X139.8282 Y23.0177 I0.2303 J-0.1923
G2 X139.3605 Y22.6064 I-1.5277 J1.2657
G2 X139.3517 Y22.6009 I-1.1777 J1.8775
G3 X139.8017 Y23.1699 I-1.0234 J1.2719
G3 X139.974 Y23.9278 I-1.5673 J0.7547
G3 X139.9739 Y23.9318 I-0.3 J-0.0006
G3 X139.9578 Y24.146 I-1.7881 J-0.0271
G3 X139.9569 Y24.1519 I-0.2973 J-0.0405
G3 X139.8875 Y24.3947 I-1.0133 J-0.1585
G3 X139.886 Y24.398 I-0.2761 J-0.1174
G3 X139.6038 Y24.7587 I-0.8473 J-0.3723
G3 X139.1211 Y24.9828 I-0.7203 J-0.9191
G3 X138.9607 Y25.0108 I-0.312 J-1.3151
G3 X138.5272 Y25.0369 I-0.4167 J-3.3114
G1 X137.6519
G3 X137.3596 Y24.8046 I0.0 J-0.3
G1 X136.8394 Y22.5596
G3 X136.888 Y22.3169 I0.2923 J-0.0677
G0 Z3.0
G0 X141.8052 Y21.9619
G0 Z1.0
G1 Z-0.5
G2 X141.8454 Y22.3262 I4.8044 J-0.3468
G3 X141.8455 Y22.3267 I-0.2967 J0.0443
G2 X142.0111 Y23.0087 I3.7929 J-0.56
G3 X142.0118 Y23.0107 I-0.2838 J0.0972
G2 X142.6363 Y24.1521 I3.4896 J-1.1678
G2 X143.6013 Y24.9112 I2.2396 J-1.8541
G3 X143.6037 Y24.9124 I-0.1315 J0.2696
G2 X144.212 Y25.1265 I1.1602 J-2.3247
G2 X144.8638 Y25.1957 I0.6492 J-3.013
G3 X144.8659 I0.0003 J0.3
G2 X145.2635 Y25.1703 I0.0173 J-2.8595
G3 X145.2658 Y25.17 I0.0399 J0.2973
G2 X145.8224 Y25.0194 I-0.2608 J-2.0676
G2 X146.2834 Y24.714 I-0.6177 J-1.4331
G2 X146.669 Y24.0929 I-1.0291 J-1.0691
G3 X146.6698 Y24.0903 I0.286 J0.0905
G2 X146.7554 Y23.7158 I-2.006 J-0.6553
G1 X146.7678 Y23.6105
G2 X146.7817 Y23.3162 I-2.5702 J-0.269
G3 Y23.3125 I0.3 J-0.0029
G2 X146.5675 Y21.9428 I-4.4149 J-0.011
G3 X146.5669 Y21.941 I0.2854 J-0.0923
G2 X145.9559 Y20.7982 I-3.3664 J1.0653
G1 X145.9558
G2 X144.9842 Y20.0126 I-2.2807 J1.8273
G2 X144.3688 Y19.7969 I-1.1631 J2.3326
G2 X143.7076 Y19.7294 I-0.655 J3.1438
G2 X143.3034 Y19.7552 I0.0205 J3.4976
G2 X142.7482 Y19.9062 I0.2515 J2.0215
G2 X142.2886 Y20.2135 I0.6246 J1.4315
G2 X141.9047 Y20.8376 I1.0681 J1.0871
G1 Y20.8377
G2 X141.8184 Y21.2173 I2.1764 J0.694
G2 X141.7926 Y21.6136 I2.7278 J0.3765
G3 X141.7927 Y21.6157 I-0.3 J0.0022
G2 X141.8052 Y21.9619 I4.8169 J-0.0006
G1 X142.015 Y21.952
G3 X142.0101 Y21.7389 I4.4202 J-0.2095
G3 X142.1039 Y21.0014 I2.6669 J-0.0355
G3 X142.4887 Y20.2977 I1.6564 J0.4486
G3 X142.4908 Y20.2954 I0.2223 J0.2015
G3 X143.1281 Y19.879 I1.1498 J1.0641
G3 X143.4833 Y19.7919 I0.6269 J1.788
G3 X143.6612 Y19.7728 I0.3186 J2.1261
G3 X143.6656 Y19.7725 I0.0196 J0.2994
G1 X143.7429 Y19.7686
G3 X143.7532 Y19.7683 I0.0152 J0.2996
G1 X143.8305 Y19.767
G3 X143.8322 I0.0049 J0.3
G3 X144.9844 Y20.059 I0.0254 J2.3192
G3 X144.9858 Y20.0597 I-0.1458 J0.2622
G3 X145.8415 Y20.8207 I-1.3199 J2.346
G3 X146.3832 Y21.9063 I-2.8842 J2.1171
G3 X146.5227 Y22.5536 I-3.8084 J1.1591
G3 X146.5643 Y23.2001 I-4.9678 J0.6442
G3 X146.563 Y23.2982 I-1.3284 J0.0312
G3 X146.5342 Y23.6354 I-3.044 J-0.0893
G3 X146.3914 Y24.1565 I-2.0803 J-0.2903
G3 X146.0829 Y24.6343 I-1.4924 J-0.6249
G3 X146.0821 Y24.6352 I-0.2195 J-0.2045
G3 X145.447 Y25.047 I-1.1529 J-1.0824
G3 X145.4441 Y25.048 I-0.0982 J-0.2835
G3 X144.7411 Y25.1581 I-0.6765 J-2.0198
G3 X144.1511 Y25.0884 I-0.0025 J-2.5087
G3 X144.1491 Y25.0879 I0.0703 J-0.2917
G3 X143.5856 Y24.8628 I0.5375 J-2.1637
G3 X143.5844 Y24.8621 I0.1481 J-0.2609
G3 X142.717 Y24.0845 I1.3931 J-2.4265
G3 X142.7152 Y24.082 I0.2424 J-0.1768
G3 X142.1901 Y22.9919 I2.89 J-2.0635
G3 X142.015 Y21.952 I4.2451 J-1.2493
G1 Z-1.0
G3 X142.0101 Y21.7389 I4.4202 J-0.2095
G3 X142.1039 Y21.0014 I2.6669 J-0.0355
G3 X142.4887 Y20.2977 I1.6564 J0.4486
G3 X142.4908 Y20.2954 I0.2223 J0.2015
G3 X143.1281 Y19.879 I1.1498 J1.0641
G3 X143.4833 Y19.7919 I0.6269 J1.788
G3 X143.6612 Y19.7728 I0.3186 J2.1261
G3 X143.6656 Y19.7725 I0.0196 J0.2994
G1 X143.7429 Y19.7686
G3 X143.7532 Y19.7683 I0.0152 J0.2996
G1 X143.8305 Y19.767
G3 X143.8322 I0.0049 J0.3
G3 X144.9844 Y20.059 I0.0254 J2.3192
G3 X144.9858 Y20.0597 I-0.1458 J0.2622
G3 X145.8415 Y20.8207 I-1.3199 J2.346
G3 X146.3832 Y21.9063 I-2.8842 J2.1171
G3 X146.5227 Y22.5536 I-3.8084 J1.1591
G3 X146.5643 Y23.2001 I-4.9678 J0.6442
G3 X146.563 Y23.2982 I-1.3284 J0.0312
G3 X146.5342 Y23.6354 I-3.044 J-0.0893
G3 X146.3914 Y24.1565 I-2.0803 J-0.2903
G3 X146.0829 Y24.6343 I-1.4924 J-0.6249
G3 X146.0821 Y24.6352 I-0.2195 J-0.2045
G3 X145.447 Y25.047 I-1.1529 J-1.0824
G3 X145.4441 Y25.048 I-0.0982 J-0.2835
G3 X144.7411 Y25.1581 I-0.6765 J-2.0198
G3 X144.1511 Y25.0884 I-0.0025 J-2.5087
G3 X144.1491 Y25.0879 I0.0703 J-0.2917
G3 X143.5856 Y24.8628 I0.5375 J-2.1637
G3 X143.5844 Y24.8621 I0.1481 J-0.2609
G3 X142.717 Y24.0845 I1.3931 J-2.4265
G3 X142.7152 Y24.082 I0.2424 J-0.1768
G3 X142.1901 Y22.9919 I2.89 J-2.0635
G3 X142.015 Y21.952 I4.2451 J-1.2493
G1 X141.8055 Y21.9674
G2 X141.8454 Y22.3262 I4.804 J-0.3522
G3 X141.8455 Y22.3267 I-0.2967 J0.0443
G2 X142.0111 Y23.0087 I3.7929 J-0.56
G3 X142.0118 Y23.0107 I-0.2838 J0.0972
G2 X142.6363 Y24.1521 I3.4896 J-1.1678
G2 X143.6013 Y24.9112 I2.2396 J-1.8541
G3 X143.6037 Y24.9124 I-0.1315 J0.2696
G2 X144.212 Y25.1265 I1.1602 J-2.3247
G2 X144.8638 Y25.1957 I0.6492 J-3.013
G3 X144.8659 I0.0003 J0.3
G2 X145.2635 Y25.1703 I0.0173 J-2.8595
G3 X145.2658 Y25.17 I0.0399 J0.2973
G2 X145.8224 Y25.0194 I-0.2608 J-2.0676
G2 X146.2834 Y24.714 I-0.6177 J-1.4331
G2 X146.669 Y24.0929 I-1.0291 J-1.0691
G3 X146.6698 Y24.0903 I0.286 J0.0905
G2 X146.7554 Y23.7158 I-2.006 J-0.6553
G1 X146.7678 Y23.6105
G2 X146.7817 Y23.3162 I-2.5702 J-0.269
G3 Y23.3125 I0.3 J-0.0029
G2 X146.5675 Y21.9428 I-4.4149 J-0.011
G3 X146.5669 Y21.941 I0.2854 J-0.0923
G2 X145.9559 Y20.7982 I-3.3664 J1.0653
G1 X145.9558
G2 X144.9842 Y20.0126 I-2.2807 J1.8273
G2 X144.3688 Y19.7969 I-1.1631 J2.3326
G2 X143.7076 Y19.7294 I-0.655 J3.1438
G2 X143.3034 Y19.7552 I0.0205 J3.4976
G2 X142.7482 Y19.9062 I0.2515 J2.0215
G2 X142.2886 Y20.2135 I0.6246 J1.4315
G2 X141.9047 Y20.8376 I1.0681 J1.0871
G1 Y20.8377
G2 X141.8184 Y21.2173 I2.1764 J0.694
G2 X141.7926 Y21.6136 I2.7278 J0.3765
G3 X141.7927 Y21.6157 I-0.3 J0.0022
G2 X141.8055 Y21.9674 I4.8169 J-0.0006
G0 Z3.0
G0 X139.8582 Y27.5559
G0 Z1.0
G1 Z-0.5
G1 X139.8351
G1 X139.8313 Y27.5844
G3 X139.8582 Y27.5559 I0.3184 J0.2739
G1 X139.9415 Y27.6423
G3 X140.4084 Y27.7064 I0.2082 J0.216
G1 X143.3865 Y32.7784
G1 X143.5292
G1 X140.3503 Y27.4359
G1 X139.73
G1 X139.0196 Y32.7784
G1 X139.2342
G1 X139.852 Y27.8212
G3 X139.9415 Y27.6423 I0.2977 J0.0371
G1 X139.8582 Y27.5559
G1 Z-1.0
G1 X139.8351
G1 X139.8313 Y27.5844
G3 X139.8582 Y27.5559 I0.3184 J0.2739
G1 X139.9415 Y27.6423
G3 X140.4084 Y27.7064 I0.2082 J0.216
G1 X143.3865 Y32.7784
G1 X143.5292
G1 X140.3503 Y27.4359
G1 X139.73
G1 X139.0196 Y32.7784
G1 X139.2342
G1 X139.852 Y27.8212
G3 X139.9415 Y27.6423 I0.2977 J0.0371
G0 Z3.0
G0 X144.1855 Y27.5559
G0 Z1.0
G1 Z-0.5
G1 X144.2102 Y27.6632
G3 X144.2695 Y27.5559 I0.3934 J0.1471
G1 X144.1855
G0 Z3.0
G0 X144.8315 Y30.3602
G0 Z1.0
G1 Z-0.5
G1 X144.8832 Y30.5847
G3 X144.9657 Y30.447 I0.3949 J0.1431
G3 X144.8315 Y30.3602 I0.1567 J-0.3897
G1 X144.9146 Y30.2736
G3 X144.8301 Y30.1248 I0.2078 J-0.2164
G1 X144.3113 Y27.8779
G3 X144.6036 Y27.5104 I0.2923 J-0.0675
G1 X147.3514
G1 X147.3342 Y27.4359
G1 X144.0347
G1 X145.2654 Y32.7784
G1 X148.5646
G1 X148.5474 Y32.704
G1 X145.6612
G3 X145.3687 Y32.4708 I0.0 J-0.3
G1 X144.9856 Y30.7946
G3 X145.2781 Y30.4278 I0.2925 J-0.0668
G1 X148.0253
G1 X148.009 Y30.3573
G1 X145.1224
G3 X144.9146 Y30.2736 I0.0 J-0.3
G1 X144.8315 Y30.3602
G1 Z-1.0
G1 X144.8832 Y30.5847
G3 X144.9657 Y30.447 I0.3949 J0.1431
G3 X144.8315 Y30.3602 I0.1567 J-0.3897
G0 Z3.0
G0 X144.2102 Y27.6632
G0 Z0.5
G1 Z-1.0
G3 X144.2695 Y27.5559 I0.3934 J0.1471
G1 X144.1855
G1 X144.2102 Y27.6632
G1 X144.3226 Y27.7053
G3 X144.6036 Y27.5104 I0.281 J0.1051
G1 X147.3514
G1 X147.3342 Y27.4359
G1 X144.0347
G1 X145.2654 Y32.7784
G1 X148.5646
G1 X148.5474 Y32.704
G1 X145.6612
G3 X145.3687 Y32.4708 I0.0 J-0.3
G1 X144.9856 Y30.7946
G3 X145.2781 Y30.4278 I0.2925 J-0.0668
G1 X148.0253
G1 X148.009 Y30.3573
G1 X145.1224
G3 X144.8301 Y30.1248 I0.0 J-0.3
G1 X144.3113 Y27.8779
G3 X144.3226 Y27.7053 I0.2923 J-0.0675
G0 Z3.0
G0 X151.0078 Y30.0824
G0 Z1.0
G1 Z-0.5
G3 X151.2039 Y29.9941 I0.2647 J0.3261
G3 X151.1306 Y29.8366 I0.3359 J-0.2521
G1 X151.1201 Y29.7911
G3 X151.1133 Y29.8099 I-0.3984 J-0.1329
G1 X151.0078 Y30.0824
G1 X151.0834 Y30.1755
G3 X151.502 Y30.2153 I0.189 J0.2329
G1 X153.659 Y32.7784
G1 X153.7352
G1 X151.3116 Y29.9367
G3 X151.2476 Y29.8096 I0.2283 J-0.1947
G1 X150.6987 Y27.4359
G1 X150.5162
G1 X151.014 Y29.5907
G3 X151.0014 Y29.7666 I-0.2923 J0.0675
G1 X149.8347 Y32.7784
G1 X150.0369
G1 X150.9925 Y30.3005
G3 X151.0834 Y30.1755 I0.2799 J0.1079
G1 X151.0078 Y30.0824
G1 Z-1.0
G3 X151.2039 Y29.9941 I0.2647 J0.3261
G3 X151.1306 Y29.8366 I0.3359 J-0.2521
G1 X151.1201 Y29.7911
G3 X151.1133 Y29.8099 I-0.3984 J-0.1329
G1 X151.0078 Y30.0824
G1 X151.0834 Y30.1755
G3 X151.502 Y30.2153 I0.189 J0.2329
G1 X153.659 Y32.7784
G1 X153.7352
G1 X151.3116 Y29.9367
G3 X151.2476 Y29.8096 I0.2283 J-0.1947
G1 X150.6987 Y27.4359
G1 X150.5162
G1 X151.014 Y29.5907
G3 X151.0014 Y29.7666 I-0.2923 J0.0675
G1 X149.8347 Y32.7784
G1 X150.0369
G1 X150.9925 Y30.3005
G3 X151.0834 Y30.1755 I0.2799 J0.1079
G0 Z3.0
G0 X151.2982 Y20.2576
G0 Z1.0
G1 Z-0.5
G3 X151.7307 Y20.2592 I0.2149 J0.3609
G1 X151.664 Y19.9707
G1 X151.3859
G1 X151.2982 Y20.2576
G1 X151.1834 Y20.2225
G1 X149.7701 Y24.848
G3 X149.1909 Y24.8279 I-0.2869 J-0.0877
G1 X148.04 Y19.8507
G1 X147.9244
G1 X149.1312 Y25.0744
G1 X149.8362
G1 X151.2262 Y20.5307
G3 X151.8054 Y20.5509 I0.2869 J0.0878
G1 X152.8507 Y25.0744
G1 X152.9663
G1 X151.7595 Y19.8507
G1 X151.297
G1 X151.1834 Y20.2225
G1 X151.2982 Y20.2576
G1 Z-1.0
G3 X151.7307 Y20.2592 I0.2149 J0.3609
G1 X151.664 Y19.9707
G1 X151.3859
G1 X151.2982 Y20.2576
G1 X151.1834 Y20.2225
G1 X149.7701 Y24.848
G3 X149.1909 Y24.8279 I-0.2869 J-0.0877
G1 X148.04 Y19.8507
G1 X147.9244
G1 X149.1312 Y25.0744
G1 X149.8362
G1 X151.2262 Y20.5307
G3 X151.8054 Y20.5509 I0.2869 J0.0878
G1 X152.8507 Y25.0744
G1 X152.9663
G1 X151.7595 Y19.8507
G1 X151.297
G1 X151.1834 Y20.2225
G0 Z3.0
G0 X162.1465 Y27.3646
G0 Z1.0
G1 Z-0.5
G3 X162.1774 Y27.4649 I-5.9086 J1.8737
G3 X162.1789 Y27.4699 I-1.2073 J0.3605
G3 X162.2349 Y27.6913 I-2.8696 J0.8439
G2 X162.4296 Y27.7199 I0.3886 J-1.9679
G3 X162.8606 Y27.7835 I-0.2402 J3.1184
G1 X162.9402 Y27.8008
G3 X162.7492 Y27.5741 I1.3963 J-1.3701
G3 X162.7341 Y27.5526 I1.0223 J-0.7365
G3 X162.6902 Y27.4862 I1.6505 J-1.1375
G2 X162.6154 Y27.4589 I-0.4308 J1.0638
G3 X162.6144 Y27.4585 I0.3909 J-1.1978
G2 X162.1718 Y27.367 I-0.6271 J1.9161
G3 X162.1622 Y27.3661 I0.1153 J-1.2547
G2 X162.1465 Y27.3646 I-0.3223 J3.2373
G1 X162.1691 Y27.1256
G2 X161.8075 Y27.1102 I-0.3293 J3.4778
G3 X161.806 I-0.0095 J-1.02
G1 X161.8653 Y27.2795
G3 X161.8662 Y27.2818 I-0.9626 J0.3372
G3 X161.9474 Y27.5336 I-5.6283 J1.9564
G3 X161.9486 Y27.5376 I-0.9774 J0.2918
G3 X162.0267 Y27.8846 I-2.6393 J0.7762
G2 X162.1253 Y27.9133 I0.2714 J-0.7462
G3 X162.1282 Y27.914 I-0.2221 J0.9955
G2 X162.4089 Y27.959 I0.4954 J-2.1906
G3 X162.8094 Y28.018 I-0.2195 J2.8793
G1 X163.0728 Y28.075
G3 X163.0971 Y28.0806 I-0.2157 J0.9969
G2 X163.386 Y28.1386 I0.877 J-3.6218
G3 X163.5372 Y27.9488 I0.8678 J0.536
G3 X163.37 Y27.8487 I0.986 J-1.8363
G3 X163.3452 Y27.8317 I0.5643 J-0.8497
G3 X162.944 Y27.4339 I0.9912 J-1.401
G3 X162.9317 Y27.4164 I0.8276 J-0.5962
G3 X162.8564 Y27.2972 I1.4529 J-1.0013
G2 X162.6899 Y27.2307 I-0.597 J1.2528
G3 X162.689 Y27.2304 I0.3164 J-0.9697
G2 X162.1937 Y27.128 I-0.7017 J2.1442
G3 X162.186 Y27.1273 I0.0933 J-1.0157
G2 X162.1691 Y27.1256 I-0.3461 J3.4761
G1 X162.1918 Y26.8867
G2 X161.8052 Y26.8702 I-0.3519 J3.7167
G3 X161.8037 I-0.0072 J-0.78
G2 X161.4815 Y26.8835 I0.0349 J4.7627
G2 X161.505 Y26.9666 I2.0316 J-0.5291
G1 X161.5243 Y27.0274
G1 X161.5759 Y27.1791
G1 X161.6388 Y27.3588
G3 X161.6395 Y27.3606 I-0.7361 J0.2579
G3 X161.7175 Y27.6022 I-5.4016 J1.8776
G3 X161.7184 Y27.6053 I-0.7474 J0.2231
G3 X161.795 Y27.9574 I-2.4091 J0.7085
G3 X161.8016 Y28.0237 I-0.7721 J0.1107
G2 X161.8137 Y28.0449 I0.0274 J-0.0016
G3 X161.8197 Y28.049 I-0.4358 J0.6469
G2 X161.8972 Y28.0915 I0.2492 J-0.3626
G2 X162.073 Y28.1476 I0.401 J-0.9531
G3 X162.0752 Y28.1481 I-0.1698 J0.7613
G2 X162.3884 Y28.1982 I0.5483 J-2.4247
G3 X162.7583 Y28.2525 I-0.199 J2.6402
G1 X163.0221 Y28.3096
G3 X163.0407 Y28.3139 I-0.165 J0.7624
G2 X163.4866 Y28.3952 I0.9335 J-3.8551
G3 X163.4898 Y28.3956 I-0.0959 J0.7741
G2 X163.5242 Y28.399 I0.0736 J-0.5738
G3 X164.1054 Y27.9088 I0.7297 J0.2756
G3 X163.5028 Y27.6488 I0.4178 J-1.7963
G3 X163.4838 Y27.6358 I0.4315 J-0.6498
G3 X163.1387 Y27.2936 I0.8526 J-1.2051
G3 X163.1293 Y27.2803 I0.6329 J-0.4559
G3 X163.0312 Y27.1169 I1.2553 J-0.8651
G2 X162.7643 Y27.0026 I-0.7718 J1.4331
G3 X162.7637 Y27.0023 I0.242 J-0.7415
G2 X162.2157 Y26.889 I-0.7764 J2.3723
G3 X162.2098 Y26.8884 I0.0714 J-0.7767
G2 X162.1918 Y26.8867 I-0.3699 J3.715
G0 Z3.0
G0 X169.0351 Y35.7849
G0 Z1.0
G1 Z-0.5
G3 X169.0113 Y35.8141 I-38.113 J-31.0387
G3 X169.0243 Y35.8225 I-0.6752 J1.0638
G3 X169.0351 Y35.7849 I11.1278 J3.1618
G1 X169.2657 Y35.8513
G3 X169.781 Y34.427 I10.8864 J3.133
G3 X169.6468 Y34.6092 I-5.3715 J-3.816
G3 X169.5684 Y34.714 I-3.8899 J-2.8279
G3 X168.9497 Y35.5092 I-20.2859 J-15.1434
G3 X168.6294 Y35.901 I-38.0276 J-30.763
G3 X169.1531 Y36.2673 I-0.2934 J0.9769
G3 X169.2199 Y36.015 I12.7355 J3.2394
G3 X169.2657 Y35.8513 I10.9322 J2.9693
G0 Z3.0
G0 X172.1077 Y37.682
G0 Z1.0
G1 Z-0.5
G3 X172.3152 Y37.4931 I2.7354 J2.797
G3 X172.91 Y37.063 I3.0165 J3.5447
G3 X173.7329 Y36.6441 I3.0475 J4.9699
G3 X174.7197 Y36.3058 I3.161 J7.6122
G3 X175.9462 Y35.9244 I1.8975 J3.9383
G3 X175.951 Y35.9236 I0.1565 J1.0074
G3 X177.0579 Y35.8864 I0.7137 J4.7465
G2 X174.6469 Y36.1955 I-0.6561 J4.4405
G3 X174.4708 Y36.2521 I-0.3986 J-0.9384
G2 X173.4685 Y36.5987 I1.0258 J4.5879
G3 X173.4662 Y36.5998 I-0.4398 J-0.9198
G2 X172.603 Y37.156 I1.7136 J3.6074
G2 X172.1484 Y37.6289 I2.1145 J2.4878
G3 X172.1478 Y37.6296 I-0.8022 J-0.6292
G2 X172.1077 Y37.682 I2.1949 J1.7247
G0 Z3.0
G0 X173.1989 Y30.2935
G0 Z1.0
G1 Z-0.5
G3 X173.6926 Y30.0764 I3.2439 J6.7054
G3 X173.6944 Y30.0756 I0.465 J1.1705
G3 X174.2852 Y29.8675 I3.0427 J7.6939
G3 X173.2743 Y29.7663 I3.8978 J-44.0286
G3 X173.1989 Y30.2935 I-1.2568 J0.0893
G1 X173.3034 Y30.5096
G3 X173.7812 Y30.2994 I3.1393 J6.4893
G3 X173.7827 Y30.2988 I0.3764 J0.9475
G3 X175.494 Y29.8326 I2.9544 J7.4707
G3 X176.6527 Y29.7267 I1.4015 J8.9453
G3 X178.1795 Y29.8003 I0.2809 J10.0517
G3 X180.1317 Y30.2077 I-1.4789 J11.9675
G3 X181.08 Y30.5276 I-3.7819 J12.7779
G2 X180.1363 Y30.1611 I-3.9633 J8.8079
G3 X180.1344 Y30.1605 I0.3189 J-0.9689
G2 X178.2483 Y29.7116 I-3.5393 J10.6846
G2 X176.9423 Y29.5828 I-1.9978 J13.5688
G3 X176.9336 Y29.5823 I0.0514 J-1.0187
G2 X176.7856 Y29.5761 I-0.2625 J4.4448
G3 X176.7763 Y29.5758 I0.0262 J-1.0197
G2 X174.9667 Y29.624 I-0.5129 J14.7296
G1 X174.7208 Y29.6474
G3 X174.5397 Y29.6485 I-0.0966 J-1.0154
G3 X172.9695 Y29.4895 I3.6433 J-43.8095
G3 X172.6466 Y30.6584 I-0.952 J0.3661
G2 X171.8027 Y31.4033 I5.9334 J7.5723
G3 X171.7992 Y31.4067 I-0.7186 J-0.7239
G2 X171.0788 Y32.2281 I5.1937 J5.2826
G2 X170.698 Y32.7942 I5.3921 J4.0374
G3 X170.7196 Y32.7641 I6.1211 J4.3654
G3 X171.1093 Y32.2573 I6.3566 J4.4849
G3 X172.1447 Y31.2142 I6.3375 J5.2554
G3 X172.2014 Y31.1698 I0.6566 J0.78
G3 X173.3034 Y30.5096 I4.2413 J5.8291
G0 Z3.0
G0 X163.1535 Y41.5187
G0 Z1.0
G1 Z-0.5
G2 X163.0865 Y41.6008 I5.471 J4.5359
G3 X162.9611 Y41.7353 I-0.9819 J-0.7896
G2 X162.9994 Y41.8296 I0.7816 J-0.2627
G3 X163.0007 Y41.8323 I-1.1357 J0.5456
G2 X163.0352 Y41.9024 I3.1033 J-1.4821
G1 X163.0381 Y41.8991
G1 Y41.899
G1 Y41.8991
G2 X163.1608 Y41.7167 I-0.6299 J-0.5565
G2 X163.1646 Y41.6915 I-0.0415 J-0.0191
G3 X163.1535 Y41.5187 I1.2488 J-0.1675
G1 X162.9687 Y41.3655
G2 X162.8994 Y41.4503 I5.6558 J4.6891
G3 X162.7518 Y41.5995 I-0.7948 J-0.6392
G2 X162.6996 Y41.6581 I0.1603 J0.1952
G2 X162.7096 Y41.7296 I0.3654 J-0.0145
G2 X162.7831 Y41.9336 I1.0331 J-0.257
G3 X162.7841 Y41.9357 I-0.9194 J0.4417
G2 X162.9857 Y42.3026 I3.3199 J-1.5855
G2 X163.0817 Y42.2066 I-3.2306 J-3.3258
G1 X163.1127 Y42.1745
G3 X163.1245 Y42.1625 I0.7337 J0.7086
G2 X163.1448 Y42.1407 I-0.316 J-0.3154
G3 X163.1488 Y42.1361 I0.7684 J0.6708
G1 X163.2179 Y42.058
G2 X163.3767 Y41.8215 I-0.8097 J-0.7154
G2 X163.4025 Y41.6596 I-0.2574 J-0.124
G3 X163.4419 Y41.2134 I1.011 J-0.1356
G3 X163.1581 Y41.1458 I0.092 J-1.0158
G2 X163.1489 Y41.1561 I0.5895 J0.5299
G3 X163.1401 Y41.1661 I-0.7703 J-0.6686
G2 X162.9687 Y41.3655 I5.4844 J4.8885
G1 X162.7839 Y41.2123
G2 X162.7124 Y41.2999 I5.8406 J4.8423
G3 X162.5995 Y41.414 I-0.6078 J-0.4888
G2 X162.4831 Y41.5525 I0.3125 J0.3807
G2 X162.4594 Y41.6503 I0.1993 J0.1002
G2 X162.4765 Y41.7868 I0.6056 J-0.0067
G2 X162.5668 Y42.0375 I1.2662 J-0.3143
G3 X162.5676 Y42.0391 I-0.7031 J0.3378
G2 X162.7929 Y42.4467 I3.5365 J-1.689
G3 X162.8085 Y42.4724 I-0.659 J0.4173
G2 X162.8164 Y42.485 I0.1756 J-0.1019
G3 X162.8305 Y42.5064 I-0.6442 J0.4398
G2 X162.9391 Y42.6738 I9.0874 J-5.7758
G1 X163.031 Y42.5893
G3 X163.0346 Y42.586 I0.5282 J0.574
G2 X163.2542 Y42.3735 I-3.2795 J-3.6092
G1 X163.2854 Y42.3412
G3 X163.2944 Y42.332 I0.5611 J0.5419
G2 X163.3256 Y42.2985 I-0.4858 J-0.4849
G3 X163.3287 Y42.2951 I0.5876 J0.513
G1 X163.3978 Y42.2169
G2 X163.5924 Y41.9269 I-0.9896 J-0.8743
G2 X163.6404 Y41.6277 I-0.4731 J-0.2294
G3 X163.7591 Y41.0995 I0.7731 J-0.1037
G3 X163.9008 Y40.8859 I10.4801 J6.7985
G3 X163.1137 Y40.8547 I-0.3669 J-0.6883
G2 X163.044 Y40.9194 I0.8383 J0.9729
G3 X163.0326 Y40.9306 I-0.5515 J-0.5516
G2 X162.9677 Y40.9988 I0.7149 J0.7452
G3 X162.961 Y41.0065 I-0.589 J-0.5113
G2 X162.7839 Y41.2123 I5.6636 J5.0482
G0 Z3.0
G0 X169.4071 Y46.0032
G0 Z1.0
G1 Z-0.5
G3 X169.4017 Y46.7568 I-108.6389 J-0.4065
G3 X169.5924 Y46.747 I0.1473 J1.0093
G3 X169.4608 Y46.2265 I31.4504 J-8.2286
G3 X169.4071 Y46.0032 I27.876 J-6.8243
G1 X169.1671 Y46.0023
G3 X169.1576 Y47.0914 I-108.3989 J-0.4056
G3 X169.9321 Y47.0866 I0.3914 J0.6747
G3 X169.694 Y46.1695 I31.1107 J-8.5682
G3 X169.1438 Y43.285 I27.6429 J-6.7673
G3 X169.1463 Y43.4327 I-7.5804 J0.2018
G3 X169.1671 Y46.0023 I-108.3781 J2.164
G0 Z3.0
G0 X168.7197 Y54.9554
G0 Z1.0
G1 Z-0.5
G2 X168.5651 Y55.7815 I4.6339 J1.2944
G3 X168.5648 Y55.7852 I-0.7763 J-0.0759
G2 X168.5906 Y56.7155 I3.5661 J0.3663
G2 X168.7073 Y57.1584 I2.3762 J-0.3888
G3 X168.7661 Y57.23 I-3.5279 J2.9601
G3 X168.8002 Y57.2718 I-0.7993 J0.6876
G1 X168.8426 Y57.3234
G3 X168.8503 Y57.3329 I-0.6028 J0.495
G2 X168.8995 Y57.3923 I1.5059 J-1.1975
G3 X168.91 Y57.4047 I-0.5905 J0.5096
G2 X168.9844 Y57.492 I3.0781 J-2.5462
G2 X169.0012 Y56.9 I-4.583 J-0.4267
G3 Y56.8984 I0.7795 J-0.028
G2 X168.793 Y55.5222 I-5.9939 J0.2028
G3 X168.7716 Y55.4144 I0.7525 J-0.2054
G3 X168.7197 Y54.9554 I17.96 J-2.2643
G0 Z3.0
G0 X174.29 Y57.2845
G0 Z1.0
G1 Z-0.5
G3 X174.3383 Y57.4185 I-14.0297 J5.1234
G3 X174.3686 Y57.4078 I0.3569 J0.9555
G1 X174.3544 Y57.3858
G3 X174.3521 Y57.3822 I0.8573 J-0.5517
G3 X174.29 Y57.2845 I35.4591 J-22.6106
G1 X174.0646 Y57.3668
G3 X174.1127 Y57.5006 I-13.8042 J5.041
G3 X174.2041 Y57.7519 I-15.0596 J5.6166
G3 X174.2087 Y57.7644 I-16.8066 J6.2455
G3 X174.7766 Y57.5983 I0.4865 J0.6097
G1 X174.5562 Y57.2559
G3 X174.5545 Y57.2531 I0.6555 J-0.4218
G3 X173.5031 Y55.5124 I35.2567 J-22.4816
G3 X173.1407 Y54.8665 I35.3297 J-20.2509
G3 X173.3319 Y55.3786 I-129.1144 J48.4939
G3 X173.4012 Y55.5646 I-8.744 J3.366
G3 X173.4713 Y55.7533 I-9.0484 J3.4695
G3 X173.5435 Y55.9481 I-9.386 J3.5887
G3 X173.6178 Y56.1493 I-9.7653 J3.7228
G3 X173.6944 Y56.357 I-10.1951 J3.8752
G3 X173.7732 Y56.5714 I-10.688 J4.0505
G3 X173.8544 Y56.7927 I-11.2607 J4.2546
G3 X173.9379 Y57.0212 I-11.9374 J4.4963
G3 X174.024 Y57.2571 I-12.7533 J4.7883
G3 X174.0646 Y57.3668 I-13.7637 J5.1508
G0 Z3.0
G0 X176.7177 Y59.4332
G0 Z1.0
G1 Z-0.5
G2 X177.0256 Y59.8352 I35.4916 J-26.8725
G3 X177.0333 Y59.8452 I-0.8061 J0.6249
G2 X177.1204 Y59.957 I3.7696 J-2.8481
G3 X177.1295 Y59.9684 I-0.795 J0.639
G2 X178.1813 Y61.2573 I30.2681 J-23.6271
G1 X178.0448 Y61.0662
G3 X178.0391 Y61.0581 I0.8297 J-0.5925
G1 X177.6885 Y60.5569
G3 X177.6831 Y60.5491 I0.8354 J-0.5844
G1 X177.4986 Y60.2801
G3 X177.4972 Y60.2781 I0.8408 J-0.5766
G3 X176.8808 Y59.3457 I31.6297 J-21.5807
G3 X176.7177 Y59.4332 I-0.5613 J-0.8511
G1 X176.5263 Y59.5781
G2 X176.836 Y59.9822 I35.683 J-27.0173
G3 X176.8418 Y59.9899 I-0.6165 J0.4779
G2 X176.9334 Y60.1074 I3.9611 J-2.9927
G3 X176.9403 Y60.1161 I-0.608 J0.4887
G2 X178.6757 Y62.1859 I30.4573 J-23.7748
G2 X179.9122 Y63.4921 I26.9156 J-24.2392
G2 X180.6705 Y64.2294 I22.7548 J-22.6447
G1 X180.0538 Y63.3998
G1 X179.3202 Y62.4139
G3 X179.3174 Y62.4102 I0.6254 J-0.4654
G1 X178.833 Y61.7511
G3 X178.5503 Y61.3611 I18.7697 J-13.8999
G1 X178.2401 Y60.9267
G3 X178.2357 Y60.9205 I0.6344 J-0.453
G1 X177.8852 Y60.4193
G3 X177.8811 Y60.4134 I0.6387 J-0.4468
G1 X177.6966 Y60.1444
G3 X177.6955 Y60.1429 I0.6429 J-0.4409
G3 X176.9314 Y58.9776 I31.4314 J-21.4454
G3 X176.298 Y59.2739 I-0.6118 J-0.483
G2 X176.5263 Y59.5781 I35.9113 J-26.7131
G0 Z3.0
G0 X175.3558 Y54.1163
G0 Z1.0
G1 Z-0.5
G3 X175.4063 Y54.0974 I0.3821 J0.9452
G3 X175.2708 Y53.9024 I11.8811 J-8.4029
G2 X175.3558 Y54.1163 I48.4013 J-19.1263
G1 X175.133 Y54.2055
G2 X175.2373 Y54.4639 I48.5391 J-19.4294
G3 X175.8465 Y54.2896 I0.5006 J0.5975
G3 X175.6697 Y54.0534 I8.9401 J-6.8746
G3 X175.667 Y54.0496 I0.6302 J-0.4589
G3 X174.6221 Y52.3601 I11.6204 J-8.3551
G3 X174.3642 Y51.8582 I12.1831 J-6.5764
G1 X174.0247 Y51.1699
G3 X174.0238 Y51.1681 I0.6991 J-0.3448
G1 X173.921 Y50.9583
G1 X174.0963 Y51.4424
G1 X174.4589 Y52.4378
G1 X174.6694 Y53.0044
G2 X175.133 Y54.2055 I49.0027 J-18.2283
G0 Z3.0
G0 X185.4499 Y59.3277
G0 Z1.0
G1 Z-0.5
G2 X185.7434 Y59.3006 I-0.302 J-4.8757
G2 X186.6605 Y59.0879 I-0.5577 J-4.4873
G2 X187.2023 Y58.8455 I-1.1207 J-3.2311
G3 X187.204 Y58.8445 I0.4956 J0.891
G2 X187.8134 Y58.3928 I-1.3955 J-2.52
G2 X188.341 Y57.5991 I-1.6069 J-1.6403
G3 X188.3619 Y57.5501 I0.9477 J0.3759
G3 X188.0932 Y57.91 I-3.9217 J-2.6481
G3 X186.8994 Y58.9046 I-3.1878 J-2.6127
G3 X186.7466 Y58.9733 I-0.4932 J-0.8923
G1 X186.5436 Y59.0452
G3 X186.5109 Y59.0561 I-0.3404 J-0.961
G1 X186.3129 Y59.1189
G3 X186.2077 Y59.1501 I-0.5625 J-1.7032
G3 X185.6879 Y59.2802 I-2.1601 J-7.5232
G3 X185.5865 Y59.3014 I-0.4371 J-1.8408
G3 X185.4499 Y59.3277 I-1.7998 J-8.9688
G0 Z3.0
G0 X191.7304 Y55.7989
G0 Z1.0
G1 Z-0.5
G2 X191.6362 Y55.4077 I-10.9879 J2.4398
G2 X191.6809 Y55.6128 I19.5235 J-4.1496
G2 X191.7304 Y55.7989 I2.9473 J-0.6844
G0 Z3.0
G0 X189.4448 Y51.4348
G0 Z1.0
G1 Z-0.5
G1 X189.4149 Y51.38
G2 X189.1364 Y50.8851 I-51.7565 J28.7935
G3 X189.2099 Y51.1948 I-17.3358 J4.2788
G1 Y51.1947
G1 Y51.1948
G3 X189.2772 Y51.5068 I-13.1361 J2.9965
G3 X189.4448 Y51.4348 I0.5798 J1.1181
G1 X189.5233 Y51.6616
G3 X189.8115 Y51.6065 I0.3337 J0.9634
G1 X189.8027 Y51.59
G1 X189.6251 Y51.2642
G2 X188.6281 Y49.5407 I-51.9667 J28.9093
G3 X188.6186 Y49.5244 I0.8738 J-0.5252
G2 X188.5681 Y49.4397 I-2.8806 J1.6594
G3 X188.5538 Y49.4159 I0.8679 J-0.5349
G2 X188.5003 Y49.3262 I-3.4775 J2.0145
G3 X188.4869 Y49.3038 I0.8686 J-0.5338
G2 X188.3621 Y49.0948 I-8.0249 J4.653
G3 X188.3552 Y49.0835 I0.8683 J-0.5344
G1 X188.3017 Y48.9939
G3 X188.3598 Y49.1541 I-24.8569 J9.1127
G3 X188.9759 Y51.2481 I-16.5592 J6.0098
G1 Y51.2482
G1 Y51.248
G1 Y51.2481
G3 X189.1125 Y51.9285 I-12.9021 J2.9432
G3 X189.5233 Y51.6616 I0.7446 J0.6964
G1 X189.6019 Y51.8884
G3 X190.272 Y51.9651 I0.2552 J0.7366
G2 X190.1791 Y51.7871 I-19.2761 J9.9484
G1 X190.0141 Y51.4762
G1 X189.8353 Y51.1484
G2 X188.8338 Y49.4171 I-52.1769 J29.0251
G3 X188.8265 Y49.4046 I0.6681 J-0.4016
G2 X188.7724 Y49.3138 I-3.0885 J1.7792
G3 X188.7615 Y49.2956 I0.6636 J-0.409
G2 X188.7048 Y49.2005 I-3.6852 J2.1348
G3 X188.6946 Y49.1834 I0.6641 J-0.4081
G2 X188.5665 Y48.969 I-8.2325 J4.7734
G3 X188.5612 Y48.9603 I0.6639 J-0.4086
G1 X188.4181 Y48.721
G3 X188.4175 Y48.72 I0.6691 J-0.3999
G1 X188.1132 Y48.209
G3 X188.1112 Y48.2055 I0.6697 J-0.3989
G1 X187.7895 Y47.659
G3 X187.7869 Y47.6545 I0.6718 J-0.3954
G1 X187.6228 Y47.3714
G3 X187.6204 Y47.3673 I0.6744 J-0.3909
G1 X187.4528 Y47.0741
G3 X187.4521 Y47.0727 I0.6768 J-0.3868
G3 X186.7026 Y45.6844 I30.7489 J-17.4949
G3 X186.7003 Y45.6799 I0.694 J-0.3549
G1 X186.6122 Y45.5048
G3 X186.6095 Y45.4993 I0.6963 J-0.3504
G1 X186.5214 Y45.3207
G3 X186.5185 Y45.3148 I0.6991 J-0.3448
G1 X186.4306 Y45.1327
G3 X186.4276 Y45.1263 I0.702 J-0.3389
G1 X186.3399 Y44.9405
G3 X186.3332 Y44.9259 I0.705 J-0.3325
G2 X184.9496 Y42.2855 I-21.7769 J9.7286
G3 X184.9495 Y42.2853 I0.6665 J-0.4042
G2 X183.2303 Y39.8732 I-17.038 J10.3252
G2 X182.6767 Y39.2433 I-12.1223 J10.0958
G3 X182.6747 Y39.2411 I0.5716 J-0.53
G2 X181.0462 Y37.7112 I-11.3084 J10.405
G3 X181.0454 Y37.7105 I0.491 J-0.6054
G2 X178.5549 Y36.1167 I-8.2334 J10.1225
G3 X178.5447 Y36.1116 I0.3431 J-0.7
G2 X174.5531 Y35.9746 I-2.1428 J4.2153
G3 X174.4184 Y36.0178 I-0.3048 J-0.7175
G2 X173.365 Y36.3822 I1.0782 J4.8221
G3 X173.3632 Y36.383 I-0.3363 J-0.7033
G2 X172.4479 Y36.9728 I1.8166 J3.8242
G2 X171.9596 Y37.4808 I2.2697 J2.6709
G3 X171.9591 Y37.4813 I-0.6134 J-0.4811
G2 X171.5103 Y38.2742 I2.3836 J1.873
G2 X171.0804 Y40.1222 I7.4168 J2.699
G2 X171.0283 Y40.9239 I9.7219 J1.0355
G3 X171.0508 Y40.7544 I8.8268 J1.0893
G3 X171.3239 Y39.5184 I8.1385 J1.1499
G3 X171.7468 Y38.5045 I3.2141 J0.7456
G3 X171.7496 Y38.5001 I0.6594 J0.4157
G3 X172.4705 Y37.6761 I3.0934 J1.9789
G3 X173.0351 Y37.2677 I2.8612 J3.3618
G3 X173.8248 Y36.8659 I2.9223 J4.7651
G3 X174.8043 Y36.5316 I3.0692 J7.3904
G3 X175.983 Y36.1615 I1.8129 J3.7126
G3 X175.9867 Y36.161 I0.1196 J0.7703
G3 X177.282 Y36.1522 I0.6781 J4.5092
G3 X177.2831 Y36.1524 I-0.1055 J0.7723
G3 X178.0873 Y36.3192 I-0.833 J6.0372
G3 X178.0892 Y36.3197 I-0.2094 J0.7509
G3 X178.5302 Y36.4606 I-1.8101 J6.4267
G3 X178.5333 Y36.4617 I-0.2628 J0.7339
G3 X179.6224 Y36.9437 I-2.9629 J8.1665
G3 X179.6251 Y36.9452 I-0.3636 J0.6895
G1 X179.7486 Y37.0109
G3 X179.7538 Y37.0137 I-0.3663 J0.6881
G3 X180.3442 Y37.3565 I-5.5804 J10.2924
G3 X180.3453 Y37.3571 I-0.4109 J0.6625
G1 X180.4139 Y37.3999
G3 X180.4202 Y37.4038 I-0.4119 J0.6618
G1 X180.561 Y37.4933
G3 X180.6615 Y37.5693 I-0.4182 J0.6579
G1 X180.8226 Y37.7128
G3 X180.8939 Y37.7765 I-1.2248 J1.4423
G3 X181.1114 Y37.9729 I-8.032 J9.1178
G3 X181.1896 Y38.0442 I-1.3989 J1.6126
G3 X181.6958 Y38.5134 I-36.1201 J39.4749
G3 X181.7011 Y38.5184 I-0.5336 J0.5683
G1 X182.0335 Y38.8365
G3 X182.0367 Y38.8396 I-0.5389 J0.5632
G3 X183.3504 Y40.2105 I-17.5827 J18.1646
G3 X183.3523 Y40.2125 I-0.5827 J0.5178
G3 X184.1658 Y41.2031 I-13.5573 J11.9638
G3 X185.1315 Y42.641 I-11.0595 J8.4708
G3 X185.6023 Y43.5301 I-9.5559 J5.6293
G3 X185.607 Y43.5402 I-0.7047 J0.3332
G1 X185.7954 Y43.9539
G1 X185.9862 Y44.3648
G1 X186.1146 Y44.6383
G1 X186.6361 Y45.7401
G3 X186.6375 Y45.7432 I-0.7046 J0.3335
G1 X186.9822 Y46.48
G3 X186.9828 Y46.4813 I-0.7061 J0.3303
G3 X187.4361 Y47.4886 I-38.9951 J18.1508
G3 X187.4371 Y47.491 I-0.7149 J0.3107
G1 X187.5515 Y47.7566
G3 X187.5518 Y47.7575 I-0.7159 J0.3083
G3 X188.1341 Y49.2356 I-24.107 J10.3492
G3 X188.7419 Y51.3015 I-16.3335 J5.9283
G1 Y51.3014
G1 Y51.3015
G3 X188.9612 Y52.5337 I-12.6681 J2.8898
G3 X189.0617 Y53.9625 I-11.6502 J1.5377
G3 X188.9519 Y55.4265 I-6.7066 J0.2331
G3 X188.48 Y56.8664 I-5.5844 J-1.0329
G3 X188.4792 Y56.8681 I-0.7017 J-0.3394
G3 X187.9078 Y57.7576 I-4.0389 J-1.9661
G3 X186.7833 Y58.6945 I-3.0024 J-2.4604
G3 X186.6664 Y58.7471 I-0.3771 J-0.6822
G1 X186.4634 Y58.819
G3 X186.4385 Y58.8273 I-0.2603 J-0.7348
G1 X186.239 Y58.8905
G3 X186.144 Y58.9187 I-0.4885 J-1.4749
G3 X185.635 Y59.0461 I-2.0965 J-7.2918
G3 X185.5416 Y59.0656 I-0.3841 J-1.6067
G3 X184.4128 Y59.2182 I-1.755 J-8.733
G3 X184.4112 Y59.2183 I-0.0548 J-0.7776
G3 X182.1516 Y59.1272 I-0.7121 J-10.4084
G3 X182.1164 Y59.1211 I0.1156 J-0.7709
G3 X180.7842 Y58.6886 I1.1393 J-5.778
G2 X181.7001 Y59.1059 I3.7471 J-7.0113
G3 X181.7012 Y59.1063 I-0.2776 J0.7284
G2 X182.9471 Y59.4584 I2.5715 J-6.7179
G3 X182.9494 Y59.4589 I-0.1437 J0.7662
G2 X184.6613 Y59.5628 I1.2607 J-6.6156
G3 X184.7709 Y59.5632 I0.0522 J0.7778
G2 X185.7728 Y59.5388 I0.3771 J-5.1112
G2 X186.7389 Y59.3147 I-0.5871 J-4.7255
G2 X187.3189 Y59.0552 I-1.1991 J-3.4579
G3 X187.3202 Y59.0545 I0.3789 J0.6812
G2 X187.9809 Y58.5647 I-1.5118 J-2.7299
G2 X188.5641 Y57.6876 I-1.7744 J-1.8122
G3 X188.6121 Y57.5879 I0.7246 J0.2874
G2 X189.0468 Y56.5247 I-3.8002 J-2.1741
G2 X189.2288 Y55.3423 I-5.8261 J-1.5021
G1 X189.2371 Y55.1714
G1 X189.2421 Y54.9908
G2 X189.2152 Y54.0396 I-10.4938 J-0.1786
G3 X189.215 Y54.0375 I0.7774 J-0.0574
G2 X189.0839 Y52.7246 I-23.0149 J1.6354
G3 X189.6019 Y51.8884 I0.7731 J-0.0996
G0 Z3.0
G0 X198.0517 Y50.0221
G0 Z1.0
G1 Z-0.5
G3 X198.3253 Y50.8398 I-31.1081 J10.8615
G1 X198.3034 Y50.3343
G3 X198.3033 Y50.3302 I1.2588 J-0.0544
G1 X198.2903 Y50.0064
G3 X198.0517 Y50.0221 I-0.2016 J-1.2438
G1 X197.8252 Y50.1012
G3 X198.4819 Y52.208 I-30.8815 J10.7824
G3 X198.4827 Y52.2108 I-0.983 J0.2704
G3 X198.6566 Y52.8764 I-33.6761 J9.1579
G1 X198.6561 Y52.8659
G3 X198.656 Y52.8632 I1.0188 J-0.0504
G1 X198.6165 Y52.0181
G3 X198.6163 Y52.0145 I1.0189 J-0.0476
G1 X198.5432 Y50.324
G3 X198.5431 Y50.3206 I1.019 J-0.0441
G1 X198.5178 Y49.688
G3 X197.6813 Y49.6978 I-0.4291 J-0.9254
G3 X197.8252 Y50.1012 I-30.7376 J11.1858
G0 Z3.0
G0 X208.3735 Y53.4853
G0 Z1.0
G1 Z-0.5
G3 X208.4299 Y53.6356 I-1.5991 J0.686
G3 X208.7973 Y53.2397 I70.2605 J64.8372
G1 X208.9963 Y53.0224
G1 X209.0973 Y52.9109
G1 X209.3384 Y52.6391
G2 X209.4248 Y52.5398 I-9.1362 J-8.0404
G2 X209.4182 Y52.5323 I-6.5651 J5.8105
G3 X209.3818 Y52.4899 I1.3016 J-1.1547
G3 X209.3205 Y52.4206 I1.2732 J-1.186
G3 X209.3005 Y52.399 I1.2647 J-1.195
G1 X208.7579 Y53.0221
G3 X208.6649 Y53.135 I-1.7206 J-1.3228
G1 X208.6113 Y53.1991
G3 X208.5863 Y53.2283 I-1.3349 J-1.1161
G2 X208.4835 Y53.3509 I2.9639 J2.5915
G3 X208.4597 Y53.3798 I-1.3554 J-1.0911
G2 X208.3735 Y53.4853 I3.652 J3.0715
G1 X208.1855 Y53.3361
G2 X208.0931 Y53.4563 I3.9263 J3.1151
G3 X208.2664 Y54.0168 I-1.3186 J0.715
G3 X208.385 Y54.0389 I-0.2616 J1.7302
G3 X208.9736 Y53.4026 I70.3054 J64.4339
G1 X209.1738 Y53.184
G1 X209.276 Y53.0711
G1 X209.5183 Y52.798
G2 X209.7407 Y52.5382 I-9.3161 J-8.1994
G2 X209.5977 Y52.3731 I-6.8809 J5.8122
G3 X209.562 Y52.3313 I1.1221 J-0.9954
G3 X209.5018 Y52.2633 I1.0929 J-1.0274
G2 X209.4979 Y52.2588 I-0.0689 J0.0573
G3 X209.4752 Y52.2344 I1.0874 J-1.0333
G1 X209.2967 Y52.038
G1 X208.5726 Y52.8694
G1 X208.5712 Y52.8711
G3 X208.4829 Y52.9785 I-1.5339 J-1.1718
G1 X208.4272 Y53.0451
G3 X208.4057 Y53.0703 I-1.1508 J-0.9621
G2 X208.2965 Y53.2004 I3.1446 J2.7494
G3 X208.276 Y53.2253 I-1.1684 J-0.9406
G2 X208.1855 Y53.3361 I3.8357 J3.226
G1 X207.9975 Y53.187
G2 X207.8629 Y53.3641 I4.1143 J3.2643
G3 X207.8625 Y53.3647 I-1.0193 J-0.7406
G2 X207.8059 Y53.4476 I1.3795 J1.0034
G3 X208.0327 Y54.2374 I-1.0314 J0.7237
G3 X208.4636 Y54.3085 I-0.0278 J1.5096
G3 X209.1498 Y53.5656 I70.2267 J64.1643
G1 X209.3513 Y53.3456
G1 X209.4547 Y53.2313
G1 X209.6981 Y52.957
G2 X210.0514 Y52.5375 I-9.4959 J-8.3583
G2 X209.7773 Y52.2138 I-7.1917 J5.8128
G3 X209.7464 Y52.1776 I0.9426 J-0.8362
G2 X209.7378 Y52.1679 I-0.1481 J0.1217
G3 X209.6863 Y52.1098 I0.9171 J-0.864
G2 X209.6719 Y52.0935 I-0.2534 J0.2108
G3 X209.6528 Y52.073 I0.9134 J-0.8679
G1 X209.2929 Y51.6769
G1 X208.3888 Y52.7151
G1 X208.3825 Y52.7229
G3 X208.301 Y52.8219 I-1.3451 J-1.0236
G1 X208.2431 Y52.8912
G3 X208.225 Y52.9124 I-0.9667 J-0.8082
G2 X208.1096 Y53.0499 I3.3253 J2.9074
G3 X208.0924 Y53.0708 I-0.9815 J-0.7901
G2 X207.9975 Y53.187 I4.0194 J3.3805
G1 X207.8095 Y53.0378
G2 X207.6688 Y53.2231 I4.3023 J3.4135
G3 X207.6684 Y53.2235 I-0.8252 J-0.5996
G2 X207.5604 Y53.3892 I1.5736 J1.1446
G1 X207.5477 Y53.4116
G1 X207.5323 Y53.4398
G3 X207.5275 Y53.4486 I-0.8959 J-0.4875
G2 X207.5159 Y53.4708 I0.3835 J0.2135
G3 X207.7381 Y54.5055 I-0.7415 J0.7004
G3 X208.4945 Y54.5753 I0.2668 J1.2415
G3 X208.496 Y54.576 I-0.3933 J0.9411
G3 X208.5305 Y54.5909 I-0.6204 J1.4777
G3 X208.5924 Y54.5235 I14.3103 J13.0814
G3 X209.326 Y53.7285 I70.098 J63.9493
G1 X209.5287 Y53.5072
G1 X209.6335 Y53.3914
G1 X209.8779 Y53.1159
G2 X210.3577 Y52.5377 I-9.6757 J-8.5172
G2 X209.9568 Y52.0545 I-7.4979 J5.8126
G3 X209.9318 Y52.0252 I0.763 J-0.6769
G2 X209.9125 Y52.0033 I-0.3335 J0.2741
G3 X209.8708 Y51.9563 I0.7424 J-0.6994
G2 X209.8459 Y51.9282 I-0.4379 J0.3643
G3 X209.8304 Y51.9116 I0.7394 J-0.7026
G1 X209.4578 Y51.5016
G3 X209.2882 Y51.3169 I28.2417 J-26.1121
G1 X208.2049 Y52.5608
G1 X208.1935 Y52.5748
G3 X208.1193 Y52.6651 I-1.1562 J-0.8756
G1 X208.059 Y52.7372
G3 X208.0443 Y52.7544 I-0.7825 J-0.6542
G2 X207.9226 Y52.8994 I3.506 J3.0654
G3 X207.9087 Y52.9163 I-0.7945 J-0.6396
G2 X207.8095 Y53.0378 I4.203 J3.5349
G0 Z3.0
G0 X199.8218 Y62.9267
G0 Z1.0
G1 Z-0.5
G3 X199.4182 Y62.6558 I0.4871 J-1.162
G3 X199.3364 Y63.0651 I-17.5085 J-3.2871
G3 X199.3105 Y63.1843 I-2.2112 J-0.418
G3 X199.2872 Y63.2851 I-2.3062 J-0.4802
G3 X199.2579 Y63.4056 I-2.4301 J-0.5267
G3 X199.1752 Y63.7263 I-9.2113 J-2.2063
G3 X199.8218 Y62.9267 I59.3299 J47.3201
G0 Z3.0
G0 X195.5156 Y68.8902
G0 Z1.0
G1 Z-0.5
G3 X195.3149 Y69.005 I-3.7238 J-6.2767
G3 X194.7412 Y69.2928 I-3.9348 J-7.1288
G3 X194.7468 Y69.293 I-0.931 J25.3711
G3 X195.4804 Y69.3275 I-0.956 J28.1188
G3 X195.4764 Y69.2075 I1.3727 J-0.1059
G3 X195.4791 Y69.1367 I1.2599 J0.0129
G3 X195.5156 Y68.8902 I1.5417 J0.1026
G1 X195.7494 Y68.9444
G3 X195.8919 Y68.5844 I1.2713 J0.2949
G3 X195.8972 Y68.5753 I0.8823 J0.5118
G3 X196.2247 Y68.1481 I1.9677 J1.1689
G1 X196.2752 Y68.0952
G3 X196.2879 Y68.0821 I0.7373 J0.7048
G3 X196.5757 Y67.806 I5.578 J5.5257
G1 X196.6999 Y67.6919
G3 X196.7295 Y67.6657 I0.6902 J0.751
G2 X197.3231 Y67.0601 I-3.0176 J-3.5511
G2 X197.8462 Y66.3245 I-5.5646 J-4.5113
G1 X197.9945 Y66.083
G1 X198.1563 Y65.8071
G1 X198.3429 Y65.4779
G3 X198.35 Y65.4655 I0.8874 J0.5029
G2 X198.4303 Y65.3217 I-3.5264 J-2.0641
G3 X198.4406 Y65.303 I0.9003 J0.4794
G1 X198.6701 Y64.8927
G3 X198.6742 Y64.8855 I0.8901 J0.4981
G1 X198.7984 Y64.6678
G3 X198.8042 Y64.6577 I0.8861 J0.5053
G1 X198.9392 Y64.427
G3 X199.0174 Y64.3123 I0.8802 J0.5154
G3 X200.2513 Y62.783 I59.4877 J46.7341
G3 X199.2994 Y61.9103 I0.0576 J-1.0184
G3 X199.1011 Y63.018 I-17.3897 J-2.5415
G3 X199.0764 Y63.1312 I-1.9759 J-0.3708
G3 X199.0536 Y63.23 I-2.0721 J-0.4271
G3 X199.0253 Y63.3463 I-2.1965 J-0.4717
G3 X198.8755 Y63.8972 I-8.9787 J-2.1471
G3 X198.6172 Y64.6462 I-8.5544 J-2.5307
G3 X198.6131 Y64.6564 I-0.9481 J-0.3748
G1 X198.5419 Y64.8308
G3 X198.5384 Y64.8393 I-0.944 J-0.3851
G3 X198.0378 Y65.8229 I-6.8414 J-2.8629
G3 X196.8611 Y67.5248 I-5.743 J-2.7132
G3 X196.8602 Y67.5256 I-0.7329 J-0.7087
G3 X195.199 Y68.7949 I-5.0684 J-4.9121
G3 X193.389 Y69.5192 I-3.8189 J-6.9186
G3 X194.7383 Y69.5328 I0.4211 J25.1446
G3 X195.7071 Y69.5826 I-0.9475 J27.8789
G3 X195.7767 Y69.5872 I-2.4926 J38.773
G3 X195.7163 Y69.21 I1.0764 J-0.3656
G3 X195.7185 Y69.1526 I1.0199 J0.0104
G3 X195.7494 Y68.9444 I1.3022 J0.0867
G0 Z3.0
G0 X189.2342 Y69.5451
G0 Z1.0
G1 Z-0.5
G3 X188.4827 Y69.3696 I2.4054 J-11.9956
G3 X187.9306 Y69.2106 I3.769 J-14.1292
G3 X188.5353 Y69.6342 I-43.0809 J62.1578
G3 X188.6742 Y69.7323 I-3.7931 J5.5179
G3 X188.8126 Y69.8304 I-3.8673 J5.5974
G3 X188.9086 Y69.8982 I-3.9432 J5.6886
G3 X189.2342 Y69.5451 I0.8916 J0.4954
G0 Z3.0
G0 X178.4425 Y70.1336
G0 Z1.0
G1 Z-0.5
G2 X178.417 Y70.0452 I-70.4224 J20.2737
G3 X178.4093 Y70.0164 I0.7493 J-0.2167
G2 X178.409 Y70.0155 I-0.01 J0.0025
G3 X178.3982 Y69.9814 I0.7382 J-0.2518
G2 X178.0772 Y69.0192 I-12.4141 J3.6075
G2 X177.8175 Y68.4281 I-6.6515 J2.5697
G2 X177.5597 Y67.9778 I-3.8663 J1.9142
G2 X177.668 Y68.3574 I8.061 J-2.0951
G2 X178.1533 Y69.5745 I8.552 J-2.7044
G3 X178.1536 Y69.575 I-0.7015 J0.341
G2 X178.4425 Y70.1336 I11.0459 J-5.36
G1 X178.6731 Y70.0672
G2 X178.6475 Y69.9785 I-70.653 J20.3401
G3 X178.6422 Y69.9586 I0.5187 J-0.15
G2 X178.6362 Y69.9381 I-0.2429 J0.0603
G3 X178.6287 Y69.9144 I0.5111 J-0.1743
G2 X178.3014 Y68.9335 I-12.6446 J3.6745
G2 X178.0326 Y68.3217 I-6.8757 J2.6553
G2 X177.5809 Y67.5916 I-4.0814 J2.0207
G3 X177.5163 Y67.4815 I0.4304 J-0.3262
G3 X176.9799 Y66.2038 I45.282 J-19.7634
G3 X177.1531 Y67.1297 I-7.8257 J1.9433
G2 X177.2342 Y67.6355 I8.0293 J-1.0273
G3 X177.2367 Y67.6497 I-0.5302 J0.1023
G2 X177.2442 Y67.6862 I0.486 J-0.0804
G3 X177.2516 Y67.7217 I-0.5246 J0.1281
G2 X177.2612 Y67.7663 I0.5565 J-0.0968
G3 X177.265 Y67.7819 I-0.5228 J0.1353
G2 X177.439 Y68.4292 I8.3557 J-1.8992
G2 X177.9375 Y69.6795 I8.781 J-2.7762
G3 X177.9376 Y69.6798 I-0.4857 J0.2361
G2 X178.3434 Y70.447 I11.2618 J-5.4648
G2 X178.3968 Y70.4957 I0.2748 J-0.2482
G3 X178.4032 Y70.5005 I-0.3229 J0.4328
G2 X178.5511 Y70.6 I0.8539 J-1.1095
G3 X178.553 Y70.6012 I-0.2723 J0.4663
G2 X178.8621 Y70.7355 I0.6994 J-1.1865
G2 X178.6731 Y70.0672 I-70.842 J19.6718
G0 Z3.0
G0 X200.9496 Y79.3244
G0 Z1.0
G1 Z-0.5
G2 X201.1571 Y79.4909 I8.0244 J-9.7858
G3 X201.1584 Y79.4919 I-0.63 J0.8022
G2 X202.1371 Y80.207 I10.31 J-13.083
G1 X202.1379 Y80.1667
G3 X202.1385 Y80.1457 I1.0198 J0.0201
G1 X202.1413 Y80.0778
G2 X202.1153 Y80.0564 I-0.2558 J0.2837
G3 X202.1046 Y80.0482 I0.6137 J-0.8148
G2 X201.9558 Y79.9437 I-1.1923 J1.5404
G1 X201.8303 Y79.8666
G2 X201.4868 Y79.6684 I-9.0662 J15.3159
G3 X201.3656 Y79.5976 I2.0556 J-3.6585
G3 X201.0999 Y79.4307 I2.6009 J-4.4358
G3 X201.0965 Y79.4284 I0.5686 J-0.8468
G1 X201.0692 Y79.4099
G3 X201.0521 Y79.398 I0.5721 J-0.8445
G3 X200.9496 Y79.3244 I4.8099 J-6.7975
G1 X200.7974 Y79.5099
G2 X201.0088 Y79.6796 I8.1766 J-9.9714
G3 X201.0098 Y79.6804 I-0.4818 J0.6134
G2 X202.368 Y80.6461 I10.4586 J-13.2715
G2 X202.3694 Y80.6028 I-1.7322 J-0.076
G3 Y80.6021 I0.7799 J0.0147
G1 X202.3779 Y80.1714
G3 X202.3783 Y80.1554 I0.7798 J0.0153
G1 X202.3829 Y80.0415
G3 X202.3842 Y80.0187 I0.7794 J0.0314
G3 X202.3861 Y79.9924 I3.846 J0.2679
G2 X202.2597 Y79.8647 I-0.5006 J0.3691
G3 X202.2515 Y79.8584 I0.4693 J-0.623
G2 X202.0829 Y79.7402 I-1.3393 J1.7302
G1 X201.9543 Y79.6611
G2 X201.6044 Y79.4592 I-9.1902 J15.5214
G3 X201.4886 Y79.3915 I1.938 J-3.4493
G3 X201.2337 Y79.2314 I2.478 J-4.2297
G3 X201.2311 Y79.2297 I0.4348 J-0.6475
G1 X201.2038 Y79.2112
G3 X201.1907 Y79.2021 I0.4375 J-0.6458
G3 X201.0648 Y79.1112 I4.6713 J-6.6016
G3 X201.0623 Y79.1093 I0.4627 J-0.628
G3 X200.8147 Y78.8972 I1.4026 J-1.8874
G3 X200.6319 Y78.7862 I1.4753 J-2.6359
G3 X200.3819 Y78.6125 I3.1635 J-4.8174
G3 X200.3047 Y78.5548 I1.8201 J-2.52
G1 X200.1443 Y78.4319
G3 X200.1425 Y78.4305 I0.4745 J-0.6191
G1 X199.9281 Y78.2652
G3 X199.9253 Y78.263 I0.4763 J-0.6177
G2 X199.6822 Y78.0888 I-2.3179 J2.9781
G3 X199.6715 Y78.0817 I0.4288 J-0.6515
G2 X199.3909 Y77.9306 I-0.8599 J1.2609
G3 X199.3837 Y77.9276 I0.296 J-0.7216
G2 X199.2018 Y77.8933 I-0.1703 J0.4037
G3 X199.4328 Y78.2132 I-2.3695 J1.9539
G2 X200.7974 Y79.5099 I9.5412 J-8.6747
G0 Z3.0
G0 X207.7927 Y70.9622
G0 Z1.0
G1 Z-0.5
G2 X208.3219 Y71.2716 I1.2432 J-1.5191
G2 X209.0445 Y71.4179 I0.7951 J-2.0696
G3 X209.4511 Y71.4427 I-0.0724 J4.5359
G3 X209.5235 Y71.4507 I-0.1193 J1.411
G1 X209.6161 Y71.4616
G3 X209.8173 Y71.4889 I-0.489 J4.3542
G1 X210.2193 Y71.5493
G1 X210.1667 Y71.4267
G3 X210.1558 Y71.4004 I1.1581 J-0.4963
G2 X210.1405 Y71.3658 I-0.5277 J0.2121
G3 X210.139 Y71.3626 I1.1353 J-0.5466
G3 X210.0652 Y71.1973 I3.1635 J-1.5121
G3 X210.0082 Y71.0672 I12.4336 J-5.5197
G2 X209.8766 Y71.0376 I-0.2416 J0.7656
G1 X209.7419 Y71.0212
G2 X209.4151 Y71.0032 I-0.4504 J5.1753
G3 X208.8276 Y70.9897 I0.6659 J-41.9884
G3 X208.8229 Y70.9896 I0.0376 J-1.2594
G3 X208.6418 Y70.9809 I0.2122 J-6.3236
G3 X208.1642 Y70.9304 I0.2187 J-4.3534
G3 X208.1551 Y70.9289 I0.2013 J-1.2438
G3 X208.0248 Y70.9048 I0.7361 J-4.3469
G3 X207.813 Y70.8854 I0.1904 J-3.2345
G1 X207.6871 Y70.8707
G3 X207.7169 Y70.8969 I-0.8169 J0.9593
G2 X207.7927 Y70.9622 I1.3191 J-1.4537
G1 X207.6407 Y71.148
G2 X208.2352 Y71.4954 I1.3952 J-1.7048
G2 X209.0388 Y71.6579 I0.8818 J-2.2934
G3 X209.4284 Y71.6817 I-0.0667 J4.2959
G3 X209.4931 Y71.6888 I-0.0966 J1.1721
G1 X209.5888 Y71.7
G3 X209.7806 Y71.7261 I-0.4616 J4.1158
G1 X210.3697 Y71.8146
G1 X210.4406 Y71.8238
G3 X210.4429 Y71.8241 I-0.1318 J1.0114
G2 X210.59 Y71.8403 I0.434 J-3.2727
G3 X210.5872 Y71.8319 I0.9664 J-0.3262
G2 X210.4783 Y71.5445 I-3.2137 J1.0535
G3 X210.4772 Y71.5419 I0.9364 J-0.4044
G1 X210.3873 Y71.3322
G3 X210.3785 Y71.3109 I0.9375 J-0.4018
G2 X210.3568 Y71.2617 I-0.7504 J0.3016
G3 X210.3555 Y71.2591 I0.919 J-0.4424
G3 X210.2857 Y71.1026 I2.947 J-1.4086
G3 X210.1894 Y70.8803 I12.2131 J-5.425
G2 X210.1766 Y70.874 I-0.1332 J0.2536
G2 X209.9074 Y70.7996 I-0.4099 J0.9588
G1 X209.7668 Y70.7825
G2 X209.4199 Y70.7632 I-0.4753 J5.4141
G3 X208.8347 Y70.7498 I0.6612 J-41.7484
G3 X208.831 Y70.7497 I0.0304 J-1.0195
G3 X208.6552 Y70.7413 I0.2042 J-6.0837
G3 X208.2026 Y70.6935 I0.2053 J-4.1138
G3 X208.1952 Y70.6923 I0.1629 J-1.0069
G3 X208.0555 Y70.6662 I0.696 J-4.1102
G3 X207.8418 Y70.6471 I0.1597 J-2.9959
G1 X207.6293 Y70.6223
G3 X207.6259 Y70.6219 I0.118 J-1.0132
G2 X207.5039 Y70.6081 I-1.1582 J9.671
G1 X207.4034 Y70.5994
G3 X207.2201 Y70.8719 I-0.9269 J-0.4257
G3 X207.5556 Y71.0746 I-0.3499 J0.9581
G2 X207.6407 Y71.148 I1.4803 J-1.6315
G1 X207.4887 Y71.3337
G2 X208.1486 Y71.7192 I1.5472 J-1.8906
G2 X209.0332 Y71.8978 I0.9685 J-2.5172
G3 X209.4059 Y71.9206 I-0.0611 J4.056
G3 X209.4625 Y71.9269 I-0.0741 J0.9331
G1 X209.5614 Y71.9385
G3 X209.7438 Y71.9633 I-0.4342 J3.8773
G1 X210.3363 Y72.0523
G1 X210.4096 Y72.0618
G3 X210.4113 Y72.062 I-0.1008 J0.7735
G2 X210.7661 Y72.091 I0.4656 J-3.5106
G3 X210.7741 Y72.0913 I-0.0244 J0.7796
G2 X210.9008 Y72.0907 I0.0566 J-1.3615
G2 X210.8204 Y71.7723 I-1.8053 J0.2866
G3 X210.8153 Y71.7571 I0.736 J-0.2582
G2 X210.6987 Y71.4494 I-3.4418 J1.1283
G3 X210.6978 Y71.4474 I0.7161 J-0.3092
G1 X210.6079 Y71.2377
G3 X210.6012 Y71.2214 I0.7169 J-0.3072
G2 X210.573 Y71.1576 I-0.9731 J0.3911
G3 X210.5721 Y71.1556 I0.7028 J-0.3383
G3 X210.5063 Y71.0079 I2.7305 J-1.3051
G3 X210.3866 Y70.73 I11.9926 J-5.3303
G3 X210.3829 Y70.7211 I0.7199 J-0.3003
G2 X210.2739 Y70.6546 I-0.3267 J0.4128
G2 X209.938 Y70.5615 I-0.5072 J1.1782
G1 X209.7918 Y70.5438
G2 X209.4246 Y70.5232 I-0.5003 J5.6528
G3 X208.8419 Y70.5099 I0.6564 J-41.5085
G3 X208.839 Y70.5098 I0.0233 J-0.7797
G3 X208.6687 Y70.5016 I0.1961 J-5.8439
G3 X208.2409 Y70.4566 I0.1918 J-3.8742
G3 X208.2353 Y70.4556 I0.1246 J-0.77
G3 X208.086 Y70.4274 I0.656 J-3.8736
G3 X207.8706 Y70.4088 I0.1292 J-2.7571
G1 X207.657 Y70.3839
G3 X207.6545 Y70.3836 I0.0902 J-0.7748
G2 X207.5271 Y70.3692 I-1.1868 J9.9093
G1 X207.353 Y70.3541
G2 X207.2694 Y70.3501 I-0.3267 J6.0565
G2 X207.2364 Y70.3495 I-0.0414 J1.3721
G3 X206.4805 Y70.9537 I-0.7599 J-0.1759
G3 X206.8264 Y71.022 I-3.7134 J19.7225
G3 X206.8356 Y71.0239 I-0.1578 J0.7639
G1 X207.0371 Y71.0681
G3 X207.3943 Y71.2523 I-0.1669 J0.7619
G2 X207.4887 Y71.3337 I1.6416 J-1.8092
G0 Z3.0
G0 X191.021 Y37.9351
G0 Z1.0
G1 Z-0.5
G3 X190.4947 Y36.8819 I312.8286 J-156.9823
G3 X190.1777 Y37.0003 I-0.5951 J-1.1106
G3 X191.021 Y37.9351 I-52.5499 J48.2497
G1 X190.8413 Y38.0943
G3 X190.8617 Y38.1173 I-53.2135 J47.1557
G3 X190.8623 Y38.1179 I-0.7633 J0.6758
G1 X191.3257 Y38.6423
G3 X191.3278 Y38.6447 I-0.7639 J0.6752
G1 X191.5661 Y38.9161
G3 X191.6044 Y38.9623 I-0.7661 J0.6727
G3 X192.2153 Y39.7643 I-36.8131 J28.674
G1 X191.671 Y38.6929
G3 X191.6694 Y38.6897 I0.9094 J-0.4619
G1 X191.2954 Y37.9468
G3 X191.2949 Y37.9459 I0.911 J-0.4587
G3 X190.5858 Y36.526 I312.5546 J-156.9931
G3 X189.6208 Y36.7525 I-0.6862 J-0.7547
G1 X189.9666 Y37.1252
G3 X189.9697 Y37.1286 I-0.7474 J0.6934
G3 X190.8413 Y38.0943 I-52.3419 J48.1213
G1 X190.6617 Y38.2535
G3 X190.682 Y38.2764 I-53.0339 J46.9965
G3 X190.6825 Y38.2769 I-0.5836 J0.5167
G1 X191.1459 Y38.8012
G3 X191.1475 Y38.8031 I-0.5841 J0.5162
G1 X191.3858 Y39.0744
G3 X191.415 Y39.1098 I-0.5857 J0.5144
G3 X192.6905 Y40.8275 I-36.6237 J28.5265
G3 X192.8716 Y41.0857 I-9.2369 J6.6729
G3 X194.2127 Y43.1326 I-37.0887 J25.7613
G3 X194.2151 Y43.1365 I-0.6634 J0.4094
G1 X194.3821 Y43.4108
G3 X194.3829 Y43.4122 I-0.6658 J0.4054
G3 X196.7818 Y48.076 I-32.1313 J19.4755
G3 X196.7821 Y48.0768 I-0.7164 J0.3073
G3 X197.051 Y48.725 I-29.6602 J12.683
G3 X198.2505 Y52.2716 I-30.1073 J12.1587
G3 X198.2511 Y52.2738 I-0.7516 J0.2068
G3 X198.4847 Y53.1812 I-33.4446 J9.0949
G3 X198.7708 Y54.0969 I-5.3669 J2.1791
G3 X198.7715 Y54.1003 I-0.7608 J0.17
G3 X198.931 Y55.0488 I-9.6301 J2.1071
G3 X198.9311 Y55.0497 I-0.7741 J0.0916
G1 X198.9602 Y55.2984
G3 X198.9933 Y55.6067 I-9.3558 J1.1599
G2 X199.0771 Y56.3431 I21.373 J-2.0575
G3 X199.0831 Y56.414 I-0.7729 J0.1014
G2 X199.0992 Y56.7115 I9.8766 J-0.3871
G3 X199.1008 Y56.7425 I-0.7776 J0.054
G3 X199.1023 Y56.7625 I-0.7765 J0.0688
G1 X199.1252 Y57.1278
G1 X199.1738 Y57.8577
G3 X199.2439 Y59.3627 I-30.1319 J2.1585
G3 X199.2441 Y59.3702 I-0.7793 J0.0169
G1 X199.2464 Y59.5661
G3 X199.2465 Y59.5757 I-0.7795 J0.0094
G1 X199.2464 Y59.7848
G3 Y59.7859 I-0.7795 J-0.0002
G3 X199.1858 Y60.9752 I-12.0774 J-0.0198
G3 X199.0933 Y61.6502 I-8.5714 J-0.8301
G3 X198.8657 Y62.971 I-17.1836 J-2.2815
G3 X198.8423 Y63.078 I-1.7405 J-0.3239
G3 X198.8199 Y63.175 I-1.838 J-0.3739
G3 X198.7928 Y63.2869 I-1.9628 J-0.4166
G3 X198.6456 Y63.8281 I-8.7461 J-2.0876
G3 X198.394 Y64.5579 I-8.3245 J-2.4616
G3 X198.3909 Y64.5658 I-0.7249 J-0.2866
G1 X198.3197 Y64.7402
G3 X198.317 Y64.7466 I-0.7218 J-0.2944
G3 X197.8261 Y65.7091 I-6.62 J-2.7702
G3 X196.6885 Y67.358 I-5.5313 J-2.5994
G3 X196.6879 Y67.3586 I-0.5604 J-0.5418
G3 X195.083 Y68.5847 I-4.8961 J-4.7451
G3 X191.2678 Y69.538 I-3.703 J-6.7085
G3 X191.2542 Y69.5377 I0.0114 J-0.7794
G3 X188.5446 Y69.1377 I0.3853 J-11.9882
G3 X186.0058 Y68.1968 I3.7071 J-13.8974
G3 X185.9506 Y68.17 I7.6498 J-15.8743
G3 X186.3002 Y68.3989 I-29.1938 J44.9807
G3 X188.398 Y69.831 I-41.4505 J62.9696
G3 X188.5355 Y69.9282 I-3.6558 J5.3211
G3 X188.6735 Y70.0261 I-3.7286 J5.4016
G3 X188.8157 Y70.1273 I-3.8041 J5.493
G3 X188.9623 Y70.2321 I-3.887 J5.5943
G3 X189.0287 Y70.279 I-3.9781 J5.7065
G3 X189.9495 Y69.628 I0.7715 J0.1147
G2 X191.8646 Y69.8431 I2.2873 J-11.7331
G1 X191.9926 Y69.8313
G3 X192.0003 Y69.8306 I0.0719 J0.7767
G1 X192.1758 Y69.8161
G3 X192.1871 Y69.8153 I0.0641 J0.7774
G1 X192.5383 Y69.7914
G3 X192.5485 Y69.7908 I0.0528 J0.7782
G3 X193.2742 Y69.7615 I1.3841 J25.28
G3 X193.2778 Y69.7614 I0.0203 J0.7797
G3 X194.7298 Y69.7727 I0.5324 J24.9024
G3 X195.6911 Y69.8221 I-0.939 J27.6391
G3 X196.2233 Y69.86 I-2.4767 J38.5335
G3 X195.9563 Y69.2124 I0.6298 J-0.6384
G3 X195.958 Y69.1686 I0.78 J0.008
G3 X196.0995 Y68.7049 I1.0627 J0.0708
G3 X196.1036 Y68.6979 I0.6747 J0.3914
G3 X196.3974 Y68.3147 I1.7613 J1.0463
G1 X196.4487 Y68.261
G3 X196.4584 Y68.251 I0.5639 J0.539
G3 X196.7377 Y67.9831 I5.4075 J5.3568
G1 X196.8623 Y67.8686
G3 X196.885 Y67.8485 I0.5278 J0.5743
G2 X197.5093 Y67.2115 I-3.173 J-3.734
G2 X198.0505 Y66.4505 I-5.7508 J-4.6627
G1 X198.2003 Y66.2066
G1 X198.3643 Y65.927
G1 X198.5517 Y65.5962
G3 X198.5572 Y65.5867 I0.6786 J0.3846
G2 X198.6422 Y65.4345 I-3.7335 J-2.1853
G3 X198.65 Y65.4202 I0.6885 J0.3666
G1 X198.8796 Y65.0099
G3 X198.8827 Y65.0044 I0.6807 J0.3809
G1 X199.0069 Y64.7867
G3 X199.0113 Y64.7789 I0.6776 J0.3864
G1 X199.1464 Y64.5483
G3 X199.2061 Y64.4605 I0.6731 J0.3941
G3 X200.5223 Y62.8323 I59.299 J46.5858
G3 X200.618 Y62.7169 I4.0183 J3.236
G3 X202.0544 Y61.0216 I80.3466 J66.6255
G3 X202.1509 Y60.9098 I4.7583 J4.005
G3 X202.2479 Y60.7976 I4.9088 J4.1446
G3 X202.3481 Y60.6818 I5.0775 J4.295
G3 X202.4516 Y60.5624 I5.2646 J4.4618
G3 X202.5586 Y60.4393 I5.4742 J4.6484
G3 X202.6691 Y60.3124 I5.7111 J4.8593
G3 X202.7833 Y60.1814 I5.9821 J5.1002
G3 X202.9012 Y60.0464 I6.2964 J5.3793
G3 X203.023 Y59.9071 I6.6672 J5.7084
G3 X203.1488 Y59.7634 I7.1141 J6.1045
G3 X203.2788 Y59.6153 I7.6668 J6.5942
G3 X203.4158 Y59.4594 I8.3763 J7.2221
G1 X204.8453 Y57.8394
G1 X205.6629 Y56.9128
G2 X206.5908 Y55.8537 I-234.1513 J-206.0887
G1 X206.8291 Y55.5796
G1 X207.0147 Y55.3652
G3 X207.0847 Y55.251 I1.474 J0.825
G3 X207.2745 Y55.021 I1.1818 J0.7814
G3 X208.402 Y54.7968 I0.7304 J0.726
G3 X208.4031 Y54.7973 I-0.3008 J0.7197
G3 X208.5839 Y54.8895 I-0.5275 J1.2565
G3 X208.7692 Y54.6857 I14.2569 J12.7827
G3 X209.5022 Y53.8914 I69.9212 J63.7871
G1 X209.7062 Y53.6688
G1 X209.8122 Y53.5516
G1 X210.0578 Y53.2748
G2 X210.6537 Y52.5469 I-9.8556 J-8.6761
G2 X210.6598 Y52.5387 I-9.0324 J-6.76
G2 X210.6233 Y52.4902 I-4.6295 J3.4374
G3 X210.6099 Y52.4719 I0.6213 J-0.4716
G2 X210.5823 Y52.4356 I-0.6203 J0.4429
G3 X210.5706 Y52.4208 I0.6066 J-0.4903
G2 X210.1363 Y51.8953 I-7.7109 J5.9296
G3 X210.1172 Y51.8729 I0.5835 J-0.5176
G2 X210.0872 Y51.8387 I-0.5189 J0.4265
G3 X210.0553 Y51.8028 I0.5677 J-0.5349
G2 X210.0198 Y51.7629 I-0.6224 J0.5178
G3 X210.008 Y51.7502 I0.5654 J-0.5373
G1 X209.6347 Y51.3394
G3 X209.2846 Y50.9555 I28.0648 J-25.95
G1 X208.021 Y52.4065
G1 X208.0044 Y52.427
G3 X207.9378 Y52.508 I-0.967 J-0.7277
G1 X207.8748 Y52.5833
G3 X207.8636 Y52.5964 I-0.5984 J-0.5003
G2 X207.7357 Y52.7489 I3.6866 J3.2233
G3 X207.725 Y52.7619 I-0.6076 J-0.4891
G2 X207.4746 Y53.082 I4.3867 J3.6894
G3 X207.4744 Y53.0823 I-0.631 J-0.4585
G2 X207.3522 Y53.2697 I1.7676 J1.2858
G1 X207.3379 Y53.295
G1 X207.3215 Y53.3251
G3 X207.3178 Y53.3318 I-0.6851 J-0.3728
G2 X207.2473 Y53.5191 I0.5931 J0.3303
G2 X207.2458 Y53.5356 I0.0911 J0.0162
G2 X207.2865 Y53.5829 I0.1828 J-0.1159
G3 X207.3656 Y54.6801 I-0.5121 J0.5883
G1 X206.8647 Y55.2622
G1 X206.3665 Y55.8448
G1 X205.3718 Y57.0165
G3 X205.3647 Y57.0248 I-0.5946 J-0.5048
G2 X205.3164 Y57.0819 I1.7915 J1.5643
G3 X205.3007 Y57.1005 I-0.6034 J-0.4943
G2 X205.2503 Y57.16 I1.8716 J1.6336
G3 X205.2346 Y57.1786 I-0.6034 J-0.4942
G2 X205.1821 Y57.2407 I1.9575 J1.708
G3 X205.1664 Y57.2593 I-0.6035 J-0.4942
G2 X205.1116 Y57.3241 I2.0499 J1.7879
G3 X205.096 Y57.3426 I-0.6035 J-0.4941
G2 X205.0389 Y57.4102 I2.1498 J1.8741
G3 X205.0234 Y57.4285 I-0.6036 J-0.4941
G2 X204.9638 Y57.4991 I2.2582 J1.9677
G3 X204.9485 Y57.5173 I-0.6036 J-0.4941
G2 X204.8863 Y57.5909 I2.3765 J2.0698
G3 X204.8711 Y57.6089 I-0.6036 J-0.4941
G2 X204.8063 Y57.6856 I2.5065 J2.1818
G3 X204.7913 Y57.7035 I-0.6035 J-0.4941
G2 X204.7237 Y57.7835 I2.6502 J2.3055
G3 X204.7089 Y57.8011 I-0.6035 J-0.4942
G2 X204.6384 Y57.8846 I2.8102 J2.4432
G3 X204.6238 Y57.9019 I-0.6034 J-0.4943
G2 X204.5503 Y57.9889 I2.9903 J2.598
G3 X204.5438 Y57.9968 I-0.6033 J-0.4944
G3 X201.7168 Y61.3285 I-420.9264 J-354.2961
G3 X201.7142 Y61.3315 I-0.5927 J-0.507
G1 X200.899 Y62.2747
G3 X199.5319 Y61.6963 I-0.5901 J-0.5101
G2 X199.6068 Y59.4993 I-20.4469 J-1.7971
G3 X199.6067 Y59.4901 I0.7799 J-0.0152
G2 X199.5992 Y59.1914 I-8.5334 J0.066
G3 X199.5989 Y59.1846 I0.7793 J-0.0333
G2 X199.3974 Y56.6562 I-27.8333 J0.9454
G3 X199.3956 Y56.6401 I0.7739 J-0.0973
G2 X199.3786 Y56.5033 I-3.5177 J0.3683
G3 X199.3752 Y56.477 I0.772 J-0.1114
G2 X199.3568 Y56.3343 I-3.7411 J0.4106
G3 X199.3534 Y56.3087 I0.7715 J-0.1147
G2 X199.3335 Y56.1597 I-4.0232 J0.4627
G3 X199.3301 Y56.1352 I0.7711 J-0.1178
G2 X199.3085 Y55.9794 I-4.3899 J0.5289
G3 X199.3053 Y55.9563 I0.7706 J-0.1208
G2 X199.2819 Y55.793 I-4.8869 J0.6169
G3 X199.2804 Y55.7832 I0.7702 J-0.1235
G2 X198.9499 Y53.8037 I-52.016 J7.6672
G3 X198.9376 Y53.6991 I0.7668 J-0.1431
G1 X198.8958 Y52.8541
G3 X198.8957 Y52.852 I0.779 J-0.0385
G1 X198.8562 Y52.0069
G3 X198.8561 Y52.0041 I0.7791 J-0.0364
G1 X198.783 Y50.3136
G3 X198.7829 Y50.311 I0.7793 J-0.0337
G1 X198.7383 Y49.1945
G3 X197.3596 Y49.0397 I-0.6496 J-0.4318
G2 X196.5718 Y47.1647 I-27.458 J10.4337
G3 X196.5675 Y47.1552 I0.7082 J-0.3269
G2 X196.5187 Y47.05 I-3.5439 J1.5783
G3 X196.5144 Y47.041 I0.7027 J-0.3385
G2 X195.5351 Y45.0928 I-33.1519 J15.4463
G3 X195.5294 Y45.0823 I0.6861 J-0.371
G2 X195.4715 Y44.9747 I-3.9243 J2.0446
G3 X195.4625 Y44.9581 I0.6815 J-0.3794
G2 X195.4018 Y44.8461 I-4.2009 J2.207
G3 X195.3931 Y44.8302 I0.6805 J-0.3812
G2 X195.3293 Y44.7135 I-4.5474 J2.4097
G3 X195.321 Y44.6984 I0.6795 J-0.3829
G2 X195.254 Y44.5767 I-4.9968 J2.6717
G3 X195.2462 Y44.5626 I0.6786 J-0.3845
G2 X195.1757 Y44.4355 I-5.6098 J3.0279
G3 X195.1686 Y44.4228 I0.6778 J-0.386
G2 X195.0943 Y44.2898 I-6.5114 J3.55
G3 X195.0897 Y44.2816 I0.677 J-0.3874
G2 X194.7165 Y43.6259 I-33.4657 J18.6161
G3 X194.7162 Y43.6255 I0.674 J-0.3925
G1 X194.511 Y43.2725
G1 X194.2909 Y42.8991
G1 X194.0537 Y42.5015
G1 X193.7979 Y42.0779
G1 X193.6655 Y41.8601
G2 X193.0523 Y40.8632 I-201.2623 J123.0913
G3 X193.022 Y40.8094 I0.6634 J-0.4103
G1 X192.4517 Y39.6998
G3 X192.45 Y39.6965 I0.6937 J-0.3565
G1 X191.885 Y38.5842
G3 X191.8838 Y38.5817 I0.6954 J-0.3532
G1 X191.5097 Y37.8389
G3 X191.5094 Y37.8382 I0.6967 J-0.3508
G3 X190.6235 Y36.0618 I312.3401 J-156.8854
G3 X189.3504 Y36.3253 I-0.7239 J-0.2905
G2 X187.7379 Y34.7916 I-37.7556 J38.0823
G1 X187.5001 Y34.5772
G2 X185.5615 Y32.9639 I-21.9087 J24.3547
G3 X185.5558 Y32.9595 I0.4755 J-0.6183
G2 X185.4409 Y32.872 I-3.1328 J3.9969
G3 X185.433 Y32.8661 I0.4635 J-0.6273
G2 X184.0246 Y31.8754 I-14.4941 J19.1081
G3 X184.0242 Y31.8751 I0.4256 J-0.6537
G2 X182.045 Y30.7493 I-10.2654 J15.7445
G3 X182.0037 Y30.7275 I0.3439 J-0.7001
G2 X180.2113 Y29.9331 I-4.8871 J8.608
G3 X180.2099 Y29.9327 I0.2439 J-0.7409
G2 X178.2834 Y29.4742 I-3.6147 J10.9124
G2 X176.9544 Y29.3431 I-2.0329 J13.8062
G3 X176.9477 Y29.3427 I0.0393 J-0.779
G2 X176.7918 Y29.3361 I-0.2766 J4.6844
G3 X176.7847 Y29.3359 I0.0201 J-0.7797
G2 X174.9448 Y29.385 I-0.5213 J14.9694
G1 X174.6981 Y29.4085
G3 X174.5596 Y29.4093 I-0.0739 J-0.7765
G3 X172.5889 Y29.2003 I3.6234 J-43.5704
G3 X172.4453 Y29.1818 I0.4959 J-4.4037
G3 X172.3999 Y29.1758 I10.901 J-82.3095
G3 X172.4985 Y30.4695 I-0.3825 J0.6798
G2 X171.6336 Y31.233 I6.0814 J7.7612
G3 X171.631 Y31.2356 I-0.5495 J-0.5536
G2 X170.8869 Y32.0839 I5.3619 J5.4537
G2 X170.473 Y32.7029 I5.5839 J4.1816
G2 X170.0567 Y33.578 I4.7324 J2.7875
G3 X169.9699 Y33.7459 I-0.7312 J-0.2716
G3 X169.5872 Y34.2854 I-14.7718 J-10.0751
G3 X169.4543 Y34.4658 I-5.1778 J-3.6743
G3 X169.3771 Y34.5691 I-3.6975 J-2.6845
G3 X168.7632 Y35.3582 I-20.0947 J-14.9984
G3 X168.1291 Y36.1258 I-37.8411 J-30.612
G3 X169.1128 Y36.9491 I0.2069 J0.7521
G1 X169.0666 Y37.4521
G1 X169.0218 Y37.9514
G1 X168.9956 Y38.2797
G1 X168.9829 Y38.464
G1 X168.9702 Y38.6779
G2 X168.9522 Y39.2266 I12.8919 J0.6977
G1 X168.9518 Y39.3518
G3 X168.9879 Y38.7946 I20.548 J1.0517
G3 X168.9883 Y38.79 I0.7771 J0.061
G3 X169.0835 Y37.9077 I18.9776 J1.6022
G3 X169.0848 Y37.8988 I0.7729 J0.1017
G1 X169.1169 Y37.6742
G3 X169.1188 Y37.6618 I0.7716 J0.1105
G1 X169.157 Y37.4226
G3 X169.1575 Y37.4195 I0.7698 J0.1229
G3 X169.4514 Y36.0783 I12.731 J2.0872
G3 X170.0843 Y34.338 I10.7007 J2.906
G3 X170.0854 Y34.3355 I0.7078 J0.3266
G3 X170.5931 Y33.39 I8.5594 J3.9865
G3 X170.915 Y32.9034 I6.226 J3.7696
G3 X171.2937 Y32.4109 I6.1612 J4.3456
G3 X172.2993 Y31.3978 I6.1531 J5.1018
G3 X172.3427 Y31.3639 I0.502 J0.5964
G3 X173.8698 Y30.5224 I4.1001 J5.635
G3 X173.871 Y30.522 I0.2878 J0.7244
G3 X175.5312 Y30.0697 I2.8661 J7.2475
G1 X175.5311
G1 X175.5312
G3 X176.6592 Y29.9667 I1.3643 J8.7082
G3 X178.1499 Y30.0385 I0.2743 J9.8118
G3 X180.0635 Y30.4378 I-1.4493 J11.7294
G3 X182.4353 Y31.4009 I-3.7137 J12.5478
G3 X183.3361 Y31.866 I-7.235 J15.1192
G3 X184.2208 Y32.3927 I-8.0524 J14.532
G3 X184.221 Y32.3928 I-0.4193 J0.6571
G3 X185.8814 Y33.5733 I-11.0143 J17.2489
G3 X186.336 Y33.9405 I-9.8152 J12.6205
G3 X187.486 Y34.9508 I-16.7191 J20.1897
G3 X187.5617 Y35.0212 I-2.0803 J2.3141
G3 X187.6339 Y35.0888 I-2.1205 J2.3348
G3 X187.707 Y35.1578 I-2.1595 J2.3628
G3 X187.781 Y35.228 I-2.2023 J2.3943
G3 X187.861 Y35.3045 I-2.2492 J2.4297
G3 X189.3988 Y36.8661 I-27.364 J28.4859
G3 X189.3999 Y36.8673 I-0.5704 J0.5313
G1 X189.7906 Y37.2885
G3 X189.793 Y37.2911 I-0.5715 J0.5302
G3 X190.6617 Y38.2535 I-52.1652 J47.9589
G0 Z3.0
G0 X198.0716 Y33.3133
G0 Z1.0
G1 Z-0.5
G3 X198.3365 Y33.6087 I-2.6421 J2.6351
G3 X198.4695 Y33.79 I-1.5597 J1.2838
G2 X198.4852 Y33.4482 I-2.8681 J-0.3032
G1 X198.4822 Y33.2728
G2 X198.4589 Y32.8602 I-7.4208 J0.211
G3 X198.4585 Y32.855 I1.2555 J-0.1058
G1 X198.4064 Y32.2041
G3 X198.4056 Y32.1937 I1.256 J-0.1006
G1 X198.3995 Y32.1096
G3 X198.3987 Y32.0978 I1.2568 J-0.0902
G1 X198.3876 Y31.9185
G3 X198.3867 Y31.9029 I1.2576 J-0.0784
G1 X198.3821 Y31.8103
G3 X198.382 Y31.8079 I1.2584 J-0.0627
G3 X198.3743 Y31.5756 I7.6656 J-0.3675
G3 X198.3782 Y31.1678 I6.2885 J-0.1446
G3 X198.3398 Y30.7112 I3.8199 J-0.5511
G3 X198.3397 Y30.7083 I1.2596 J-0.0309
G1 X198.3366 Y30.568
G3 X198.3363 Y30.5402 I1.2597 J-0.0279
G1 Y29.9945
G1 X198.3329 Y29.8492
G3 X198.3327 Y29.8384 I1.2597 J-0.0296
G2 X198.3283 Y29.7636 I-0.8742 J0.013
G3 X198.3245 Y29.7173 I1.2536 J-0.1266
G2 X198.3193 Y29.6633 I-0.8125 J0.0519
G1 X198.2659 Y29.6465
G3 X198.2325 Y29.6355 I0.3777 J-1.2021
G1 X198.0697 Y29.5793
G3 X198.0495 Y29.5721 I0.4111 J-1.1911
G1 X197.8836 Y29.5117
G2 X197.8823 Y30.5165 I15.3682 J0.5219
G1 X197.8936 Y30.8394
G3 X197.8941 Y30.8574 I-1.2592 J0.0443
G2 X197.8953 Y30.8842 I0.5924 J-0.0124
G3 X197.8977 Y30.936 I-1.2572 J0.0835
G2 X197.8992 Y30.968 I0.74 J-0.0186
G3 X197.9016 Y31.017 I-1.257 J0.0863
G2 X197.9035 Y31.055 I0.9304 J-0.0276
G3 X197.9059 Y31.1005 I-1.2569 J0.0887
G2 X197.9083 Y31.1453 I1.1891 J-0.0408
G3 X197.9106 Y31.1863 I-1.2567 J0.0907
G2 X197.9135 Y31.2392 I1.5689 J-0.0619
G3 X197.9157 Y31.277 I-1.2566 J0.0921
G2 X197.9254 Y31.4355 I4.4725 J-0.1926
G3 X197.9265 Y31.4507 I-1.2561 J0.0988
G1 X197.9406 Y31.6625
G1 X197.9765 Y32.148
G1 X198.0218 Y32.7077
G1 X198.0716 Y33.3133
G1 X197.8324 Y33.333
G1 X197.8356 Y33.3719
G3 X197.8383 Y33.4163 I-1.0166 J0.0835
G2 X197.8621 Y33.4415 I0.6123 J-0.5566
G3 X197.8821 Y33.4622 I-0.7254 J0.7171
G2 X197.8998 Y33.4809 I1.1505 J-1.075
G3 X198.1503 Y33.7603 I-2.4703 J2.4675
G3 X198.417 Y34.2008 I-1.3736 J1.1323
G3 X198.4765 Y34.1557 I0.7732 J0.9594
G3 X198.6762 Y34.0338 I0.9086 J1.2638
G2 X198.6939 Y33.9295 I-1.83 J-0.3655
G3 X198.6941 Y33.9282 I1.01 J0.1428
G2 X198.7252 Y33.4445 I-3.0928 J-0.4413
G1 X198.7221 Y33.2674
G2 X198.6981 Y32.84 I-7.6607 J0.2165
G3 X198.6977 Y32.8358 I1.0164 J-0.0857
G1 X198.6456 Y32.1849
G3 X198.6449 Y32.1765 I1.0167 J-0.0815
G1 X198.6389 Y32.0925
G3 X198.6383 Y32.0828 I1.0174 J-0.073
G1 X198.6271 Y31.9036
G3 X198.6264 Y31.8909 I1.018 J-0.0634
G1 X198.6218 Y31.7983
G3 X198.6217 Y31.7964 I1.0187 J-0.0507
G3 X198.6143 Y31.5708 I7.4259 J-0.356
G3 X198.619 Y31.1554 I6.0485 J-0.1397
G3 X198.5797 Y30.7053 I3.5792 J-0.5388
G3 Y30.7029 I1.0197 J-0.025
G1 X198.5766 Y30.5627
G3 X198.5763 Y30.5402 I1.0197 J-0.0226
G1 Y29.9916
G1 X198.5728 Y29.8436
G3 X198.5726 Y29.8348 I1.0197 J-0.0239
G2 X198.5671 Y29.7395 I-1.1142 J0.0166
G3 X198.564 Y29.702 I1.0148 J-0.1025
G2 X198.5238 Y29.4731 I-1.052 J0.0671
G1 X198.4489 Y29.452
G3 X198.4201 Y29.4434 I0.2769 J-0.9817
G1 X198.3379 Y29.4176
G3 X198.3108 Y29.4086 I0.3057 J-0.9731
G1 X198.148 Y29.3525
G3 X198.1316 Y29.3466 I0.3328 J-0.9642
G1 X197.808 Y29.2287
G3 X197.7967 Y29.2245 I0.3492 J-0.9584
G2 X197.6581 Y29.177 I-0.85 J2.2501
G2 X197.6455 Y29.451 I9.1097 J0.5558
G3 X197.6453 Y29.4572 I-1.0195 J-0.0315
G2 X197.6424 Y30.5245 I15.6064 J0.5764
G1 X197.6538 Y30.8479
G3 X197.6542 Y30.8624 I-1.0194 J0.0359
G2 X197.6558 Y30.9001 I0.8324 J-0.0174
G3 X197.6578 Y30.942 I-1.0178 J0.0676
G2 X197.6597 Y30.9844 I0.98 J-0.0247
G3 X197.6617 Y31.0241 I-1.0176 J0.0699
G2 X197.6641 Y31.0719 I1.1703 J-0.0347
G3 X197.666 Y31.1087 I-1.0175 J0.0718
G2 X197.6689 Y31.1626 I1.4289 J-0.0491
G3 X197.6707 Y31.1958 I-1.0174 J0.0734
G2 X197.6742 Y31.2567 I1.8087 J-0.0713
G3 X197.676 Y31.2873 I-1.0173 J0.0745
G2 X197.6861 Y31.4543 I4.7123 J-0.203
G3 X197.687 Y31.4666 I-1.0169 J0.08
G1 X197.7012 Y31.6793
G1 X197.7372 Y32.1665
G1 X197.7826 Y32.7272
G1 X197.8324 Y33.333
G1 X197.5932 Y33.3526
G1 X197.5964 Y33.3915
G3 X197.5977 Y33.5016 I-0.7774 J0.0639
G2 X197.6065 Y33.5136 I0.1182 J-0.0782
G3 X197.6152 Y33.5243 I-0.6017 J0.4963
G2 X197.6915 Y33.6102 I0.8353 J-0.6646
G3 X197.7067 Y33.6261 I-0.5547 J0.5484
G2 X197.7287 Y33.6492 I1.3259 J-1.2388
G3 X197.9642 Y33.9118 I-2.2992 J2.2992
G3 X198.2852 Y34.582 I-1.1875 J0.9808
G3 X198.3006 Y34.707 I-0.764 J0.1573
G1 X198.3011 Y34.7197
G3 X198.6161 Y34.3509 I0.889 J0.4405
G3 X198.8775 Y34.2048 I0.769 J1.0685
G1 X198.8835 Y34.2022
G2 X198.9316 Y33.9631 I-2.0373 J-0.5339
G3 X198.9317 Y33.9621 I0.7723 J0.1092
G2 X198.9651 Y33.4408 I-3.3304 J-0.4752
G1 X198.9621 Y33.2619
G2 X198.9372 Y32.8199 I-7.9007 J0.2219
G3 X198.937 Y32.8167 I0.7772 J-0.0655
G1 X198.8848 Y32.1658
G3 X198.8843 Y32.1593 I0.7775 J-0.0623
G1 X198.8783 Y32.0753
G3 X198.8778 Y32.0679 I0.778 J-0.0559
G1 X198.8666 Y31.8887
G3 X198.8661 Y31.879 I0.7785 J-0.0485
G1 X198.8615 Y31.7864
G3 X198.8614 Y31.7849 I0.779 J-0.0388
G3 X198.8542 Y31.5659 I7.1862 J-0.3445
G3 X198.8598 Y31.1427 I5.8086 J-0.1348
G3 X198.8197 Y30.6994 I3.3383 J-0.5261
G3 X198.8196 Y30.6976 I0.7798 J-0.0191
G1 X198.8165 Y30.5574
G3 X198.8163 Y30.5401 I0.7798 J-0.0173
G1 Y29.9888
G1 X198.8127 Y29.838
G3 X198.8126 Y29.8313 I0.7798 J-0.0183
G2 X198.8059 Y29.7154 I-1.3542 J0.0201
G3 X198.8036 Y29.6867 I0.7761 J-0.0783
G2 X198.7505 Y29.3934 I-1.2915 J0.0824
G2 X198.7115 Y29.3091 I-0.4171 J0.1415
G2 X198.6905 Y29.2862 I-0.0784 J0.0507
G2 X198.6086 Y29.2476 I-0.1464 J0.2044
G3 X198.5969 Y29.2444 I0.2001 J-0.7539
G1 X198.514 Y29.221
G3 X198.492 Y29.2144 I0.2118 J-0.7507
G1 X198.4098 Y29.1886
G3 X198.3891 Y29.1818 I0.2338 J-0.7441
G1 X198.2263 Y29.1256
G3 X198.2138 Y29.1211 I0.2545 J-0.7373
G1 X197.8902 Y29.0032
G3 X197.8815 Y29.0 I0.267 J-0.7329
G2 X197.7136 Y28.943 I-0.9348 J2.4746
G3 X197.7036 Y28.9398 I0.2261 J-0.7465
G2 X197.4735 Y28.8776 I-0.8288 J2.6088
G3 X197.4732 I0.1706 J-0.7611
G2 X197.4407 Y28.8709 I-0.1801 J0.8024
G2 X197.437 Y28.9146 I11.0776 J0.9523
G3 X197.4366 Y28.9186 I-0.7774 J-0.0637
G2 X197.4057 Y29.4436 I9.3312 J0.8142
G3 X197.4055 Y29.4483 I-0.7796 J-0.0241
G2 X197.4025 Y30.5325 I15.8462 J0.5853
G1 X197.4139 Y30.8563
G3 X197.4142 Y30.8674 I-0.7795 J0.0274
G2 X197.4164 Y30.916 I1.0723 J-0.0225
G3 X197.4178 Y30.948 I-0.7783 J0.0517
G2 X197.4203 Y31.0009 I1.2199 J-0.0307
G3 X197.4218 Y31.0312 I-0.7782 J0.0534
G2 X197.4247 Y31.0888 I1.4102 J-0.0418
G3 X197.4262 Y31.1169 I-0.7781 J0.0549
G2 X197.4295 Y31.1798 I1.6688 J-0.0573
G3 X197.4309 Y31.2053 I-0.778 J0.0562
G2 X197.4348 Y31.2743 I2.0485 J-0.0808
G3 X197.4362 Y31.2977 I-0.7779 J0.057
G2 X197.4469 Y31.4731 I4.9521 J-0.2133
G3 X197.4475 Y31.4825 I-0.7776 J0.0612
G1 X197.4617 Y31.6961
G1 X197.498 Y32.1851
G1 X197.5434 Y32.7467
G1 X197.5932 Y33.3526
G0 Z3.0
G0 X181.622 Y17.3933
G0 Z1.0
G1 Z-0.5
G3 X181.5012 Y17.1108 I11.1908 J-4.9528
G1 X181.3557 Y16.7669
G1 X181.3189 Y16.6818
G1 X181.2775 Y16.5882
G2 X181.1063 Y16.2358 I-5.4483 J2.4298
G2 X181.1808 Y16.4703 I2.0746 J-0.5305
G1 X181.2344 Y16.6068
G1 X181.2962 Y16.7497
G1 X181.3764 Y16.92
G1 X181.4816 Y17.1279
G2 X181.622 Y17.3933 I20.1348 J-10.4843
G1 X181.4106 Y17.507
G2 X181.5765 Y17.81 I20.2057 J-10.8634
G3 X182.0254 Y18.7059 I-9.7999 J5.4702
G3 X182.0303 Y18.7171 I-0.9314 J0.4157
G3 X182.1015 Y18.8884 I-6.0569 J2.6171
G3 X182.3402 Y19.3277 I-4.4099 J2.6809
G3 X182.5548 Y19.7758 I-38.7752 J18.8452
G3 X182.5649 Y19.798 I-0.9225 J0.4353
G3 X182.5755 Y19.8188 I-0.9045 J0.4715
G1 X182.641 Y19.9519
G3 X182.643 Y19.9559 I-0.915 J0.4507
G2 X182.7871 Y20.2198 I2.9097 J-1.4175
G3 X182.7952 Y20.2334 I-0.8716 J0.5299
G2 X182.9763 Y20.4758 I1.1794 J-0.6922
G3 X182.9814 Y20.4813 I-0.7446 J0.6971
G2 X183.081 Y20.5489 I0.1945 J-0.1794
G3 X183.1688 Y20.1711 I1.64 J0.1822
G2 X183.1489 Y20.0086 I-0.6464 J-0.0036
G2 X182.9874 Y19.5825 I-2.075 J0.5428
G3 X182.984 Y19.5756 I0.91 J-0.4608
G1 X182.9438 Y19.4948
G3 X182.9384 Y19.4837 I0.9135 J-0.4538
G3 X182.9348 Y19.477 I0.8977 J-0.4843
G1 X182.839 Y19.2962
G1 X182.7283 Y19.0947
G3 X182.5907 Y18.8432 I12.0094 J-6.7331
G3 X182.4237 Y18.516 I5.2367 J-2.8794
G3 X182.3822 Y18.4274 I3.878 J-1.868
G3 X182.2458 Y18.0944 I3.809 J-1.7548
G3 X181.9762 Y17.5898 I5.2058 J-3.1062
G3 X181.7226 Y17.0183 I10.8366 J-5.1492
G1 X181.5763 Y16.6725
G1 X181.5388 Y16.5857
G1 X181.4969 Y16.4908
G2 X181.2755 Y16.0437 I-5.6676 J2.5271
G3 X181.2747 Y16.0421 I0.8952 J-0.4889
G2 X181.0746 Y15.7395 I-1.8539 J1.0081
G2 X180.8529 Y15.9447 I0.5773 J0.8459
G3 X180.8481 Y15.9507 I-0.7958 J-0.6381
G2 X180.8175 Y15.9905 I0.6869 J0.5593
G2 X180.8403 Y16.1446 I1.5756 J-0.1549
G3 X180.8418 Y16.1522 I-1.0004 J0.1991
G2 X180.957 Y16.557 I2.339 J-0.4469
G1 X181.0125 Y16.6983
G1 X181.0775 Y16.8486
G1 X181.1607 Y17.0253
G1 X181.268 Y17.2374
G2 X181.4106 Y17.507 I20.3483 J-10.5939
G1 X181.1992 Y17.6206
G2 X181.3669 Y17.9269 I20.4171 J-10.977
G3 X181.8062 Y18.8038 I-9.5903 J5.3533
G3 X181.81 Y18.8123 I-0.7123 J0.3179
G3 X181.886 Y18.9961 I-5.8366 J2.5219
G3 X182.1242 Y19.4323 I-4.1944 J2.5733
G3 X182.3377 Y19.8782 I-38.5592 J18.7406
G3 X182.347 Y19.8986 I-0.7054 J0.3328
G2 X182.3504 Y19.9057 I0.0974 J-0.0426
G3 X182.3602 Y19.9249 I-0.6899 J0.3639
G1 X182.4257 Y20.0579
G3 X182.4272 Y20.061 I-0.6997 J0.3447
G2 X182.582 Y20.3445 I3.1255 J-1.5226
G3 X182.5882 Y20.3549 I-0.6665 J0.4052
G2 X182.8011 Y20.6398 I1.3864 J-0.8137
G3 X182.805 Y20.644 I-0.5694 J0.5331
G2 X183.0446 Y20.7891 I0.3709 J-0.3421
G3 X183.3231 Y20.9285 I-0.2029 J0.7532
G3 X183.316 Y20.6115 I1.6006 J-0.1943
G3 X183.3173 Y20.5963 I0.7777 J0.0593
G3 X183.4073 Y20.2185 I1.4036 J0.1347
G2 X183.3813 Y19.9487 I-0.8849 J-0.051
G2 X183.2016 Y19.4741 I-2.3074 J0.6027
G3 X183.1989 Y19.4688 I0.6959 J-0.3524
G1 X183.1588 Y19.388
G3 X183.1522 Y19.3746 I0.6985 J-0.3471
G3 X183.1469 Y19.3646 I0.6839 J-0.3752
G1 X183.0502 Y19.1822
G1 X182.9381 Y18.9782
G3 X182.8017 Y18.7289 I11.7996 J-6.6167
G3 X182.6403 Y18.4126 I5.0256 J-2.765
G3 X182.6005 Y18.3275 I3.6614 J-1.7647
G3 X182.4639 Y17.9913 I3.5907 J-1.655
G3 X182.1929 Y17.4868 I4.9878 J-3.0031
G1 X182.193
G1 X182.1929
G3 X181.9441 Y16.9257 I10.6199 J-5.0462
G1 X181.797 Y16.578
G1 X181.7587 Y16.4895
G1 X181.7162 Y16.3935
G2 X181.4862 Y15.9287 I-5.887 J2.6245
G3 X181.4855 Y15.9274 I0.6846 J-0.3738
G2 X181.148 Y15.4564 I-2.0648 J1.1228
G2 X181.1305 Y15.4384 I-1.0657 J1.0202
G2 X181.0257 Y15.4872 I0.2317 J0.6333
G3 X181.024 Y15.4882 I-0.3892 J-0.676
G2 X180.6656 Y15.7946 I0.6279 J1.0971
G3 X180.662 Y15.7992 I-0.6085 J-0.4879
G2 X180.5722 Y15.9265 I0.873 J0.7109
G2 X180.605 Y16.1914 I1.8209 J-0.0909
G3 X180.6061 Y16.1973 I-0.765 J0.1522
G2 X180.7333 Y16.6438 I2.5747 J-0.492
G1 X180.7905 Y16.7898
G1 X180.8587 Y16.9474
G1 X180.9451 Y17.1306
G1 X181.0545 Y17.347
G2 X181.1992 Y17.6206 I20.5618 J-10.7034
G0 Z3.0
G0 X178.8212 Y30.3851
G0 Z1.0
G1 Z-0.5
G3 X179.9953 Y30.6679 I-2.1206 J11.3827
G3 X182.3277 Y31.6155 I-3.6455 J12.3177
G3 X183.2197 Y32.0759 I-7.1273 J14.9047
G3 X184.0917 Y32.595 I-7.936 J14.3221
G3 X184.0919 Y32.5951 I-0.2902 J0.4548
G3 X185.7334 Y33.7623 I-10.8852 J17.0467
G3 X186.1824 Y34.1248 I-9.6672 J12.4316
G3 X187.324 Y35.1278 I-16.5654 J20.0053
G3 X187.3979 Y35.1966 I-1.9183 J2.137
G3 X187.4695 Y35.2637 I-1.9566 J2.1594
G3 X187.542 Y35.3321 I-1.9951 J2.1879
G3 X187.6155 Y35.4018 I-2.0373 J2.2199
G3 X187.6934 Y35.4764 I-2.0837 J2.2559
G3 X189.2232 Y37.0297 I-27.1964 J28.3141
G3 X189.224 Y37.0305 I-0.3948 J0.3678
G1 X189.6147 Y37.4517
G3 X189.6164 Y37.4535 I-0.3955 J0.3669
G3 X190.5023 Y38.4355 I-51.9885 J47.7965
G3 X190.5026 Y38.4358 I-0.4039 J0.3576
G1 X190.966 Y38.9601
G3 X190.9672 Y38.9614 I-0.4043 J0.3573
G1 X191.2055 Y39.2328
G3 X191.2257 Y39.2572 I-0.4054 J0.356
G3 X192.4953 Y40.9671 I-36.4344 J28.379
G3 X192.6739 Y41.2217 I-9.0417 J6.5333
G3 X194.0084 Y43.2586 I-36.8909 J25.6253
G3 X194.0101 Y43.2613 I-0.4591 J0.2833
G1 X194.1771 Y43.5356
G3 X194.1777 Y43.5366 I-0.4608 J0.2806
G3 X196.5612 Y48.1706 I-31.926 J19.3511
G3 X196.5614 Y48.1712 I-0.4958 J0.2127
G3 X196.8284 Y48.8147 I-29.4395 J12.5887
G3 X198.0191 Y52.3353 I-29.8847 J12.0689
G3 X198.0195 Y52.3368 I-0.5202 J0.1431
G3 X198.2557 Y53.2553 I-33.213 J9.0319
G3 X198.5365 Y54.1492 I-5.1379 J2.105
G3 X198.537 Y54.1516 I-0.5265 J0.1177
G3 X198.6927 Y55.077 I-9.3956 J2.0558
G3 Y55.0777 I-0.5358 J0.0634
G1 X198.722 Y55.3271
G3 X198.7544 Y55.6291 I-9.1175 J1.1312
