( Made using CamBam - http://www.cambam.co.uk )
( assbot_logo-outline 8/6/2013 2:54:56 PM )
( T101 : 0.3 )
( T103 : 1.6 )
G21 G90 G91.1 G64 G40
G0 Z3.0
( T101 : 0.3 )
T101 M6
( Logo Pocket )
G17
M3 S1000
G0 X91.2263 Y13.7848
G0 Z1.0
G1 F300.0 Z-0.5
G3 F800.0 X91.0538 Y13.9589 I-0.3492 J-0.1736
G3 X91.1742 Y14.1765 I-0.263 J0.2876
G1 X91.2263 Y13.7848
G0 Z3.0
G0 X88.4291 Y14.0012
G0 Z1.0
G1 F300.0 Z-0.5
G1 F800.0 X88.3596
G3 X88.2345 Y13.9806 I0.0 J-0.39
G1 X88.3492 Y14.1734
G3 X88.4291 Y14.0012 I0.3829 J0.073
G0 Z3.0
G0 X90.7535 Y17.34
G0 Z1.0
G1 F300.0 Z-0.5
G3 F800.0 X90.6883 Y17.417 I-0.3274 J-0.2114
G1 X90.7433
G1 X90.7535 Y17.34
G1 F300.0 X90.6527 Y17.2749
G3 F800.0 X90.1935 Y17.2653 I-0.2266 J-0.1463
G1 X88.4995 Y14.3832
G3 X88.7321 Y13.9767 I0.2326 J-0.1367
G1 X90.7908
G3 X91.0584 Y14.2803 I0.0 J0.2698
G1 X90.6937 Y17.1625
G3 X90.6527 Y17.2749 I-0.2676 J-0.0339
G1 F300.0 X90.5521 Y17.21
G3 F800.0 X90.2968 Y17.2046 I-0.126 J-0.0814
G1 X88.6028 Y14.3225
G3 X88.7321 Y14.0965 I0.1293 J-0.076
G1 X90.7908
G3 X90.9396 Y14.2653 I0.0 J0.15
G1 X90.5749 Y17.1474
G3 X90.5521 Y17.21 I-0.1488 J-0.0188
G0 Z3.0
G0 Y17.537
G0 Z1.0
G1 F300.0 Z-0.5
G1 F800.0 X90.8484
G1 X91.553 Y12.2382
G1 X91.3128
G1 X91.1451 Y13.6432
G3 X90.877 Y13.8812 I-0.2681 J-0.032
G1 X88.3596
G3 X88.1262 Y13.7471 I0.0 J-0.27
G1 X87.2475 Y12.2382
G1 X87.0581
G1 X90.211 Y17.537
G1 X90.5521
G1 F300.0 Y17.657
G1 F800.0 X90.9535
G1 X91.69 Y12.1182
G1 X91.2062
G1 X91.026 Y13.629
G3 X90.877 Y13.7612 I-0.1489 J-0.0178
G1 X88.3596
G3 X88.2299 Y13.6867 I0.0 J-0.15
G1 X87.3165 Y12.1182
G1 X86.847
G1 X90.1428 Y17.657
G1 X90.5521
G0 Z3.0
G0 X90.6883 Y17.417
G0 Z0.5
G1 F300.0 Z-1.0
G1 F800.0 X90.7433
G1 X90.7535 Y17.34
G3 X90.6883 Y17.417 I-0.3274 J-0.2114
G0 Z3.0
G0 X91.1742 Y14.1765
G0 Z0.5
G1 F300.0 Z-1.0
G1 F800.0 X91.2263 Y13.7848
G3 X91.0538 Y13.9589 I-0.3492 J-0.1736
G3 X91.1742 Y14.1765 I-0.263 J0.2876
G0 Z3.0
G0 X88.4291 Y14.0012
G0 Z0.5
G1 F300.0 Z-1.0
G1 F800.0 X88.3596
G3 X88.2345 Y13.9806 I0.0 J-0.39
G1 X88.3492 Y14.1734
G3 X88.4291 Y14.0012 I0.3829 J0.073
G1 F300.0 X88.5224 Y14.0767
G3 F800.0 X88.7321 Y13.9767 I0.2097 J0.1697
G1 X90.7908
G3 X91.0584 Y14.2803 I0.0 J0.2698
G1 X90.6937 Y17.1625
G3 X90.1935 Y17.2653 I-0.2676 J-0.0339
G1 X88.4995 Y14.3832
G3 X88.5224 Y14.0767 I0.2326 J-0.1367
G1 F300.0 X88.6155 Y14.1521
G3 F800.0 X88.7321 Y14.0965 I0.1166 J0.0944
G1 X90.7908
G3 X90.9396 Y14.2653 I0.0 J0.15
G1 X90.5749 Y17.1474
G3 X90.2968 Y17.2046 I-0.1488 J-0.0188
G1 X88.6028 Y14.3225
G3 X88.6155 Y14.1521 I0.1293 J-0.076
G0 Z3.0
G0 Y13.8812
G0 Z0.5
G1 F300.0 Z-1.0
G1 F800.0 X88.3596
G3 X88.1262 Y13.7471 I0.0 J-0.27
G1 X87.2475 Y12.2382
G1 X87.0581
G1 X90.211 Y17.537
G1 X90.8484
G1 X91.553 Y12.2382
G1 X91.3128
G1 X91.1451 Y13.6432
G3 X90.877 Y13.8812 I-0.2681 J-0.032
G1 X88.6155
G1 F300.0 Y13.7612
G1 F800.0 X88.3596
G3 X88.2299 Y13.6867 I0.0 J-0.15
G1 X87.3165 Y12.1182
G1 X86.847
G1 X90.1428 Y17.657
G1 X90.9535
G1 X91.69 Y12.1182
G1 X91.2062
G1 X91.026 Y13.629
G3 X90.877 Y13.7612 I-0.1489 J-0.0178
G1 X88.6155
G0 Z3.0
G0 X85.955 Y15.9145
G0 Z1.0
G1 F300.0 Z-0.5
G3 F800.0 X86.0083 Y16.3568 I-1.7799 J0.4389
G3 Y16.3621 I-0.3898 J-0.0007
G3 X85.9913 Y16.5874 I-1.8835 J-0.0287
G3 X85.9902 Y16.595 I-0.3862 J-0.0526
G3 X85.9145 Y16.8596 I-1.1031 J-0.1724
G3 X85.9127 Y16.8639 I-0.3587 J-0.1525
G3 X85.6029 Y17.2599 I-0.931 J-0.4091
G3 X85.5767 Y17.2799 I-0.7768 J-0.9917
G2 X85.7636 Y17.1726 I-0.4435 J-0.9892
G2 X85.9939 Y16.9142 I-0.4679 J-0.6488
G2 X86.0515 Y16.7518 I-0.5145 J-0.2739
G2 X86.0717 Y16.5328 I-1.1741 J-0.2185
G3 Y16.5292 I0.39 J-0.0002
G2 X85.9812 Y15.982 I-1.6174 J-0.0138
G2 X85.955 Y15.9145 I-1.5035 J0.5451
G0 Z3.0
G0 X84.4246 Y14.563
G0 Z1.0
G1 F300.0 Z-0.5
G3 F800.0 X84.4209 Y14.4295 I0.3823 J-0.0774
G1 X84.364 Y14.5159
G3 X84.3373 Y14.5517 I-0.3257 J-0.2146
G3 X84.4246 Y14.563 I-0.2481 J2.2622
G0 Z3.0
G0 X82.7763 Y14.6604
G0 Z1.0
G1 F300.0 Z-0.5
G3 F800.0 X82.5889 Y14.493 I0.1522 J-0.3591
G1 X82.6808 Y14.8918
G3 X82.7763 Y14.6604 I0.3889 J0.0252
G0 Z3.0
G0 X83.2473 Y17.3511
G0 Z1.0
G1 F300.0 Z-0.5
G1 F800.0 X83.2625 Y17.417
G1 X83.2916
G3 X83.2473 Y17.3511 I0.2997 J-0.2492
G1 F300.0 X83.3532 Y17.2947
G3 F800.0 X83.3285 Y17.2287 I0.2381 J-0.1269
G1 X82.8069 Y14.9779
G3 X83.0697 Y14.6472 I0.2628 J-0.0609
G1 X83.8928
G3 X84.2478 Y14.6631 I0.0109 J3.731
G3 X84.3048 Y14.669 I-0.0332 J0.6042
G3 X84.6258 Y14.726 I-0.2156 J2.145
G3 X85.2368 Y15.0199 I-0.4 J1.6137
G3 X85.7187 Y15.6102 I-0.9673 J1.2816
G3 X85.8883 Y16.3566 I-1.5436 J0.7433
G3 Y16.3602 I-0.2698 J-0.0005
G3 X85.8724 Y16.5712 I-1.7635 J-0.0269
G3 X85.8716 Y16.5765 I-0.2673 J-0.0364
G3 X85.8041 Y16.8126 I-0.9846 J-0.1538
G3 X85.8028 Y16.8156 I-0.2482 J-0.1056
G3 X85.5292 Y17.1651 I-0.8212 J-0.3609
G3 X85.0576 Y17.3841 I-0.7031 J-0.897
G3 X84.8998 Y17.4117 I-0.3062 J-1.2887
G3 X84.4689 Y17.4376 I-0.414 J-3.2884
G1 X83.5913
G3 X83.3532 Y17.2947 I0.0 J-0.2698
G1 F300.0 X83.4589 Y17.2384
G3 F800.0 X83.4451 Y17.2017 I0.1324 J-0.0705
G1 X82.9236 Y14.9509
G3 X83.0697 Y14.767 I0.1461 J-0.0339
G1 X83.893
G3 X84.2391 Y14.7826 I0.0107 J3.6112
G3 X84.2898 Y14.7878 I-0.0245 J0.4847
G3 X84.5965 Y14.8421 I-0.2005 J2.0261
G3 X85.1643 Y15.1152 I-0.3707 J1.4976
G3 X85.6107 Y15.6619 I-0.8948 J1.1863
G3 X85.7686 Y16.3564 I-1.4356 J0.6915
G3 Y16.3584 I-0.15 J-0.0003
G3 X85.7537 Y16.5551 I-1.6438 J-0.0251
G3 X85.7533 Y16.558 I-0.1486 J-0.0202
G3 X85.6939 Y16.7658 I-0.8663 J-0.1354
G3 X85.6932 Y16.7674 I-0.138 J-0.0587
G3 X85.4557 Y17.0706 I-0.7115 J-0.3127
G3 X85.0316 Y17.2672 I-0.6296 J-0.8024
G3 X84.8857 Y17.2927 I-0.2802 J-1.1718
G3 X84.4692 Y17.3178 I-0.3998 J-3.1695
G1 X83.5913
G3 X83.4589 Y17.2384 I0.0 J-0.15
G0 Z3.0
G0 Y17.537
G0 Z1.0
G1 F300.0 Z-0.5
G1 F800.0 X84.5439
G2 X84.9624 Y17.5239 I-0.0128 J-7.115
G2 X85.3597 Y17.4732 I-0.2017 J-3.1641
G3 X85.3599 I0.051 J0.2651
G2 X85.8336 Y17.27 I-0.2267 J-1.1826
G2 X86.0992 Y16.9717 I-0.5379 J-0.7463
G2 X86.1694 Y16.7743 I-0.6198 J-0.3314
G2 X86.1917 Y16.5327 I-1.292 J-0.241
G3 Y16.5303 I0.27 J-0.0001
G2 X86.0943 Y15.9418 I-1.7374 J-0.0148
G2 X85.7976 Y15.4253 I-1.6166 J0.5853
G3 X85.7969 Y15.4245 I0.2073 J-0.173
G2 X85.3207 Y15.0058 I-1.5555 J1.2887
G2 X84.7337 Y14.7456 I-1.1971 J1.9083
G3 X84.5824 Y14.3357 I0.0731 J-0.2599
G1 X85.9839 Y12.2382
G1 X85.7209
G1 X84.2638 Y14.4499
G3 X84.0383 Y14.5714 I-0.2255 J-0.1485
G1 X82.9286
G3 X82.6655 Y14.3619 I0.0 J-0.27
G1 X82.1765 Y12.2382
G1 X81.9464
G1 X83.167 Y17.537
G1 X83.4589
G1 F300.0 Y17.657
G1 F800.0 X84.544
G2 X84.9698 Y17.6437 I-0.0129 J-7.235
G2 X85.3824 Y17.5911 I-0.2092 J-3.2839
G3 X85.3825 I0.0283 J0.1473
G2 X85.9036 Y17.3675 I-0.2493 J-1.3004
G2 X86.2045 Y17.0292 I-0.6079 J-0.8437
G2 X86.2873 Y16.7967 I-0.7251 J-0.389
G2 X86.3117 Y16.5326 I-1.4099 J-0.2634
G3 Y16.5313 I0.15 J-0.0001
G2 X86.2073 Y15.9016 I-1.8574 J-0.0158
G2 X85.8897 Y15.3484 I-1.7296 J0.6255
G3 X85.8893 Y15.348 I0.1152 J-0.0961
G2 X85.3846 Y14.9042 I-1.6479 J1.3653
G2 X84.7662 Y14.6301 I-1.261 J2.0098
G3 X84.6822 Y14.4023 I0.0406 J-0.1444
G1 X86.2085 Y12.1182
G1 X85.6562
G1 X84.1636 Y14.3839
G3 X84.0383 Y14.4514 I-0.1253 J-0.0825
G1 X82.9286
G3 X82.7824 Y14.335 I0.0 J-0.15
G1 X82.272 Y12.1182
G1 X81.7956
G1 X83.0715 Y17.657
G1 X83.4589
G0 Z3.0
G0 X83.2916 Y17.417
G0 Z0.5
G1 F300.0 Z-1.0
G3 F800.0 X83.2473 Y17.3511 I0.2997 J-0.2492
G1 X83.2625 Y17.417
G1 X83.2916
G0 Z3.0
G0 X85.5767 Y17.2799
G0 Z0.5
G1 F300.0 Z-1.0
G2 F800.0 X85.7636 Y17.1726 I-0.4435 J-0.9892
G2 X85.9939 Y16.9142 I-0.4679 J-0.6488
G2 X86.0515 Y16.7518 I-0.5145 J-0.2739
G2 X86.0717 Y16.5328 I-1.1741 J-0.2185
G3 Y16.5292 I0.39 J-0.0002
G2 X85.9812 Y15.982 I-1.6174 J-0.0138
G2 X85.955 Y15.9145 I-1.5035 J0.5451
G3 X86.0083 Y16.3568 I-1.7799 J0.4389
G3 Y16.3621 I-0.3898 J-0.0007
G3 X85.9913 Y16.5874 I-1.8835 J-0.0287
G3 X85.9902 Y16.595 I-0.3862 J-0.0526
G3 X85.9145 Y16.8596 I-1.1031 J-0.1724
G3 X85.9127 Y16.8639 I-0.3587 J-0.1525
G3 X85.6029 Y17.2599 I-0.931 J-0.4091
G3 X85.5767 Y17.2799 I-0.7768 J-0.9917
G0 Z3.0
G0 X84.4246 Y14.563
G0 Z0.5
G1 F300.0 Z-1.0
G3 F800.0 X84.4209 Y14.4295 I0.3823 J-0.0774
G1 X84.364 Y14.5159
G3 X84.3373 Y14.5517 I-0.3257 J-0.2146
G3 X84.4246 Y14.563 I-0.2481 J2.2622
G0 Z3.0
G0 X82.7763 Y14.6604
G0 Z0.5
G1 F300.0 Z-1.0
G3 F800.0 X82.5889 Y14.493 I0.1522 J-0.3591
G1 X82.6808 Y14.8918
G3 X82.7763 Y14.6604 I0.3889 J0.0252
G1 F300.0 X82.8667 Y14.7394
G3 F800.0 X83.0697 Y14.6472 I0.2031 J0.1776
G1 X83.8928
G3 X84.2478 Y14.6631 I0.0109 J3.731
G3 X84.3048 Y14.669 I-0.0332 J0.6042
G3 X84.6258 Y14.726 I-0.2156 J2.145
G3 X85.2368 Y15.0199 I-0.4 J1.6137
G3 X85.7187 Y15.6102 I-0.9673 J1.2816
G3 X85.8883 Y16.3566 I-1.5436 J0.7433
G3 Y16.3602 I-0.2698 J-0.0005
G3 X85.8724 Y16.5712 I-1.7635 J-0.0269
G3 X85.8716 Y16.5765 I-0.2673 J-0.0364
G3 X85.8041 Y16.8126 I-0.9846 J-0.1538
G3 X85.8028 Y16.8156 I-0.2482 J-0.1056
G3 X85.5292 Y17.1651 I-0.8212 J-0.3609
G3 X85.0576 Y17.3841 I-0.7031 J-0.897
G3 X84.8998 Y17.4117 I-0.3062 J-1.2887
G3 X84.4689 Y17.4376 I-0.414 J-3.2884
G1 X83.5913
G3 X83.3285 Y17.2287 I0.0 J-0.2698
G1 X82.8069 Y14.9779
G3 X82.8667 Y14.7394 I0.2628 J-0.0609
G1 F300.0 X82.9568 Y14.8183
G3 F800.0 X83.0697 Y14.767 I0.1129 J0.0987
G1 X83.893
G3 X84.2391 Y14.7826 I0.0107 J3.6112
G3 X84.2898 Y14.7878 I-0.0245 J0.4847
G3 X84.5965 Y14.8421 I-0.2005 J2.0261
G3 X85.1643 Y15.1152 I-0.3707 J1.4976
G3 X85.6107 Y15.6619 I-0.8948 J1.1863
G3 X85.7686 Y16.3564 I-1.4356 J0.6915
G3 Y16.3584 I-0.15 J-0.0003
G3 X85.7537 Y16.5551 I-1.6438 J-0.0251
G3 X85.7533 Y16.558 I-0.1486 J-0.0202
G3 X85.6939 Y16.7658 I-0.8663 J-0.1354
G3 X85.6932 Y16.7674 I-0.138 J-0.0587
G3 X85.4557 Y17.0706 I-0.7115 J-0.3127
G3 X85.0316 Y17.2672 I-0.6296 J-0.8024
G3 X84.8857 Y17.2927 I-0.2802 J-1.1718
G3 X84.4692 Y17.3178 I-0.3998 J-3.1695
G1 X83.5913
G3 X83.4451 Y17.2017 I0.0 J-0.15
G1 X82.9236 Y14.9509
G3 X82.9568 Y14.8183 I0.1461 J-0.0339
G0 Z3.0
G0 Y14.5714
G0 Z0.5
G1 F300.0 Z-1.0
G1 F800.0 X82.9286
G3 X82.6655 Y14.3619 I0.0 J-0.27
G1 X82.1765 Y12.2382
G1 X81.9464
G1 X83.167 Y17.537
G1 X84.5439
G2 X84.9624 Y17.5239 I-0.0128 J-7.115
G2 X85.3597 Y17.4732 I-0.2017 J-3.1641
G3 X85.3599 I0.051 J0.2651
G2 X85.8336 Y17.27 I-0.2267 J-1.1826
G2 X86.0992 Y16.9717 I-0.5379 J-0.7463
G2 X86.1694 Y16.7743 I-0.6198 J-0.3314
G2 X86.1917 Y16.5327 I-1.292 J-0.241
G3 Y16.5303 I0.27 J-0.0001
G2 X86.0943 Y15.9418 I-1.7374 J-0.0148
G2 X85.7976 Y15.4253 I-1.6166 J0.5853
G3 X85.7969 Y15.4245 I0.2073 J-0.173
G2 X85.3207 Y15.0058 I-1.5555 J1.2887
G2 X84.7337 Y14.7456 I-1.1971 J1.9083
G3 X84.5824 Y14.3357 I0.0731 J-0.2599
G1 X85.9839 Y12.2382
G1 X85.7209
G1 X84.2638 Y14.4499
G3 X84.0383 Y14.5714 I-0.2255 J-0.1485
G1 X82.9568
G1 F300.0 Y14.4514
G1 F800.0 X82.9286
G3 X82.7824 Y14.335 I0.0 J-0.15
G1 X82.272 Y12.1182
G1 X81.7956
G1 X83.0715 Y17.657
G1 X84.544
G2 X84.9698 Y17.6437 I-0.0129 J-7.235
G2 X85.3824 Y17.5911 I-0.2092 J-3.2839
G3 X85.3825 I0.0283 J0.1473
G2 X85.9036 Y17.3675 I-0.2493 J-1.3004
G2 X86.2045 Y17.0292 I-0.6079 J-0.8437
G2 X86.2873 Y16.7967 I-0.7251 J-0.389
G2 X86.3117 Y16.5326 I-1.4099 J-0.2634
G3 Y16.5313 I0.15 J-0.0001
G2 X86.2073 Y15.9016 I-1.8574 J-0.0158
G2 X85.8897 Y15.3484 I-1.7296 J0.6255
G3 X85.8893 Y15.348 I0.1152 J-0.0961
G2 X85.3846 Y14.9042 I-1.6479 J1.3653
G2 X84.7662 Y14.6301 I-1.261 J2.0098
G3 X84.6822 Y14.4023 I0.0406 J-0.1444
G1 X86.2085 Y12.1182
G1 X85.6562
G1 X84.1636 Y14.3839
G3 X84.0383 Y14.4514 I-0.1253 J-0.0825
G1 X82.9568
G0 Z3.0
G0 X79.5378 Y17.1674
G0 Z1.0
G1 F300.0 Z-0.5
G3 F800.0 X79.4273 Y17.417 I-0.3893 J-0.0231
G1 X79.6539
G3 X79.5527 Y17.2321 I0.2788 J-0.2727
G1 X79.5378 Y17.1674
G1 F300.0 X79.418 Y17.1603
G3 F800.0 X79.1485 Y17.4143 I-0.2695 J-0.016
G1 X77.4037
G1 X77.4313 Y17.537
G1 X81.8265
G1 X81.7989 Y17.4143
G1 X79.9327
G3 X79.6696 Y17.2051 I0.0 J-0.27
G1 X78.522 Y12.2382
G1 X78.292
G1 X79.4115 Y17.0835
G3 X79.418 Y17.1603 I-0.2631 J0.0608
G1 F300.0 X79.2982 Y17.1532
G3 F800.0 X79.1485 Y17.2943 I-0.1497 J-0.0089
G1 X77.2537
G1 X77.3353 Y17.657
G1 X81.9765
G1 X81.8949 Y17.2943
G1 X79.9327
G3 X79.7866 Y17.1781 I0.0 J-0.15
G1 X78.6174 Y12.1182
G1 X78.1411
G1 X79.2946 Y17.1105
G3 X79.2982 Y17.1532 I-0.1461 J0.0338
G0 Z3.0
G0 X79.5378 Y17.1674
G0 Z0.5
G1 F300.0 Z-1.0
G3 F800.0 X79.4273 Y17.417 I-0.3893 J-0.0231
G1 X79.6539
G3 X79.5527 Y17.2321 I0.2788 J-0.2727
G1 X79.5378 Y17.1674
G1 F300.0 X79.418 Y17.1603
G3 F800.0 X79.1485 Y17.4143 I-0.2695 J-0.016
G1 X77.4037
G1 X77.4313 Y17.537
G1 X81.8265
G1 X81.7989 Y17.4143
G1 X79.9327
G3 X79.6696 Y17.2051 I0.0 J-0.27
G1 X78.522 Y12.2382
G1 X78.292
G1 X79.4115 Y17.0835
G3 X79.418 Y17.1603 I-0.2631 J0.0608
G1 F300.0 X79.2982 Y17.1532
G3 F800.0 X79.1485 Y17.2943 I-0.1497 J-0.0089
G1 X77.2537
G1 X77.3353 Y17.657
G1 X81.9765
G1 X81.8949 Y17.2943
G1 X79.9327
G3 X79.7866 Y17.1781 I0.0 J-0.15
G1 X78.6174 Y12.1182
G1 X78.1411
G1 X79.2946 Y17.1105
G3 X79.2982 Y17.1532 I-0.1461 J0.0338
G0 Z3.0
G0 X75.3507 Y14.2386
G0 Z1.0
G1 F300.0 Z-0.5
G2 F800.0 X75.3708 Y14.2004 I-0.4817 J-0.2787
G3 X75.3507 Y14.2386 I-0.9391 J-0.4713
G1 F300.0 X75.4026 Y14.2686
G2 F800.0 X75.4473 Y14.1734 I-0.5336 J-0.3087
G2 X75.4921 Y13.9034 I-0.7219 J-0.2584
G3 X75.492 Y13.9011 I0.39 J-0.0059
G2 X75.4155 Y13.47 I-1.3221 J0.0123
G3 X75.429 Y13.6798 I-1.3505 J0.1918
G3 X75.3729 Y14.0384 I-1.1524 J0.0036
G3 X75.372 Y14.0411 I-0.371 J-0.1202
G3 X75.1713 Y14.3883 I-0.9404 J-0.312
G3 X75.1698 Y14.39 I-0.2911 J-0.2595
G3 X74.8507 Y14.6396 I-0.8721 J-0.7864
G3 X74.8483 Y14.6408 I-0.1837 J-0.344
G3 X74.5762 Y14.7544 I-0.7805 J-1.4865
G2 X74.6519 Y14.7353 I-3.1301 J-12.5437
G3 X74.6611 Y14.7327 I0.1115 J0.3737
G2 X75.0334 Y14.5902 I-0.5232 J-1.9243
G3 X75.0346 Y14.5896 I0.1751 J0.3485
G2 X75.314 Y14.3866 I-0.465 J-0.9337
G2 X75.4026 Y14.2686 I-0.445 J-0.4267
G0 Z3.0
G0 X73.4258 Y15.0056
G0 Z1.0
G1 F300.0 Z-0.5
G1 F800.0 X73.3892 Y15.0134
G3 X73.3841 Y15.0145 I-0.0816 J-0.3814
G2 X73.2375 Y15.0479 I0.5664 J2.8287
G3 X73.2235 Y15.0512 I-0.0964 J-0.3779
G2 X72.793 Y15.1936 I0.4492 J2.0783
G3 X72.7924 Y15.1939 I-0.1613 J-0.3551
G2 X72.4601 Y15.4201 I0.4816 J1.0649
G2 X72.2408 Y15.9584 I0.5075 J0.5205
G3 X72.2409 Y15.9725 I-0.3899 J0.0095
G2 X72.3225 Y16.4351 I1.2673 J0.015
G3 X72.2962 Y16.165 I1.2895 J-0.2621
G3 X72.532 Y15.4687 I1.1095 J-0.0123
G3 X72.5384 Y15.4608 I0.3071 J0.2404
G3 X72.9248 Y15.1648 I0.8344 J0.6889
G3 X73.2937 Y15.0356 I0.8118 J1.7281
G3 X73.2978 Y15.0347 I0.0905 J0.3794
G1 X73.4258 Y15.0056
G0 Z3.0
G0 X71.6923 Y12.511
G0 Z1.0
G1 F300.0 Z-0.5
G2 F800.0 X71.5362 Y12.5725 I1.4523 J3.9159
G1 X71.541 Y12.5954
G3 X71.5697 Y12.5785 I1.4093 J2.357
G3 X71.5701 Y12.5783 I0.1961 J0.3371
G3 X71.6923 Y12.511 I1.5846 J2.7319
G1 F300.0 X71.6505 Y12.3985
G2 F800.0 X71.3985 Y12.5012 I1.494 J4.0284
G1 X71.4596 Y12.7904
G3 X71.63 Y12.6823 I1.4907 J2.1621
G3 X71.6303 Y12.6821 I0.1357 J0.2334
G3 X72.1688 Y12.4364 I1.5244 J2.6281
G3 X72.7263 Y12.287 I1.3139 J3.7886
G3 X72.7281 Y12.2867 I0.0509 J0.2652
G3 X73.3115 Y12.2315 I0.602 J3.2512
G3 X74.0349 Y12.3028 I0.0331 J3.3692
G3 X74.0399 Y12.3039 I-0.0553 J0.2643
G3 X74.4012 Y12.417 I-0.5421 J2.3657
G3 X74.4041 Y12.4182 I-0.1005 J0.2506
G3 X74.7538 Y12.6153 I-0.6398 J1.5437
G3 X74.7562 Y12.6171 I-0.1599 J0.2176
G3 X74.9752 Y12.8137 I-1.021 J1.3576
G3 X74.9758 Y12.8143 I-0.1971 J0.1845
G3 X75.309 Y13.6792 I-0.9107 J0.8475
G3 X75.2587 Y14.0015 I-1.0324 J0.0042
G3 X75.2581 Y14.0033 I-0.2569 J-0.0832
G3 X75.0817 Y14.3085 I-0.8265 J-0.2742
G3 X75.0807 Y14.3096 I-0.2015 J-0.1797
G3 X74.7941 Y14.5337 I-0.783 J-0.7061
G3 X74.7925 Y14.5346 I-0.1271 J-0.2382
G3 X74.4883 Y14.6555 I-0.7247 J-1.3802
G3 X74.4854 Y14.6563 I-0.0728 J-0.26
G1 X74.4104 Y14.6763
G3 X74.1297 Y14.7425 I-1.1984 J-4.4608
G3 X74.1286 Y14.7427 I-0.0536 J-0.2646
G1 X73.8622 Y14.7956
G3 X73.8557 Y14.7968 I-0.0526 J-0.2648
G2 X73.5322 Y14.8601 I1.2878 J7.4383
G3 X73.531 Y14.8604 I-0.0576 J-0.2638
G1 X73.3641 Y14.8961
G3 X73.3606 Y14.8968 I-0.0565 J-0.264
G2 X73.2078 Y14.9316 I0.59 J2.9464
G3 X73.1981 Y14.9339 I-0.0667 J-0.2616
G2 X72.7434 Y15.0844 I0.4746 J2.1956
G3 X72.743 Y15.0846 I-0.1117 J-0.2458
G2 X72.3764 Y15.3341 I0.531 J1.1742
G2 X72.1209 Y15.9613 I0.5912 J0.6066
G3 Y15.9711 I-0.2699 J0.0066
G2 X72.2757 Y16.6245 I1.3873 J0.0164
G2 X72.4665 Y16.9019 I1.2252 J-0.6386
G2 X72.7252 Y17.1455 I1.5452 J-1.3819
G2 X73.497 Y17.53 I1.3479 J-1.7384
G3 X73.5013 Y17.5312 I-0.0707 J0.2606
G2 X73.7122 Y17.5812 I0.6168 J-2.1309
G3 X73.7127 Y17.5813 I-0.0494 J0.2654
G2 X74.387 Y17.6429 I0.6604 J-3.5117
G3 X74.3874 I0.0011 J0.27
G2 X74.92 Y17.6151 I-0.012 J-5.3551
G2 X75.4322 Y17.524 I-0.3829 J-3.6369
G1 X75.5378 Y17.4961
G1 X75.724 Y17.4418
G2 X76.0507 Y17.3256 I-1.2298 J-3.9735
G1 X75.9988 Y17.08
G3 X75.8771 Y17.148 I-1.0773 J-1.7871
G3 X75.4255 Y17.3438 I-1.655 J-3.1985
G3 X74.2491 Y17.5437 I-1.1546 J-3.2326
G3 X74.2482 I0.0017 J-0.27
G3 X73.9269 Y17.5275 I0.0376 J-3.9378
G3 X73.9246 Y17.5272 I0.0246 J-0.2689
G3 X73.4273 Y17.4219 I0.2343 J-2.3318
G3 X73.4261 Y17.4215 I0.0843 J-0.2565
G3 X72.9543 Y17.1794 I0.5544 J-1.6614
G3 X72.5646 Y16.75 I0.7845 J-1.1035
G3 X72.5616 Y16.7446 I0.2342 J-0.1344
G3 X72.4162 Y16.1647 I1.0504 J-0.5716
G3 X72.6265 Y15.5426 I0.9895 J-0.012
G3 X72.6309 Y15.5372 I0.2126 J0.1665
G3 X72.9751 Y15.2737 I0.7419 J0.6125
G3 X73.3215 Y15.1524 I0.7615 J1.6192
G3 X73.3243 Y15.1517 I0.0626 J0.2626
G1 X73.4906 Y15.114
G3 X73.4936 Y15.1133 I0.0598 J0.2633
G1 X73.7424 Y15.0598
G3 X73.9995 Y15.0068 I1.6013 J7.1185
G2 X74.6818 Y14.8515 I-2.5534 J-12.7961
G3 X74.684 Y14.851 I0.067 J0.2616
G3 X74.6926 Y14.8485 I0.0795 J0.258
G2 X75.0872 Y14.6974 I-0.5546 J-2.04
G3 X75.0881 Y14.697 I0.1212 J0.2413
G2 X75.4001 Y14.4701 I-0.5185 J-1.0411
G2 X75.5601 Y14.2144 I-0.5311 J-0.5102
G2 X75.6121 Y13.9016 I-0.8347 J-0.2994
G3 X75.612 Y13.9 I0.27 J-0.0041
G2 X75.4535 Y13.2559 I-1.442 J0.0134
G3 X75.4517 Y13.2524 I0.2403 J-0.1231
G2 X75.0007 Y12.6935 I-1.4739 J0.7281
G2 X74.2387 Y12.2834 I-1.5411 J1.9505
G3 X74.237 Y12.2828 I0.0846 J-0.2564
G2 X73.7267 Y12.1665 I-0.8279 J2.4538
G1 X73.5861 Y12.1505
G2 X73.1822 Y12.1323 I-0.3761 J3.8634
G3 X73.1793 I-0.0019 J-0.27
G2 X72.1589 Y12.245 I-0.0167 J4.5265
G2 X71.6505 Y12.3985 I0.9857 J4.1819
G1 F300.0 X71.6088 Y12.286
G2 F800.0 X71.2612 Y12.4321 I1.5358 J4.1409
G1 X71.381 Y12.9985
G3 X71.6903 Y12.786 I1.5694 J1.954
G3 X71.6905 Y12.7859 I0.0754 J0.1297
G3 X72.2079 Y12.5499 I1.4642 J2.5243
G3 X72.7489 Y12.4049 I1.2748 J3.6752
G3 X72.7499 Y12.4047 I0.0283 J0.1473
G3 X73.3124 Y12.3515 I0.5801 J3.1332
G3 X74.0103 Y12.4203 I0.0322 J3.2492
G3 X74.0131 Y12.4209 I-0.0307 J0.1468
G3 X74.3566 Y12.5284 I-0.5153 J2.2488
G3 X74.3582 Y12.529 I-0.0558 J0.1392
G3 X74.6827 Y12.712 I-0.5939 J1.4329
G3 X74.684 Y12.713 I-0.0888 J0.1209
G3 X74.8876 Y12.8957 I-0.9489 J1.2617
G3 X74.8879 Y12.896 I-0.1095 J0.1025
G3 X75.189 Y13.6786 I-0.8229 J0.7658
G3 X75.1446 Y13.9645 I-0.9124 J0.0048
G3 X75.1442 Y13.9655 I-0.1427 J-0.0462
G3 X74.9921 Y14.2286 I-0.7126 J-0.2365
G3 X74.9915 Y14.2293 I-0.112 J-0.0998
G3 X74.7376 Y14.4278 I-0.6939 J-0.6257
G3 X74.7367 Y14.4283 I-0.0706 J-0.1323
G3 X74.4559 Y14.5399 I-0.6689 J-1.274
G3 X74.4543 Y14.5404 I-0.0405 J-0.1444
G1 X74.3793 Y14.5604
G3 X74.1058 Y14.6248 I-1.1673 J-4.3449
G3 X74.1052 Y14.625 I-0.0298 J-0.147
G1 X73.8389 Y14.6779
G3 X73.8352 Y14.6786 I-0.0292 J-0.1471
G2 X73.5065 Y14.7429 I1.3083 J7.5565
G3 X73.5059 Y14.743 I-0.032 J-0.1465
G1 X73.339 Y14.7788
G3 X73.337 Y14.7792 I-0.0314 J-0.1467
G2 X73.1781 Y14.8153 I0.6135 J3.064
G3 X73.1727 Y14.8166 I-0.0371 J-0.1453
G2 X72.6938 Y14.9751 I0.5 J2.3129
G3 X72.6935 Y14.9753 I-0.0621 J-0.1366
G2 X72.2928 Y15.248 I0.5805 J1.2835
G2 X72.0009 Y15.9642 I0.6749 J0.6926
G3 Y15.9697 I-0.15 J0.0037
G2 X72.1692 Y16.6798 I1.5073 J0.0178
G2 X72.3769 Y16.9816 I1.3317 J-0.6938
G2 X72.6512 Y17.2399 I1.6348 J-1.4617
G2 X73.4656 Y17.6458 I1.4219 J-1.8329
G3 X73.468 Y17.6465 I-0.0393 J0.1448
G2 X73.6902 Y17.6992 I0.6502 J-2.2461
G3 X73.6905 Y17.6993 I-0.0275 J0.1475
G2 X74.3874 Y17.7629 I0.6826 J-3.6296
G3 X74.3877 I0.0006 J0.15
G2 X74.9324 Y17.7345 I-0.0122 J-5.4751
G2 X75.4622 Y17.6402 I-0.3952 J-3.7563
G1 X75.5699 Y17.6117
G1 X75.7586 Y17.5567
G2 X76.1886 Y17.398 I-1.2643 J-4.0884
G1 X76.0797 Y16.8824
G3 X75.822 Y17.0414 I-1.1582 J-1.5895
G3 X75.3853 Y17.2307 I-1.5999 J-3.0919
G3 X74.2498 Y17.4237 I-1.1143 J-3.1196
G3 X74.2493 I0.001 J-0.15
G3 X73.9379 Y17.408 I0.0365 J-3.8178
G3 X73.9366 Y17.4078 I0.0137 J-0.1494
G3 X73.4648 Y17.3079 I0.2223 J-2.2124
G3 X73.4641 Y17.3077 I0.0468 J-0.1425
G3 X73.0242 Y17.0819 I0.5164 J-1.5476
G3 X72.6687 Y16.6902 I0.7146 J-1.006
G3 X72.667 Y16.6873 I0.1301 J-0.0747
G3 X72.5362 Y16.1644 I0.945 J-0.5143
G3 X72.721 Y15.6166 I0.8695 J-0.0117
G3 X72.7234 Y15.6136 I0.1181 J0.0925
G3 X73.0255 Y15.3826 I0.6493 J0.5361
G3 X73.3494 Y15.2691 I0.7112 J1.5102
G3 X73.3509 Y15.2687 I0.0348 J0.1459
G1 X73.5172 Y15.231
G3 X73.5189 Y15.2306 I0.0332 J0.1463
G1 X73.7682 Y15.177
G3 X74.0223 Y15.1246 I1.5755 J7.0013
G2 X74.7116 Y14.9678 I-2.5762 J-12.9139
G3 X74.7161 Y14.9667 I0.0372 J0.1453
G3 X74.7241 Y14.9643 I0.0474 J0.1423
G2 X75.1411 Y14.8046 I-0.5861 J-2.1558
G3 X75.1416 Y14.8044 I0.0674 J0.134
G2 X75.4862 Y14.5537 I-0.572 J-1.1485
G2 X75.6729 Y14.2554 I-0.6172 J-0.5938
G2 X75.732 Y13.8997 I-0.9474 J-0.3404
G3 Y13.8989 I0.15 J-0.0023
G2 X75.5603 Y13.2012 I-1.562 J0.0145
G3 X75.5593 Y13.1993 I0.1335 J-0.0684
G2 X75.0752 Y12.5995 I-1.5815 J0.7812
G2 X74.2763 Y12.1695 I-1.6156 J2.0445
G3 X74.2754 Y12.1691 I0.047 J-0.1424
G2 X73.7408 Y12.0473 I-0.8663 J2.5675
G1 X73.5987 Y12.0311
G2 X73.1813 Y12.0123 I-0.3887 J3.9828
G3 X73.1797 I-0.0011 J-0.15
G2 X72.1318 Y12.1281 I-0.0171 J4.6465
G2 X71.6088 Y12.286 I1.0127 J4.2989
G0 Z3.0
G0 X71.6923 Y12.511
G0 Z0.5
G1 F300.0 Z-1.0
G2 F800.0 X71.5362 Y12.5725 I1.4523 J3.9159
G1 X71.541 Y12.5954
G3 X71.5697 Y12.5785 I1.4093 J2.357
G3 X71.5701 Y12.5783 I0.1961 J0.3371
G3 X71.6923 Y12.511 I1.5846 J2.7319
G0 Z3.0
G0 X72.8347 Y15.1752
G0 Z0.5
G1 F300.0 Z-1.0
G2 F800.0 X72.793 Y15.1936 I0.838 J1.9542
G3 X72.7924 Y15.1939 I-0.1613 J-0.3551
G2 X72.4601 Y15.4201 I0.4816 J1.0649
G2 X72.2408 Y15.9584 I0.5075 J0.5205
G3 X72.2409 Y15.9725 I-0.3899 J0.0095
G2 X72.3225 Y16.4351 I1.2673 J0.015
G3 X72.2962 Y16.165 I1.2895 J-0.2621
G3 X72.532 Y15.4687 I1.1095 J-0.0123
G3 X72.5384 Y15.4608 I0.3071 J0.2404
G3 X72.9248 Y15.1648 I0.8344 J0.6889
G3 X73.2937 Y15.0356 I0.8118 J1.7281
G3 X73.2978 Y15.0347 I0.0905 J0.3794
G1 X73.4258 Y15.0056
G1 X73.3892 Y15.0134
G3 X73.3841 Y15.0145 I-0.0816 J-0.3814
G2 X73.2375 Y15.0479 I0.5664 J2.8287
G3 X73.2235 Y15.0512 I-0.0964 J-0.3779
G2 X72.8347 Y15.1752 I0.4492 J2.0783
G0 Z3.0
G0 X75.3507 Y14.2386
G0 Z0.5
G1 F300.0 Z-1.0
G2 F800.0 X75.3708 Y14.2004 I-0.4817 J-0.2787
G3 X75.3507 Y14.2386 I-0.9391 J-0.4713
G1 F300.0 X75.4026 Y14.2686
G2 F800.0 X75.4473 Y14.1734 I-0.5336 J-0.3087
G2 X75.4921 Y13.9034 I-0.7219 J-0.2584
G3 X75.492 Y13.9011 I0.39 J-0.0059
G2 X75.4155 Y13.47 I-1.3221 J0.0123
G3 X75.429 Y13.6798 I-1.3505 J0.1918
G3 X75.3729 Y14.0384 I-1.1524 J0.0036
G3 X75.372 Y14.0411 I-0.371 J-0.1202
G3 X75.1713 Y14.3883 I-0.9404 J-0.312
G3 X75.1698 Y14.39 I-0.2911 J-0.2595
G3 X74.8507 Y14.6396 I-0.8721 J-0.7864
G3 X74.8483 Y14.6408 I-0.1837 J-0.344
G3 X74.5762 Y14.7544 I-0.7805 J-1.4865
G2 X74.6519 Y14.7353 I-3.1301 J-12.5437
G3 X74.6611 Y14.7327 I0.1115 J0.3737
G2 X75.0334 Y14.5902 I-0.5232 J-1.9243
G3 X75.0346 Y14.5896 I0.1751 J0.3485
G2 X75.314 Y14.3866 I-0.465 J-0.9337
G2 X75.4026 Y14.2686 I-0.445 J-0.4267
G1 F300.0 X75.5065 Y14.3287
G2 F800.0 X75.5601 Y14.2144 I-0.6375 J-0.3688
G2 X75.6121 Y13.9016 I-0.8347 J-0.2994
G3 X75.612 Y13.9 I0.27 J-0.0041
G2 X75.4535 Y13.2559 I-1.442 J0.0134
G3 X75.4517 Y13.2524 I0.2403 J-0.1231
G2 X75.0007 Y12.6935 I-1.4739 J0.7281
G2 X74.2387 Y12.2834 I-1.5411 J1.9505
G3 X74.237 Y12.2828 I0.0846 J-0.2564
G2 X73.7267 Y12.1665 I-0.8279 J2.4538
G1 X73.5861 Y12.1505
G2 X73.1822 Y12.1323 I-0.3761 J3.8634
G3 X73.1793 I-0.0019 J-0.27
G2 X72.1589 Y12.245 I-0.0167 J4.5265
G2 X71.3985 Y12.5012 I0.9857 J4.1819
G1 X71.4596 Y12.7904
G3 X71.63 Y12.6823 I1.4907 J2.1621
G3 X71.6303 Y12.6821 I0.1357 J0.2334
G3 X72.1688 Y12.4364 I1.5244 J2.6281
G3 X72.7263 Y12.287 I1.3139 J3.7886
G3 X72.7281 Y12.2867 I0.0509 J0.2652
G3 X73.3115 Y12.2315 I0.602 J3.2512
G3 X74.0349 Y12.3028 I0.0331 J3.3692
G3 X74.0399 Y12.3039 I-0.0553 J0.2643
G3 X74.4012 Y12.417 I-0.5421 J2.3657
G3 X74.4041 Y12.4182 I-0.1005 J0.2506
G3 X74.7538 Y12.6153 I-0.6398 J1.5437
G3 X74.7562 Y12.6171 I-0.1599 J0.2176
G3 X74.9752 Y12.8137 I-1.021 J1.3576
G3 X74.9758 Y12.8143 I-0.1971 J0.1845
G3 X75.309 Y13.6792 I-0.9107 J0.8475
G3 X75.2587 Y14.0015 I-1.0324 J0.0042
G3 X75.2581 Y14.0033 I-0.2569 J-0.0832
G3 X75.0817 Y14.3085 I-0.8265 J-0.2742
G3 X75.0807 Y14.3096 I-0.2015 J-0.1797
G3 X74.7941 Y14.5337 I-0.783 J-0.7061
G3 X74.7925 Y14.5346 I-0.1271 J-0.2382
G3 X74.4883 Y14.6555 I-0.7247 J-1.3802
G3 X74.4854 Y14.6563 I-0.0728 J-0.26
G1 X74.4104 Y14.6763
G3 X74.1297 Y14.7425 I-1.1984 J-4.4608
G3 X74.1286 Y14.7427 I-0.0536 J-0.2646
G1 X73.8622 Y14.7956
G3 X73.8557 Y14.7968 I-0.0526 J-0.2648
G2 X73.5322 Y14.8601 I1.2878 J7.4383
G3 X73.531 Y14.8604 I-0.0576 J-0.2638
G1 X73.3641 Y14.8961
G3 X73.3606 Y14.8968 I-0.0565 J-0.264
G2 X73.2078 Y14.9316 I0.59 J2.9464
G3 X73.1981 Y14.9339 I-0.0667 J-0.2616
G2 X72.7434 Y15.0844 I0.4746 J2.1956
G3 X72.743 Y15.0846 I-0.1117 J-0.2458
G2 X72.3764 Y15.3341 I0.531 J1.1742
G2 X72.1209 Y15.9613 I0.5912 J0.6066
G3 Y15.9711 I-0.2699 J0.0066
G2 X72.2757 Y16.6245 I1.3873 J0.0164
G2 X72.4665 Y16.9019 I1.2252 J-0.6386
G2 X72.7252 Y17.1455 I1.5452 J-1.3819
G2 X73.497 Y17.53 I1.3479 J-1.7384
G3 X73.5013 Y17.5312 I-0.0707 J0.2606
G2 X73.7122 Y17.5812 I0.6168 J-2.1309
G3 X73.7127 Y17.5813 I-0.0494 J0.2654
G2 X74.387 Y17.6429 I0.6604 J-3.5117
G3 X74.3874 I0.0011 J0.27
G2 X74.92 Y17.6151 I-0.012 J-5.3551
G2 X75.4322 Y17.524 I-0.3829 J-3.6369
G1 X75.5378 Y17.4961
G1 X75.724 Y17.4418
G2 X76.0507 Y17.3256 I-1.2298 J-3.9735
G1 X75.9988 Y17.08
G3 X75.8771 Y17.148 I-1.0773 J-1.7871
G3 X75.4255 Y17.3438 I-1.655 J-3.1985
G3 X74.2491 Y17.5437 I-1.1546 J-3.2326
G3 X74.2482 I0.0017 J-0.27
G3 X73.9269 Y17.5275 I0.0376 J-3.9378
G3 X73.9246 Y17.5272 I0.0246 J-0.2689
G3 X73.4273 Y17.4219 I0.2343 J-2.3318
G3 X73.4261 Y17.4215 I0.0843 J-0.2565
G3 X72.9543 Y17.1794 I0.5544 J-1.6614
G3 X72.5646 Y16.75 I0.7845 J-1.1035
G3 X72.5616 Y16.7446 I0.2342 J-0.1344
G3 X72.4162 Y16.1647 I1.0504 J-0.5716
G3 X72.6265 Y15.5426 I0.9895 J-0.012
G3 X72.6309 Y15.5372 I0.2126 J0.1665
G3 X72.9751 Y15.2737 I0.7419 J0.6125
G3 X73.3215 Y15.1524 I0.7615 J1.6192
G3 X73.3243 Y15.1517 I0.0626 J0.2626
G1 X73.4906 Y15.114
G3 X73.4936 Y15.1133 I0.0598 J0.2633
G1 X73.7424 Y15.0598
G3 X73.9995 Y15.0068 I1.6013 J7.1185
G2 X74.6818 Y14.8515 I-2.5534 J-12.7961
G3 X74.684 Y14.851 I0.067 J0.2616
G3 X74.6926 Y14.8485 I0.0795 J0.258
G2 X75.0872 Y14.6974 I-0.5546 J-2.04
G3 X75.0881 Y14.697 I0.1212 J0.2413
G2 X75.4001 Y14.4701 I-0.5185 J-1.0411
G2 X75.5065 Y14.3287 I-0.5311 J-0.5102
G1 F300.0 X75.6103 Y14.3888
G2 F800.0 X75.6729 Y14.2554 I-0.7414 J-0.4289
G2 X75.732 Y13.8997 I-0.9474 J-0.3404
G3 Y13.8989 I0.15 J-0.0023
G2 X75.5603 Y13.2012 I-1.562 J0.0145
G3 X75.5593 Y13.1993 I0.1335 J-0.0684
G2 X75.0752 Y12.5995 I-1.5815 J0.7812
G2 X74.2763 Y12.1695 I-1.6156 J2.0445
G3 X74.2754 Y12.1691 I0.047 J-0.1424
G2 X73.7408 Y12.0473 I-0.8663 J2.5675
G1 X73.5987 Y12.0311
G2 X73.1813 Y12.0123 I-0.3887 J3.9828
G3 X73.1797 I-0.0011 J-0.15
G2 X72.1318 Y12.1281 I-0.0171 J4.6465
G2 X71.2612 Y12.4321 I1.0127 J4.2989
G1 X71.381 Y12.9985
G3 X71.6903 Y12.786 I1.5694 J1.954
G3 X71.6905 Y12.7859 I0.0754 J0.1297
G3 X72.2079 Y12.5499 I1.4642 J2.5243
G3 X72.7489 Y12.4049 I1.2748 J3.6752
G3 X72.7499 Y12.4047 I0.0283 J0.1473
G3 X73.3124 Y12.3515 I0.5801 J3.1332
G3 X74.0103 Y12.4203 I0.0322 J3.2492
G3 X74.0131 Y12.4209 I-0.0307 J0.1468
G3 X74.3566 Y12.5284 I-0.5153 J2.2488
G3 X74.3582 Y12.529 I-0.0558 J0.1392
G3 X74.6827 Y12.712 I-0.5939 J1.4329
G3 X74.684 Y12.713 I-0.0888 J0.1209
G3 X74.8876 Y12.8957 I-0.9489 J1.2617
G3 X74.8879 Y12.896 I-0.1095 J0.1025
G3 X75.189 Y13.6786 I-0.8229 J0.7658
G3 X75.1446 Y13.9645 I-0.9124 J0.0048
G3 X75.1442 Y13.9655 I-0.1427 J-0.0462
G3 X74.9921 Y14.2286 I-0.7126 J-0.2365
G3 X74.9915 Y14.2293 I-0.112 J-0.0998
G3 X74.7376 Y14.4278 I-0.6939 J-0.6257
G3 X74.7367 Y14.4283 I-0.0706 J-0.1323
G3 X74.4559 Y14.5399 I-0.6689 J-1.274
G3 X74.4543 Y14.5404 I-0.0405 J-0.1444
G1 X74.3793 Y14.5604
G3 X74.1058 Y14.6248 I-1.1673 J-4.3449
G3 X74.1052 Y14.625 I-0.0298 J-0.147
G1 X73.8389 Y14.6779
G3 X73.8352 Y14.6786 I-0.0292 J-0.1471
G2 X73.5065 Y14.7429 I1.3083 J7.5565
G3 X73.5059 Y14.743 I-0.032 J-0.1465
G1 X73.339 Y14.7788
G3 X73.337 Y14.7792 I-0.0314 J-0.1467
G2 X73.1781 Y14.8153 I0.6135 J3.064
G3 X73.1727 Y14.8166 I-0.0371 J-0.1453
G2 X72.6938 Y14.9751 I0.5 J2.3129
G3 X72.6935 Y14.9753 I-0.0621 J-0.1366
G2 X72.2928 Y15.248 I0.5805 J1.2835
G2 X72.0009 Y15.9642 I0.6749 J0.6926
G3 Y15.9697 I-0.15 J0.0037
G2 X72.1692 Y16.6798 I1.5073 J0.0178
G2 X72.3769 Y16.9816 I1.3317 J-0.6938
G2 X72.6512 Y17.2399 I1.6348 J-1.4617
G2 X73.4656 Y17.6458 I1.4219 J-1.8329
G3 X73.468 Y17.6465 I-0.0393 J0.1448
G2 X73.6902 Y17.6992 I0.6502 J-2.2461
G3 X73.6905 Y17.6993 I-0.0275 J0.1475
G2 X74.3874 Y17.7629 I0.6826 J-3.6296
G3 X74.3877 I0.0006 J0.15
G2 X74.9324 Y17.7345 I-0.0122 J-5.4751
G2 X75.4622 Y17.6402 I-0.3952 J-3.7563
G1 X75.5699 Y17.6117
G1 X75.7586 Y17.5567
G2 X76.1886 Y17.398 I-1.2643 J-4.0884
G1 X76.0797 Y16.8824
G3 X75.822 Y17.0414 I-1.1582 J-1.5895
G3 X75.3853 Y17.2307 I-1.5999 J-3.0919
G3 X74.2498 Y17.4237 I-1.1143 J-3.1196
G3 X74.2493 I0.001 J-0.15
G3 X73.9379 Y17.408 I0.0365 J-3.8178
G3 X73.9366 Y17.4078 I0.0137 J-0.1494
G3 X73.4648 Y17.3079 I0.2223 J-2.2124
G3 X73.4641 Y17.3077 I0.0468 J-0.1425
G3 X73.0242 Y17.0819 I0.5164 J-1.5476
G3 X72.6687 Y16.6902 I0.7146 J-1.006
G3 X72.667 Y16.6873 I0.1301 J-0.0747
G3 X72.5362 Y16.1644 I0.945 J-0.5143
G3 X72.721 Y15.6166 I0.8695 J-0.0117
G3 X72.7234 Y15.6136 I0.1181 J0.0925
G3 X73.0255 Y15.3826 I0.6493 J0.5361
G3 X73.3494 Y15.2691 I0.7112 J1.5102
G3 X73.3509 Y15.2687 I0.0348 J0.1459
G1 X73.5172 Y15.231
G3 X73.5189 Y15.2306 I0.0332 J0.1463
G1 X73.7682 Y15.177
G3 X74.0223 Y15.1246 I1.5755 J7.0013
G2 X74.7116 Y14.9678 I-2.5762 J-12.9139
G3 X74.7161 Y14.9667 I0.0372 J0.1453
G3 X74.7241 Y14.9643 I0.0474 J0.1423
G2 X75.1411 Y14.8046 I-0.5861 J-2.1558
G3 X75.1416 Y14.8044 I0.0674 J0.134
G2 X75.4862 Y14.5537 I-0.572 J-1.1485
G2 X75.6103 Y14.3888 I-0.6172 J-0.5938
G0 Z3.0
G0 X66.3894 Y12.4983
G0 Z1.0
G1 F300.0 Z-0.5
G2 F800.0 X66.3254 Y12.5509 I0.609 J0.8048
G2 X66.0809 Y12.9184 I0.6349 J0.6877
G2 X66.0022 Y13.406 I1.3519 J0.4684
G3 Y13.412 I-0.39 J0.0052
G2 X66.0306 Y13.8081 I2.7013 J0.0053
G1 X66.0333 Y13.8236
G1 X66.023 Y13.7311
G3 X66.0183 Y13.6777 I0.5353 J-0.074
G1 X66.0135 Y13.6067
G3 X66.0127 Y13.5911 I0.3891 J-0.0266
G1 X66.0105 Y13.5124
G3 X66.0104 Y13.5079 I0.3898 J-0.011
G3 X66.0948 Y12.9667 I1.6066 J-0.0268
G3 X66.0959 Y12.9633 I0.3695 J0.1249
G3 X66.3894 Y12.4983 I1.1493 J0.4001
G1 F300.0 X66.4738 Y12.5836
G3 F800.0 X66.5146 Y12.5452 I0.7715 J0.7799
G3 X66.5196 Y12.5408 I0.1798 J0.2014
G3 X67.0478 Y12.2748 I0.813 J0.9567
G3 X67.5744 Y12.2158 I0.4947 J2.0366
G3 X67.9905 Y12.2483 I0.0099 J2.5532
G3 X68.4105 Y12.3646 I-0.3102 J1.9368
G3 X68.4119 Y12.3652 I-0.1005 J0.2506
G3 X69.0635 Y12.8227 I-0.6725 J1.6506
G3 X69.0661 Y12.8256 I-0.2006 J0.1807
G3 X69.4501 Y13.4359 I-1.732 J1.5159
G3 X69.5248 Y13.6259 I-2.7661 J1.196
G3 X69.6872 Y14.1954 I-4.3505 J1.5486
G1 X70.458 Y17.537
G1 X70.6879
G1 X69.9566 Y14.3739
G3 Y14.3736 I0.2631 J-0.0608
G2 X69.803 Y13.8299 I-5.5783 J1.2821
G3 X69.8029 Y13.8297 I0.2559 J-0.0861
G2 X69.5902 Y13.3188 I-3.7135 J1.246
G2 X69.0373 Y12.6284 I-1.9052 J0.9592
G2 X68.3397 Y12.2438 I-1.4185 J1.7478
G2 X67.9039 Y12.1457 I-0.7021 J2.1034
G3 X67.9008 Y12.1453 I0.0324 J-0.268
G2 X67.4378 Y12.1166 I-0.436 J3.2872
G3 X67.4346 I-0.0022 J-0.27
G2 X67.0986 Y12.1334 I-0.0114 J3.1525
G3 X67.0967 Y12.1336 I-0.0278 J-0.2686
G2 X66.6245 Y12.2375 I0.1928 J2.0009
G2 X66.2447 Y12.4621 I0.374 J1.0656
G2 X65.9678 Y12.8783 I0.7156 J0.7765
G2 X65.8822 Y13.4076 I1.465 J0.5085
G3 Y13.4118 I-0.27 J0.0036
G2 X65.9121 Y13.8271 I2.8213 J0.0055
G1 X65.9496 Y14.0417
G1 X65.9936 Y14.2555
G1 X66.7523 Y17.537
G1 X66.9824
G1 X66.2438 Y14.3373
G3 X66.1617 Y13.8921 I3.4242 J-0.8617
G3 X66.1614 Y13.89 I0.2681 J-0.0318
G1 X66.1421 Y13.7162
G3 X66.1382 Y13.6714 I0.4162 J-0.0591
G1 X66.1332 Y13.5985
G3 X66.1327 Y13.5878 I0.2694 J-0.0184
G1 X66.1305 Y13.509
G3 X66.1304 Y13.5059 I0.2699 J-0.0076
G3 X66.2085 Y13.0051 I1.4866 J-0.0248
G3 X66.2093 Y13.0028 I0.2558 J0.0864
G3 X66.4738 Y12.5836 I1.036 J0.3607
G1 F300.0 X66.5582 Y12.6689
G3 F800.0 X66.5946 Y12.6347 I0.6871 J0.6946
G3 X66.5973 Y12.6323 I0.0999 J0.1119
G3 X67.0755 Y12.3915 I0.7353 J0.8653
G3 X67.5737 Y12.3358 I0.467 J1.9198
G3 X67.9715 Y12.3668 I0.0106 J2.4332
G3 X68.3659 Y12.476 I-0.2912 J1.8183
G3 X68.3666 Y12.4763 I-0.0558 J0.1392
G3 X68.9744 Y12.903 I-0.6272 J1.5395
G3 X68.9758 Y12.9046 I-0.1114 J0.1004
G3 X69.3399 Y13.4833 I-1.6417 J1.4368
G3 X69.4117 Y13.6661 I-2.6559 J1.1486
G3 X69.5701 Y14.2216 I-4.2374 J1.5084
G1 X70.3626 Y17.657
G1 X70.8388
G1 X70.0736 Y14.3469
G3 X70.0735 Y14.3467 I0.1461 J-0.0338
G2 X69.9167 Y13.7916 I-5.6953 J1.309
G3 Y13.7915 I0.1422 J-0.0478
G2 X69.6975 Y13.2649 I-3.8272 J1.2842
G2 X69.1132 Y12.5354 I-2.0124 J1.0131
G2 X68.3779 Y12.13 I-1.4943 J1.8408
G2 X67.9183 Y12.0266 I-0.7404 J2.2172
G3 X67.9166 Y12.0264 I0.018 J-0.1489
G2 X67.4368 Y11.9966 I-0.4518 J3.4061
G3 X67.435 I-0.0012 J-0.15
G2 X67.0863 Y12.014 I-0.0118 J3.2725
G3 X67.0852 Y12.0141 I-0.0154 J-0.1492
G2 X66.5847 Y12.1243 I0.2043 J2.1204
G2 X66.164 Y12.3733 I0.4137 J1.1788
G2 X65.8547 Y12.8381 I0.7963 J0.8653
G2 X65.7622 Y13.4092 I1.5781 J0.5487
G3 Y13.4115 I-0.15 J0.002
G2 X65.7936 Y13.8462 I2.9413 J0.0058
G1 X65.8317 Y14.0641
G1 X65.8764 Y14.2811
G1 X66.6569 Y17.657
G1 X67.1333
G1 X66.3604 Y14.3091
G3 X66.2808 Y13.8779 I3.3076 J-0.8335
G3 X66.2807 Y13.8768 I0.149 J-0.0177
G1 X66.2612 Y13.701
G3 X66.2581 Y13.6655 I0.2971 J-0.0439
G1 X66.2529 Y13.5904
G3 X66.2526 Y13.5844 I0.1497 J-0.0102
G1 X66.2504 Y13.5057
G3 Y13.5039 I0.1499 J-0.0042
G3 X66.3221 Y13.0435 I1.3666 J-0.0228
G3 X66.3226 Y13.0422 I0.1421 J0.048
G3 X66.5582 Y12.6689 I0.9227 J0.3212
G0 Z3.0
G0 X66.3894 Y12.4983
G0 Z0.5
G1 F300.0 Z-1.0
G2 F800.0 X66.3254 Y12.5509 I0.609 J0.8048
G2 X66.0809 Y12.9184 I0.6349 J0.6877
G2 X66.0022 Y13.406 I1.3519 J0.4684
G3 Y13.412 I-0.39 J0.0052
G2 X66.0306 Y13.8081 I2.7013 J0.0053
G1 X66.0333 Y13.8236
G1 X66.023 Y13.7311
G3 X66.0183 Y13.6777 I0.5353 J-0.074
G1 X66.0135 Y13.6067
G3 X66.0127 Y13.5911 I0.3891 J-0.0266
G1 X66.0105 Y13.5124
G3 X66.0104 Y13.5079 I0.3898 J-0.011
G3 X66.0948 Y12.9667 I1.6066 J-0.0268
G3 X66.0959 Y12.9633 I0.3695 J0.1249
G3 X66.3894 Y12.4983 I1.1493 J0.4001
G1 F300.0 X66.4738 Y12.5836
G3 F800.0 X66.5146 Y12.5452 I0.7715 J0.7799
G3 X66.5196 Y12.5408 I0.1798 J0.2014
G3 X67.0478 Y12.2748 I0.813 J0.9567
G3 X67.5744 Y12.2158 I0.4947 J2.0366
G3 X67.9905 Y12.2483 I0.0099 J2.5532
G3 X68.4105 Y12.3646 I-0.3102 J1.9368
G3 X68.4119 Y12.3652 I-0.1005 J0.2506
G3 X69.0635 Y12.8227 I-0.6725 J1.6506
G3 X69.0661 Y12.8256 I-0.2006 J0.1807
G3 X69.4501 Y13.4359 I-1.732 J1.5159
G3 X69.5248 Y13.6259 I-2.7661 J1.196
G3 X69.6872 Y14.1954 I-4.3505 J1.5486
G1 X70.458 Y17.537
G1 X70.6879
G1 X69.9566 Y14.3739
G3 Y14.3736 I0.2631 J-0.0608
G2 X69.803 Y13.8299 I-5.5783 J1.2821
G3 X69.8029 Y13.8297 I0.2559 J-0.0861
G2 X69.5902 Y13.3188 I-3.7135 J1.246
G2 X69.0373 Y12.6284 I-1.9052 J0.9592
G2 X68.3397 Y12.2438 I-1.4185 J1.7478
G2 X67.9039 Y12.1457 I-0.7021 J2.1034
G3 X67.9008 Y12.1453 I0.0324 J-0.268
G2 X67.4378 Y12.1166 I-0.436 J3.2872
G3 X67.4346 I-0.0022 J-0.27
G2 X67.0986 Y12.1334 I-0.0114 J3.1525
G3 X67.0967 Y12.1336 I-0.0278 J-0.2686
G2 X66.6245 Y12.2375 I0.1928 J2.0009
G2 X66.2447 Y12.4621 I0.374 J1.0656
G2 X65.9678 Y12.8783 I0.7156 J0.7765
G2 X65.8822 Y13.4076 I1.465 J0.5085
G3 Y13.4118 I-0.27 J0.0036
G2 X65.9121 Y13.8271 I2.8213 J0.0055
G1 X65.9496 Y14.0417
G1 X65.9936 Y14.2555
G1 X66.7523 Y17.537
G1 X66.9824
G1 X66.2438 Y14.3373
G3 X66.1617 Y13.8921 I3.4242 J-0.8617
G3 X66.1614 Y13.89 I0.2681 J-0.0318
G1 X66.1421 Y13.7162
G3 X66.1382 Y13.6714 I0.4162 J-0.0591
G1 X66.1332 Y13.5985
G3 X66.1327 Y13.5878 I0.2694 J-0.0184
G1 X66.1305 Y13.509
G3 X66.1304 Y13.5059 I0.2699 J-0.0076
G3 X66.2085 Y13.0051 I1.4866 J-0.0248
G3 X66.2093 Y13.0028 I0.2558 J0.0864
G3 X66.4738 Y12.5836 I1.036 J0.3607
G1 F300.0 X66.5582 Y12.6689
G3 F800.0 X66.5946 Y12.6347 I0.6871 J0.6946
G3 X66.5973 Y12.6323 I0.0999 J0.1119
G3 X67.0755 Y12.3915 I0.7353 J0.8653
G3 X67.5737 Y12.3358 I0.467 J1.9198
G3 X67.9715 Y12.3668 I0.0106 J2.4332
G3 X68.3659 Y12.476 I-0.2912 J1.8183
G3 X68.3666 Y12.4763 I-0.0558 J0.1392
G3 X68.9744 Y12.903 I-0.6272 J1.5395
G3 X68.9758 Y12.9046 I-0.1114 J0.1004
G3 X69.3399 Y13.4833 I-1.6417 J1.4368
G3 X69.4117 Y13.6661 I-2.6559 J1.1486
G3 X69.5701 Y14.2216 I-4.2374 J1.5084
G1 X70.3626 Y17.657
G1 X70.8388
G1 X70.0736 Y14.3469
G3 X70.0735 Y14.3467 I0.1461 J-0.0338
G2 X69.9167 Y13.7916 I-5.6953 J1.309
G3 Y13.7915 I0.1422 J-0.0478
G2 X69.6975 Y13.2649 I-3.8272 J1.2842
G2 X69.1132 Y12.5354 I-2.0124 J1.0131
G2 X68.3779 Y12.13 I-1.4943 J1.8408
G2 X67.9183 Y12.0266 I-0.7404 J2.2172
G3 X67.9166 Y12.0264 I0.018 J-0.1489
G2 X67.4368 Y11.9966 I-0.4518 J3.4061
G3 X67.435 I-0.0012 J-0.15
G2 X67.0863 Y12.014 I-0.0118 J3.2725
G3 X67.0852 Y12.0141 I-0.0154 J-0.1492
G2 X66.5847 Y12.1243 I0.2043 J2.1204
G2 X66.164 Y12.3733 I0.4137 J1.1788
G2 X65.8547 Y12.8381 I0.7963 J0.8653
G2 X65.7622 Y13.4092 I1.5781 J0.5487
G3 Y13.4115 I-0.15 J0.002
G2 X65.7936 Y13.8462 I2.9413 J0.0058
G1 X65.8317 Y14.0641
G1 X65.8764 Y14.2811
G1 X66.6569 Y17.657
G1 X67.1333
G1 X66.3604 Y14.3091
G3 X66.2808 Y13.8779 I3.3076 J-0.8335
G3 X66.2807 Y13.8768 I0.149 J-0.0177
G1 X66.2612 Y13.701
G3 X66.2581 Y13.6655 I0.2971 J-0.0439
G1 X66.2529 Y13.5904
G3 X66.2526 Y13.5844 I0.1497 J-0.0102
G1 X66.2504 Y13.5057
G3 Y13.5039 I0.1499 J-0.0042
G3 X66.3221 Y13.0435 I1.3666 J-0.0228
G3 X66.3226 Y13.0422 I0.1421 J0.048
G3 X66.5582 Y12.6689 I0.9227 J0.3212
G0 Z3.0
G0 X93.1712 Y12.3582
G0 Z1.0
G1 F300.0 Z-0.5
G1 F800.0 X93.2287 Y12.6072
G3 X93.3392 Y12.3582 I0.3893 J0.0237
G1 X93.1712
G1 F300.0 X93.0543 Y12.3852
G1 F800.0 X94.2445 Y17.537
G1 X94.4745
G1 X93.3549 Y12.6917
G3 X93.618 Y12.3609 I0.2631 J-0.0608
G1 X96.1921
G1 X96.1638 Y12.2382
G1 X93.0203
G1 X93.0543 Y12.3852
G1 F300.0 X92.9373 Y12.4122
G1 F800.0 X94.149 Y17.657
G1 X94.6254
G1 X93.4718 Y12.6647
G3 X93.618 Y12.4809 I0.1461 J-0.0338
G1 X96.343
G1 X96.2593 Y12.1182
G1 X92.8694
G1 X92.9373 Y12.4122
G0 Z3.0
G0 X93.1712 Y12.3582
G0 Z0.5
G1 F300.0 Z-1.0
G1 F800.0 X93.2287 Y12.6072
G3 X93.3392 Y12.3582 I0.3893 J0.0237
G1 X93.1712
G1 F300.0 X93.0543 Y12.3852
G1 F800.0 X94.2445 Y17.537
G1 X94.4745
G1 X93.3549 Y12.6917
G3 X93.618 Y12.3609 I0.2631 J-0.0608
G1 X96.1921
G1 X96.1638 Y12.2382
G1 X93.0203
G1 X93.0543 Y12.3852
G1 F300.0 X92.9373 Y12.4122
G1 F800.0 X94.149 Y17.657
G1 X94.6254
G1 X93.4718 Y12.6647
G3 X93.618 Y12.4809 I0.1461 J-0.0338
G1 X96.343
G1 X96.2593 Y12.1182
G1 X92.8694
G1 X92.9373 Y12.4122
G0 Z3.0
G0 X98.1448 Y12.3582
G0 Z1.0
G1 F300.0 Z-0.5
G3 F800.0 X98.178 Y12.4487 I-0.3467 J0.1786
G1 X98.193 Y12.5135
G3 X98.2356 Y12.3582 I0.3893 J0.0233
G1 X98.1448
G0 Z3.0
G0 X99.2775 Y17.2617
G0 Z1.0
G1 F300.0 Z-0.5
G3 F800.0 X99.2349 Y17.417 I-0.3893 J-0.0233
G1 X99.3258
G3 X99.2925 Y17.3265 I0.3467 J-0.1786
G1 X99.2775 Y17.2617
G1 F300.0 X99.3944 Y17.2346
G1 F800.0 X98.3193 Y12.5978
G3 X98.5823 Y12.2668 I0.263 J-0.061
G1 X99.0086
G1 X99.0021 Y12.2382
G1 X97.2424
G1 X97.2489 Y12.2668
G1 X97.7981
G3 X98.0611 Y12.4758 I0.0 J0.27
G1 X99.1512 Y17.1774
G3 X98.8882 Y17.5084 I-0.263 J0.061
G1 X98.4619
G1 X98.4684 Y17.537
G1 X100.2282
G1 X100.2217 Y17.5084
G1 X99.6725
G3 X99.4094 Y17.2994 I0.0 J-0.27
G1 X99.3944 Y17.2346
G1 F300.0 X99.5113 Y17.2075
G1 F800.0 X98.4362 Y12.5707
G3 X98.5823 Y12.3868 I0.1461 J-0.0339
G1 X99.159
G1 X99.0979 Y12.1182
G1 X97.092
G1 X97.1531 Y12.3868
G1 X97.7981
G3 X97.9442 Y12.5029 I0.0 J0.15
G1 X99.0343 Y17.2045
G3 X98.8882 Y17.3884 I-0.1461 J0.0339
G1 X98.3115
G1 X98.3727 Y17.657
G1 X100.3785
G1 X100.3174 Y17.3884
G1 X99.6725
G3 X99.5263 Y17.2723 I0.0 J-0.15
G1 X99.5113 Y17.2075
G0 Z3.0
G0 X99.2775 Y17.2617
G0 Z0.5
G1 F300.0 Z-1.0
G3 F800.0 X99.2349 Y17.417 I-0.3893 J-0.0233
G1 X99.3258
G3 X99.2925 Y17.3265 I0.3467 J-0.1786
G1 X99.2775 Y17.2617
G0 Z3.0
G0 X98.193 Y12.5135
G0 Z0.5
G1 F300.0 Z-1.0
G3 F800.0 X98.2356 Y12.3582 I0.3893 J0.0233
G1 X98.1448
G3 X98.178 Y12.4487 I-0.3467 J0.1786
G1 X98.193 Y12.5135
G1 F300.0 X98.0761 Y12.5406
G1 F800.0 X99.1512 Y17.1774
G3 X98.8882 Y17.5084 I-0.263 J0.061
G1 X98.4619
G1 X98.4684 Y17.537
G1 X100.2282
G1 X100.2217 Y17.5084
G1 X99.6725
G3 X99.4094 Y17.2994 I0.0 J-0.27
G1 X98.3193 Y12.5978
G3 X98.5823 Y12.2668 I0.263 J-0.061
G1 X99.0086
G1 X99.0021 Y12.2382
G1 X97.2424
G1 X97.2489 Y12.2668
G1 X97.7981
G3 X98.0611 Y12.4758 I0.0 J0.27
G1 X98.0761 Y12.5406
G1 F300.0 X97.9592 Y12.5677
G1 F800.0 X99.0343 Y17.2045
G3 X98.8882 Y17.3884 I-0.1461 J0.0339
G1 X98.3115
G1 X98.3727 Y17.657
G1 X100.3785
G1 X100.3174 Y17.3884
G1 X99.6725
G3 X99.5263 Y17.2723 I0.0 J-0.15
G1 X98.4362 Y12.5707
G3 X98.5823 Y12.3868 I0.1461 J-0.0339
G1 X99.159
G1 X99.0979 Y12.1182
G1 X97.092
G1 X97.1531 Y12.3868
G1 X97.7981
G3 X97.9442 Y12.5029 I0.0 J0.15
G1 X97.9592 Y12.5677
G0 Z3.0
G0 X101.5825 Y13.9806
G0 Z1.0
G1 F300.0 Z-0.5
G1 F800.0 X101.6973 Y14.1734
G3 X101.7772 Y14.0012 I0.3829 J0.073
G1 X101.7076
G3 X101.5825 Y13.9806 I0.0 J-0.39
G0 Z3.0
G0 X104.4018 Y13.9589
G0 Z1.0
G1 F300.0 Z-0.5
G3 F800.0 X104.5222 Y14.1765 I-0.263 J0.2876
G1 X104.5743 Y13.7848
G3 X104.4018 Y13.9589 I-0.3492 J-0.1736
G0 Z3.0
G0 X104.1016 Y17.34
G0 Z1.0
G1 F300.0 Z-0.5
G3 F800.0 X104.0363 Y17.417 I-0.3274 J-0.2114
G1 X104.0913
G1 X104.1016 Y17.34
G1 F300.0 X104.0007 Y17.2749
G3 F800.0 X103.5416 Y17.2653 I-0.2266 J-0.1463
G1 X101.8476 Y14.3832
G3 X102.0801 Y13.9767 I0.2326 J-0.1367
G1 X104.1388
G3 X104.4064 Y14.2803 I0.0 J0.2698
G1 X104.0417 Y17.1625
G3 X104.0007 Y17.2749 I-0.2676 J-0.0339
G1 F300.0 X103.9001 Y17.21
G3 F800.0 X103.6448 Y17.2046 I-0.126 J-0.0814
G1 X101.9508 Y14.3225
G3 X102.0801 Y14.0965 I0.1293 J-0.076
G1 X104.1388
G3 X104.2876 Y14.2653 I0.0 J0.15
G1 X103.9229 Y17.1474
G3 X103.9001 Y17.21 I-0.1488 J-0.0188
G0 Z3.0
G0 Y17.537
G0 Z1.0
G1 F300.0 Z-0.5
G1 F800.0 X104.1964
G1 X104.901 Y12.2382
G1 X104.6608
G1 X104.4932 Y13.6432
G3 X104.2251 Y13.8812 I-0.2681 J-0.032
G1 X101.7076
G3 X101.4743 Y13.7471 I0.0 J-0.27
G1 X100.5956 Y12.2382
G1 X100.4061
G1 X103.559 Y17.537
G1 X103.9001
G1 F300.0 Y17.657
G1 F800.0 X104.3015
G1 X105.038 Y12.1182
G1 X104.5543
G1 X104.374 Y13.629
G3 X104.2251 Y13.7612 I-0.1489 J-0.0178
G1 X101.7076
G3 X101.578 Y13.6867 I0.0 J-0.15
G1 X100.6646 Y12.1182
G1 X100.1951
G1 X103.4908 Y17.657
G1 X103.9001
G0 Z3.0
G0 X104.0363 Y17.417
G0 Z0.5
G1 F300.0 Z-1.0
G1 F800.0 X104.0913
G1 X104.1016 Y17.34
G3 X104.0363 Y17.417 I-0.3274 J-0.2114
G0 Z3.0
G0 X104.5222 Y14.1765
G0 Z0.5
G1 F300.0 Z-1.0
G1 F800.0 X104.5743 Y13.7848
G3 X104.4018 Y13.9589 I-0.3492 J-0.1736
G3 X104.5222 Y14.1765 I-0.263 J0.2876
G0 Z3.0
G0 X101.7772 Y14.0012
G0 Z0.5
G1 F300.0 Z-1.0
G1 F800.0 X101.7076
G3 X101.5825 Y13.9806 I0.0 J-0.39
G1 X101.6973 Y14.1734
G3 X101.7772 Y14.0012 I0.3829 J0.073
G1 F300.0 X101.8705 Y14.0767
G3 F800.0 X102.0801 Y13.9767 I0.2097 J0.1697
G1 X104.1388
G3 X104.4064 Y14.2803 I0.0 J0.2698
G1 X104.0417 Y17.1625
G3 X103.5416 Y17.2653 I-0.2676 J-0.0339
G1 X101.8476 Y14.3832
G3 X101.8705 Y14.0767 I0.2326 J-0.1367
G1 F300.0 X101.9635 Y14.1521
G3 F800.0 X102.0801 Y14.0965 I0.1166 J0.0944
G1 X104.1388
G3 X104.2876 Y14.2653 I0.0 J0.15
G1 X103.9229 Y17.1474
G3 X103.6448 Y17.2046 I-0.1488 J-0.0188
G1 X101.9508 Y14.3225
G3 X101.9635 Y14.1521 I0.1293 J-0.076
G0 Z3.0
G0 Y13.8812
G0 Z0.5
G1 F300.0 Z-1.0
G1 F800.0 X101.7076
G3 X101.4743 Y13.7471 I0.0 J-0.27
G1 X100.5956 Y12.2382
G1 X100.4061
G1 X103.559 Y17.537
G1 X104.1964
G1 X104.901 Y12.2382
G1 X104.6608
G1 X104.4932 Y13.6432
G3 X104.2251 Y13.8812 I-0.2681 J-0.032
G1 X101.9635
G1 F300.0 Y13.7612
G1 F800.0 X101.7076
G3 X101.578 Y13.6867 I0.0 J-0.15
G1 X100.6646 Y12.1182
G1 X100.1951
G1 X103.4908 Y17.657
G1 X104.3015
G1 X105.038 Y12.1182
G1 X104.5543
G1 X104.374 Y13.629
G3 X104.2251 Y13.7612 I-0.1489 J-0.0178
G1 X101.9635
G0 Z3.0
G0 X105.1442 Y20.0607
G0 Z1.0
G1 F300.0 Z-0.5
G1 F800.0 X105.1278 Y20.1143
G3 X105.2972 Y20.1169 I0.077 J0.5042
G1 X105.2842 Y20.0607
G1 X105.1442
G1 F300.0 Y19.9407
G1 F800.0 X105.0554
G1 X104.9341 Y20.3377
G3 X105.4702 Y20.3326 I0.2707 J0.2807
G1 X105.3796 Y19.9407
G1 X105.1442
G1 F300.0 Y19.8207
G1 F800.0 X104.9666
G1 X103.4331 Y24.8393
G3 X102.9119 Y24.8212 I-0.2582 J-0.0789
G1 X101.7556 Y19.8207
G1 X101.5784
G1 X102.7991 Y25.1044
G1 X103.5501
G1 X104.9466 Y20.5394
G3 X105.4679 Y20.5576 I0.2582 J0.079
G1 X106.5186 Y25.1044
G1 X106.6958
G1 X105.4751 Y19.8207
G1 X105.1442
G1 F300.0 Y19.7007
G1 F800.0 X104.8778
G1 X103.3184 Y24.8042
G3 X103.0288 Y24.7941 I-0.1435 J-0.0438
G1 X101.851 Y19.7007
G1 X101.4275
G1 X102.7036 Y25.2244
G1 X103.6389
G1 X105.0614 Y20.5745
G3 X105.351 Y20.5847 I0.1434 J0.0439
G1 X106.4231 Y25.2244
G1 X106.8466
G1 X105.5705 Y19.7007
G1 X105.1442
G0 Z3.0
G0 Y20.0607
G0 Z0.5
G1 F300.0 Z-1.0
G1 F800.0 X105.1278 Y20.1143
G3 X105.2972 Y20.1169 I0.077 J0.5042
G1 X105.2842 Y20.0607
G1 X105.1442
G1 F300.0 Y19.9407
G1 F800.0 X105.0554
G1 X104.9341 Y20.3377
G3 X105.4702 Y20.3326 I0.2707 J0.2807
G1 X105.3796 Y19.9407
G1 X105.1442
G1 F300.0 Y19.8207
G1 F800.0 X104.9666
G1 X103.4331 Y24.8393
G3 X102.9119 Y24.8212 I-0.2582 J-0.0789
G1 X101.7556 Y19.8207
G1 X101.5784
G1 X102.7991 Y25.1044
G1 X103.5501
G1 X104.9466 Y20.5394
G3 X105.4679 Y20.5576 I0.2582 J0.079
G1 X106.5186 Y25.1044
G1 X106.6958
G1 X105.4751 Y19.8207
G1 X105.1442
G1 F300.0 Y19.7007
G1 F800.0 X104.8778
G1 X103.3184 Y24.8042
G3 X103.0288 Y24.7941 I-0.1435 J-0.0438
G1 X101.851 Y19.7007
G1 X101.4275
G1 X102.7036 Y25.2244
G1 X103.6389
G1 X105.0614 Y20.5745
G3 X105.351 Y20.5847 I0.1434 J0.0439
G1 X106.4231 Y25.2244
G1 X106.8466
G1 X105.5705 Y19.7007
G1 X105.1442
G0 Z3.0
G0 X108.0045 Y20.835
G0 Z1.0
G1 F300.0 Z-0.5
G2 F800.0 X107.9839 Y20.8901 I1.328 J0.5267
G2 X107.8949 Y21.2507 I1.9474 J0.6719
G1 X107.8822 Y21.3505
G1 X107.8754 Y21.4241
G2 X107.8672 Y21.643 I2.8865 J0.2175
G3 Y21.6447 I-0.39 J0.0002
G2 X107.9204 Y22.3438 I4.3909 J0.0176
G3 X107.9207 Y22.3459 I-0.3853 J0.0605
G2 X108.0876 Y23.0157 I3.6398 J-0.5514
G3 X108.0887 Y23.0188 I-0.3679 J0.1294
G2 X108.1012 Y23.0547 I3.209 J-1.0981
G3 X107.9164 Y21.7881 I4.081 J-1.2424
G3 X107.9212 Y21.6071 I2.7134 J-0.0184
G3 X107.9237 Y21.5661 I0.4808 J0.0085
G3 X108.0571 Y20.9021 I2.4305 J0.1428
G3 X108.0575 Y20.9009 I0.368 J0.1293
G3 X108.4381 Y20.27 I1.7321 J0.6148
G3 X108.4412 Y20.2667 I0.2868 J0.2643
G3 X108.5293 Y20.1798 I1.2489 J1.1784
G2 X108.3688 Y20.3071 I0.9521 J1.366
G2 X108.0045 Y20.835 I0.9638 J1.0546
G1 F300.0 X107.8929 Y20.7908
G2 F800.0 X107.8706 Y20.8508 I1.4396 J0.5709
G2 X107.7761 Y21.2341 I2.0608 J0.7113
G1 X107.7629 Y21.3374
G1 X107.7558 Y21.4141
G2 X107.7472 Y21.643 I3.0061 J0.2275
G3 Y21.6442 I-0.27 J0.0001
G2 X107.8018 Y22.3624 I4.5109 J0.0181
G3 X107.802 Y22.3639 I-0.2667 J0.0419
G2 X107.9744 Y23.0555 I3.7585 J-0.5694
G3 X107.9752 Y23.0576 I-0.2547 J0.0896
G2 X108.2442 Y23.6552 I3.3225 J-1.1369
G3 X108.2448 Y23.6562 I-0.2348 J0.1334
G2 X108.6193 Y24.1878 I2.7961 J-1.5719
G2 X109.6325 Y24.9341 I2.2041 J-1.9314
G3 X109.6337 Y24.9347 I-0.1097 J0.2467
G2 X110.2913 Y25.1445 I1.2414 J-2.7544
G2 X110.9892 Y25.21 I0.6941 J-3.6461
G3 X110.9909 I0.0003 J0.27
G2 X111.872 Y25.0965 I0.0177 J-3.3395
G2 X112.312 Y24.9417 I-1.0373 J-3.6509
G3 X112.3122 Y24.9416 I0.1051 J0.2487
G2 X112.5628 Y24.8252 I-1.5011 J-3.5587
G1 X112.5109 Y24.5671
G3 X112.3176 Y24.6985 I-1.0172 J-1.2884
G3 X112.3163 Y24.6992 I-0.1355 J-0.2335
G1 X112.2158 Y24.7568
G3 X112.2091 Y24.7605 I-0.1342 J-0.2343
G1 X112.1639 Y24.7847
G3 X112.0946 Y24.8206 I-0.3417 J-0.5748
G3 X111.5303 Y25.0286 I-1.1624 J-2.2846
G3 X110.8086 Y25.1125 I-0.6945 J-2.828
G3 X110.2356 Y25.051 I-0.0066 J-2.6405
G3 X109.683 Y24.8549 I0.4999 J-2.2845
G3 X108.8006 Y24.1441 I1.2032 J-2.3971
G3 X108.468 Y23.6388 I2.3644 J-1.9182
G3 X108.237 Y23.0866 I3.0026 J-1.5806
G3 X108.0364 Y21.788 I3.9452 J-1.2743
G3 X108.0411 Y21.6116 I2.5934 J-0.0183
G3 X108.0433 Y21.576 I0.3608 J0.004
G3 X108.1703 Y20.9418 I2.3109 J0.133
G3 X108.1706 Y20.941 I0.2547 J0.0895
G3 X108.5263 Y20.3513 I1.619 J0.5746
G3 X108.5285 Y20.349 I0.1985 J0.183
G3 X109.1987 Y19.9255 I1.1616 J1.0961
G3 X109.2 Y19.9251 I0.0831 J0.2569
G3 X109.9353 Y19.8165 I0.7017 J2.2072
G3 X110.703 Y19.9082 I0.0025 J3.2391
G3 X111.3618 Y20.1391 I-0.8194 J3.393
G3 X111.6128 Y20.2678 I-1.5759 J3.3825
G3 X111.6152 Y20.2692 I-0.1322 J0.2354
G1 X111.7189 Y20.3288
G1 X111.6865 Y20.1703
G2 X110.9011 Y19.8696 I-2.526 J5.4222
G3 X110.9004 Y19.8694 I0.0786 J-0.2583
G2 X109.8463 Y19.7151 I-1.0292 J3.352
G1 X109.731 Y19.7167
G2 X108.9457 Y19.843 I0.0476 J2.7998
G2 X108.2882 Y20.2182 I0.5358 J1.7028
G2 X107.8929 Y20.7908 I1.0443 J1.1435
G1 F300.0 X107.7814 Y20.7465
G2 F800.0 X107.7572 Y20.8114 I1.5511 J0.6152
G2 X107.6572 Y21.2175 I2.1741 J0.7507
G1 X107.6436 Y21.3242
G1 X107.6362 Y21.404
G2 X107.6272 Y21.6431 I3.1257 J0.2376
G3 Y21.6438 I-0.15 J0.0001
G2 X107.6833 Y22.381 I4.6309 J0.0186
G3 X107.6834 Y22.3818 I-0.1482 J0.0233
G2 X107.8612 Y23.0953 I3.8771 J-0.5874
G3 X107.8616 Y23.0965 I-0.1415 J0.0498
G2 X108.1399 Y23.7144 I3.4361 J-1.1758
G3 X108.1402 Y23.715 I-0.1304 J0.0741
G2 X108.5289 Y24.2667 I2.9007 J-1.6307
G2 X109.5837 Y25.0437 I2.2945 J-2.0103
G3 X109.5844 Y25.0441 I-0.061 J0.1371
G2 X110.2684 Y25.2623 I1.2907 J-2.8638
G2 X110.9893 Y25.33 I0.7169 J-3.7639
G3 X110.9902 I0.0002 J0.15
G2 X111.9039 Y25.2122 I0.0183 J-3.4595
G2 X112.3587 Y25.0522 I-1.0692 J-3.7666
G1 X112.3588
G2 X112.6982 Y24.8898 I-1.5477 J-3.6692
G1 X112.5879 Y24.341
G1 X112.4716 Y24.4442
G3 X112.4681 Y24.4473 I-0.0996 J-0.1121
G3 X112.2573 Y24.5947 I-0.9743 J-1.1687
G3 X112.2566 Y24.5951 I-0.0753 J-0.1297
G1 X112.1561 Y24.6527
G3 X112.1524 Y24.6548 I-0.0746 J-0.1301
G1 X112.1048 Y24.6803
G3 X112.043 Y24.7122 I-0.2826 J-0.4704
G3 X111.502 Y24.912 I-1.1108 J-2.1762
G3 X110.809 Y24.9925 I-0.6661 J-2.7114
G3 X110.2613 Y24.9338 I-0.007 J-2.5205
G3 X109.737 Y24.7477 I0.4742 J-2.1673
G3 X108.8938 Y24.0686 I1.1493 J-2.2899
G3 X108.5742 Y23.583 I2.2711 J-1.8427
G3 X108.3513 Y23.05 I2.8964 J-1.5248
G3 X108.1564 Y21.788 I3.8309 J-1.2377
G3 X108.1611 Y21.6156 I2.4734 J-0.0182
G3 X108.1629 Y21.5863 I0.2409 J-0.0001
G3 X108.2835 Y20.9816 I2.1913 J0.1227
G3 X108.2837 Y20.9812 I0.1415 J0.0497
G3 X108.6146 Y20.4327 I1.5059 J0.5345
G3 X108.6158 Y20.4314 I0.1103 J0.1017
G3 X109.2356 Y20.0397 I1.0743 J1.0137
G3 X109.2363 Y20.0395 I0.0462 J0.1427
G3 X109.9345 Y19.9365 I0.6653 J2.0929
G3 X110.6747 Y20.0248 I0.0033 J3.1191
G3 X111.311 Y20.2478 I-0.7911 J3.2764
G3 X111.554 Y20.3724 I-1.5251 J3.2737
G3 X111.5553 Y20.3732 I-0.0734 J0.1308
G1 X111.6689 Y20.4385
G3 X111.6698 Y20.439 I-0.0748 J0.13
G3 X111.7885 Y20.5133 I-1.177 J2.0136
G3 X111.7893 Y20.5138 I-0.0833 J0.1247
G1 X111.8936 Y20.5844
G1 X111.7921 Y20.0874
G2 X110.936 Y19.7548 I-2.6315 J5.5051
G3 X110.9356 Y19.7547 I0.0436 J-0.1435
G2 X109.8451 Y19.5951 I-1.0644 J3.4667
G1 X109.7291 Y19.5967
G2 X108.9098 Y19.7285 I0.0494 J2.9198
G2 X108.2076 Y20.1292 I0.5717 J1.8173
G2 X107.7814 Y20.7465 I1.1249 J1.2325
G0 Z3.0
G0 X108.0045 Y20.835
G0 Z0.5
G1 F300.0 Z-1.0
G2 F800.0 X107.9839 Y20.8901 I1.328 J0.5267
G2 X107.8949 Y21.2507 I1.9474 J0.6719
G1 X107.8822 Y21.3505
G1 X107.8754 Y21.4241
G2 X107.8672 Y21.643 I2.8865 J0.2175
G3 Y21.6447 I-0.39 J0.0002
G2 X107.9204 Y22.3438 I4.3909 J0.0176
G3 X107.9207 Y22.3459 I-0.3853 J0.0605
G2 X108.0876 Y23.0157 I3.6398 J-0.5514
G3 X108.0887 Y23.0188 I-0.3679 J0.1294
G2 X108.1012 Y23.0547 I3.209 J-1.0981
G3 X107.9164 Y21.7881 I4.081 J-1.2424
G3 X107.9212 Y21.6071 I2.7134 J-0.0184
G3 X107.9237 Y21.5661 I0.4808 J0.0085
G3 X108.0571 Y20.9021 I2.4305 J0.1428
G3 X108.0575 Y20.9009 I0.368 J0.1293
G3 X108.4381 Y20.27 I1.7321 J0.6148
G3 X108.4412 Y20.2667 I0.2868 J0.2643
G3 X108.5293 Y20.1798 I1.2489 J1.1784
G2 X108.3688 Y20.3071 I0.9521 J1.366
G2 X108.0045 Y20.835 I0.9638 J1.0546
G1 F300.0 X107.8929 Y20.7908
G2 F800.0 X107.8706 Y20.8508 I1.4396 J0.5709
G2 X107.7761 Y21.2341 I2.0608 J0.7113
G1 X107.7629 Y21.3374
G1 X107.7558 Y21.4141
G2 X107.7472 Y21.643 I3.0061 J0.2275
G3 Y21.6442 I-0.27 J0.0001
G2 X107.8018 Y22.3624 I4.5109 J0.0181
G3 X107.802 Y22.3639 I-0.2667 J0.0419
G2 X107.9744 Y23.0555 I3.7585 J-0.5694
G3 X107.9752 Y23.0576 I-0.2547 J0.0896
G2 X108.2442 Y23.6552 I3.3225 J-1.1369
G3 X108.2448 Y23.6562 I-0.2348 J0.1334
G2 X108.6193 Y24.1878 I2.7961 J-1.5719
G2 X109.6325 Y24.9341 I2.2041 J-1.9314
G3 X109.6337 Y24.9347 I-0.1097 J0.2467
G2 X110.2913 Y25.1445 I1.2414 J-2.7544
G2 X110.9892 Y25.21 I0.6941 J-3.6461
G3 X110.9909 I0.0003 J0.27
G2 X111.872 Y25.0965 I0.0177 J-3.3395
G2 X112.312 Y24.9417 I-1.0373 J-3.6509
G3 X112.3122 Y24.9416 I0.1051 J0.2487
G2 X112.5628 Y24.8252 I-1.5011 J-3.5587
G1 X112.5109 Y24.5671
G3 X112.3176 Y24.6985 I-1.0172 J-1.2884
G3 X112.3163 Y24.6992 I-0.1355 J-0.2335
G1 X112.2158 Y24.7568
G3 X112.2091 Y24.7605 I-0.1342 J-0.2343
G1 X112.1639 Y24.7847
G3 X112.0946 Y24.8206 I-0.3417 J-0.5748
G3 X111.5303 Y25.0286 I-1.1624 J-2.2846
G3 X110.8086 Y25.1125 I-0.6945 J-2.828
G3 X110.2356 Y25.051 I-0.0066 J-2.6405
G3 X109.683 Y24.8549 I0.4999 J-2.2845
G3 X108.8006 Y24.1441 I1.2032 J-2.3971
G3 X108.468 Y23.6388 I2.3644 J-1.9182
G3 X108.237 Y23.0866 I3.0026 J-1.5806
G3 X108.0364 Y21.788 I3.9452 J-1.2743
G3 X108.0411 Y21.6116 I2.5934 J-0.0183
G3 X108.0433 Y21.576 I0.3608 J0.004
G3 X108.1703 Y20.9418 I2.3109 J0.133
G3 X108.1706 Y20.941 I0.2547 J0.0895
G3 X108.5263 Y20.3513 I1.619 J0.5746
G3 X108.5285 Y20.349 I0.1985 J0.183
G3 X109.1987 Y19.9255 I1.1616 J1.0961
G3 X109.2 Y19.9251 I0.0831 J0.2569
G3 X109.9353 Y19.8165 I0.7017 J2.2072
G3 X110.703 Y19.9082 I0.0025 J3.2391
G3 X111.3618 Y20.1391 I-0.8194 J3.393
G3 X111.6128 Y20.2678 I-1.5759 J3.3825
G3 X111.6152 Y20.2692 I-0.1322 J0.2354
G1 X111.7189 Y20.3288
G1 X111.6865 Y20.1703
G2 X110.9011 Y19.8696 I-2.526 J5.4222
G3 X110.9004 Y19.8694 I0.0786 J-0.2583
G2 X109.8463 Y19.7151 I-1.0292 J3.352
G1 X109.731 Y19.7167
G2 X108.9457 Y19.843 I0.0476 J2.7998
G2 X108.2882 Y20.2182 I0.5358 J1.7028
G2 X107.8929 Y20.7908 I1.0443 J1.1435
G1 F300.0 X107.7814 Y20.7465
G2 F800.0 X107.7572 Y20.8114 I1.5511 J0.6152
G2 X107.6572 Y21.2175 I2.1741 J0.7507
G1 X107.6436 Y21.3242
G1 X107.6362 Y21.404
G2 X107.6272 Y21.6431 I3.1257 J0.2376
G3 Y21.6438 I-0.15 J0.0001
G2 X107.6833 Y22.381 I4.6309 J0.0186
G3 X107.6834 Y22.3818 I-0.1482 J0.0233
G2 X107.8612 Y23.0953 I3.8771 J-0.5874
G3 X107.8616 Y23.0965 I-0.1415 J0.0498
G2 X108.1399 Y23.7144 I3.4361 J-1.1758
G3 X108.1402 Y23.715 I-0.1304 J0.0741
G2 X108.5289 Y24.2667 I2.9007 J-1.6307
G2 X109.5837 Y25.0437 I2.2945 J-2.0103
G3 X109.5844 Y25.0441 I-0.061 J0.1371
G2 X110.2684 Y25.2623 I1.2907 J-2.8638
G2 X110.9893 Y25.33 I0.7169 J-3.7639
G3 X110.9902 I0.0002 J0.15
G2 X111.9039 Y25.2122 I0.0183 J-3.4595
G2 X112.3587 Y25.0522 I-1.0692 J-3.7666
G1 X112.3588
G2 X112.6982 Y24.8898 I-1.5477 J-3.6692
G1 X112.5879 Y24.341
G1 X112.4716 Y24.4442
G3 X112.4681 Y24.4473 I-0.0996 J-0.1121
G3 X112.2573 Y24.5947 I-0.9743 J-1.1687
G3 X112.2566 Y24.5951 I-0.0753 J-0.1297
G1 X112.1561 Y24.6527
G3 X112.1524 Y24.6548 I-0.0746 J-0.1301
G1 X112.1048 Y24.6803
G3 X112.043 Y24.7122 I-0.2826 J-0.4704
G3 X111.502 Y24.912 I-1.1108 J-2.1762
G3 X110.809 Y24.9925 I-0.6661 J-2.7114
G3 X110.2613 Y24.9338 I-0.007 J-2.5205
G3 X109.737 Y24.7477 I0.4742 J-2.1673
G3 X108.8938 Y24.0686 I1.1493 J-2.2899
G3 X108.5742 Y23.583 I2.2711 J-1.8427
G3 X108.3513 Y23.05 I2.8964 J-1.5248
G3 X108.1564 Y21.788 I3.8309 J-1.2377
G3 X108.1611 Y21.6156 I2.4734 J-0.0182
G3 X108.1629 Y21.5863 I0.2409 J-0.0001
G3 X108.2835 Y20.9816 I2.1913 J0.1227
G3 X108.2837 Y20.9812 I0.1415 J0.0497
G3 X108.6146 Y20.4327 I1.5059 J0.5345
G3 X108.6158 Y20.4314 I0.1103 J0.1017
G3 X109.2356 Y20.0397 I1.0743 J1.0137
G3 X109.2363 Y20.0395 I0.0462 J0.1427
G3 X109.9345 Y19.9365 I0.6653 J2.0929
G3 X110.6747 Y20.0248 I0.0033 J3.1191
G3 X111.311 Y20.2478 I-0.7911 J3.2764
G3 X111.554 Y20.3724 I-1.5251 J3.2737
G3 X111.5553 Y20.3732 I-0.0734 J0.1308
G1 X111.6689 Y20.4385
G3 X111.6698 Y20.439 I-0.0748 J0.13
G3 X111.7885 Y20.5133 I-1.177 J2.0136
G3 X111.7893 Y20.5138 I-0.0833 J0.1247
G1 X111.8936 Y20.5844
G1 X111.7921 Y20.0874
G2 X110.936 Y19.7548 I-2.6315 J5.5051
G3 X110.9356 Y19.7547 I0.0436 J-0.1435
G2 X109.8451 Y19.5951 I-1.0644 J3.4667
G1 X109.7291 Y19.5967
G2 X108.9098 Y19.7285 I0.0494 J2.9198
G2 X108.2076 Y20.1292 I0.5717 J1.8173
G2 X107.7814 Y20.7465 I1.1249 J1.2325
G0 Z3.0
G0 X114.0467 Y22.8038
G0 Z1.0
G1 F300.0 Z-0.5
G1 F800.0 X114.0502 Y22.8193
G3 X114.057 Y22.8096 I0.3732 J0.2514
G3 X114.0467 Y22.8038 I0.2139 J-0.3959
G1 F300.0 X114.0766 Y22.7518
G3 F800.0 X113.9443 Y22.6268 I0.1943 J-0.3381
G1 X114.0361 Y23.0252
G3 X114.1564 Y22.7865 I0.3873 J0.0455
G3 X114.0766 Y22.7518 I0.1145 J-0.3728
G0 Z3.0
G0 X117.5434 Y22.6748
G0 Z1.0
G1 F300.0 Z-0.5
G3 F800.0 X117.5489 Y22.6779 I-0.2139 J0.3959
G1 X117.547 Y22.6696
G3 X117.5434 Y22.6748 I-0.3701 J-0.256
G1 F300.0 X117.5148 Y22.7276
G3 F800.0 X117.6497 Y22.8482 I-0.1854 J0.3431
G1 X117.5627 Y22.4706
G3 X117.4439 Y22.6979 I-0.3858 J-0.0569
G3 X117.5148 Y22.7276 I-0.1145 J0.3728
G1 F300.0 X117.4578 Y22.8332
G3 F800.0 X117.5926 Y23.0104 I-0.1284 J0.2375
G1 X118.0726 Y25.1044
G1 X118.2926
G1 X117.0755 Y19.8207
G1 X116.8554
G1 X117.44 Y22.3529
G3 X117.1769 Y22.6837 I-0.2631 J0.0607
G1 X114.2709
G3 X114.0078 Y22.4744 I0.0 J-0.27
G1 X113.3952 Y19.8207
G1 X113.1748
G1 X114.3919 Y25.1044
G1 X114.6126
G1 X114.1603 Y23.131
G3 X114.4234 Y22.8007 I0.2632 J-0.0603
G1 X117.3294
G3 X117.4578 Y22.8332 I0.0 J0.27
G1 F300.0 X117.4007 Y22.9388
G3 F800.0 X117.4757 Y23.0372 I-0.0713 J0.132
G1 X117.977 Y25.2244
G1 X118.4434
G1 X117.171 Y19.7007
G1 X116.7045
G1 X117.3231 Y22.3799
G3 X117.1769 Y22.5637 I-0.1462 J0.0337
G1 X114.2709
G3 X114.1247 Y22.4474 I0.0 J-0.15
G1 X113.4906 Y19.7007
G1 X113.024
G1 X114.2964 Y25.2244
G1 X114.7632
G1 X114.2772 Y23.1042
G3 X114.4234 Y22.9207 I0.1462 J-0.0335
G1 X117.3294
G3 X117.4007 Y22.9388 I0.0 J0.15
G0 Z3.0
G0 X117.5434 Y22.6748
G0 Z0.5
G1 F300.0 Z-1.0
G3 F800.0 X117.5489 Y22.6779 I-0.2139 J0.3959
G1 X117.547 Y22.6696
G3 X117.5434 Y22.6748 I-0.3701 J-0.256
G1 F300.0 X117.5148 Y22.7276
G3 F800.0 X117.6497 Y22.8482 I-0.1854 J0.3431
G1 X117.5627 Y22.4706
G3 X117.4439 Y22.6979 I-0.3858 J-0.0569
G3 X117.5148 Y22.7276 I-0.1145 J0.3728
G0 Z3.0
G0 X114.057 Y22.8096
G0 Z0.5
G1 F300.0 Z-1.0
G3 F800.0 X114.0467 Y22.8038 I0.2139 J-0.3959
G1 X114.0502 Y22.8193
G3 X114.057 Y22.8096 I0.3732 J0.2514
G1 F300.0 X114.0855 Y22.7568
G3 F800.0 X113.9443 Y22.6268 I0.1854 J-0.3431
G1 X114.0361 Y23.0252
G3 X114.1564 Y22.7865 I0.3873 J0.0455
G3 X114.0855 Y22.7568 I0.1145 J-0.3728
G1 F300.0 X114.1426 Y22.6512
G3 F800.0 X114.0078 Y22.4744 I0.1284 J-0.2375
G1 X113.3952 Y19.8207
G1 X113.1748
G1 X114.3919 Y25.1044
G1 X114.6126
G1 X114.1603 Y23.131
G3 X114.4234 Y22.8007 I0.2632 J-0.0603
G1 X117.3294
G3 X117.5926 Y23.0104 I0.0 J0.27
G1 X118.0726 Y25.1044
G1 X118.2926
G1 X117.0755 Y19.8207
G1 X116.8554
G1 X117.44 Y22.3529
G3 X117.1769 Y22.6837 I-0.2631 J0.0607
G1 X114.2709
G3 X114.1426 Y22.6512 I0.0 J-0.27
G1 F300.0 X114.1996 Y22.5456
G3 F800.0 X114.1247 Y22.4474 I0.0713 J-0.132
G1 X113.4906 Y19.7007
G1 X113.024
G1 X114.2964 Y25.2244
G1 X114.7632
G1 X114.2772 Y23.1042
G3 X114.4234 Y22.9207 I0.1462 J-0.0335
G1 X117.3294
G3 X117.4757 Y23.0372 I0.0 J0.15
G1 X117.977 Y25.2244
G1 X118.4434
G1 X117.171 Y19.7007
G1 X116.7045
G1 X117.3231 Y22.3799
G3 X117.1769 Y22.5637 I-0.1462 J0.0337
G1 X114.2709
G3 X114.1996 Y22.5456 I0.0 J-0.15
G0 Z3.0
G0 X119.8366 Y22.0753
G0 Z1.0
G1 F300.0 Z-0.5
G1 F800.0 X119.9252 Y22.4601
G3 X120.0194 Y22.2363 I0.3885 J0.0318
G3 X119.8366 Y22.0753 I0.1535 J-0.3585
G0 Z3.0
G0 X121.5799 Y22.1268
G0 Z1.0
G1 F300.0 Z-0.5
G3 F800.0 X121.6638 Y22.1376 I-0.2493 J2.2569
G3 X121.6598 Y22.0099 I0.3825 J-0.076
G1 X121.6054 Y22.0924
G3 X121.5799 Y22.1268 I-0.3257 J-0.2146
G0 Z3.0
G0 X123.1956 Y23.4996
G0 Z1.0
G1 F300.0 Z-0.5
G3 F800.0 X123.2457 Y23.928 I-1.7792 J0.425
G3 X123.2456 Y23.9332 I-0.3898 J-0.0007
G3 X123.2287 Y24.1581 I-1.8779 J-0.0285
G3 X123.2276 Y24.1658 I-0.3862 J-0.0526
G3 X123.152 Y24.4298 I-1.1022 J-0.1724
G3 X123.1502 Y24.4341 I-0.3587 J-0.1525
G3 X122.8409 Y24.8295 I-0.9295 J-0.4083
G3 X122.8222 Y24.8439 I-0.7754 J-0.9901
G2 X123.0 Y24.7408 I-0.4504 J-0.982
G2 X123.2294 Y24.4835 I-0.4658 J-0.646
G2 X123.2867 Y24.3218 I-0.5125 J-0.2728
G2 X123.3068 Y24.1035 I-1.1693 J-0.2177
G3 Y24.1 I0.39 J-0.0002
G2 X123.2167 Y23.5545 I-1.6126 J-0.0137
G2 X123.1956 Y23.4996 I-1.4984 J0.5432
G0 Z3.0
G0 X120.5328 Y24.9844
G0 Z1.0
G1 F300.0 Z-0.5
G3 F800.0 X120.4934 Y24.9266 I0.3011 J-0.2475
G1 X120.5067 Y24.9844
G1 X120.5328
G1 F300.0 X120.6255 Y24.9082
G3 F800.0 X120.5711 Y24.7978 I0.2084 J-0.1713
G1 X120.0509 Y22.5528
G3 X120.3137 Y22.2221 I0.2628 J-0.0609
G1 X121.1346
G3 X121.4888 Y22.238 I0.0108 J3.7231
G3 X121.5457 Y22.2438 I-0.0332 J0.6033
G3 X121.8659 Y22.3007 I-0.2151 J2.1398
G3 X122.4755 Y22.5939 I-0.3992 J1.6102
G3 X122.9564 Y23.1829 I-0.9652 J1.2789
G3 X123.1257 Y23.9278 I-1.54 J0.7416
G3 Y23.9314 I-0.2698 J-0.0005
G3 X123.1098 Y24.1419 I-1.758 J-0.0267
G3 X123.109 Y24.1472 I-0.2673 J-0.0364
G3 X123.0416 Y24.3829 I-0.9836 J-0.1539
G3 X123.0403 Y24.3858 I-0.2483 J-0.1055
G3 X122.7672 Y24.7348 I-0.8196 J-0.3601
G3 X122.2965 Y24.9533 I-0.7018 J-0.8954
G3 X122.1391 Y24.9808 I-0.3054 J-1.285
G3 X121.7093 Y25.0066 I-0.4132 J-3.2833
G1 X120.8339
G3 X120.6255 Y24.9082 I0.0 J-0.2698
G1 F300.0 X120.718 Y24.8321
G3 F800.0 X120.6877 Y24.7707 I0.1159 J-0.0953
G1 X120.1675 Y22.5257
G3 X120.3137 Y22.3419 I0.1461 J-0.0339
G1 X121.1348
G3 X121.48 Y22.3574 I0.0107 J3.6033
G3 X121.5306 Y22.3627 I-0.0245 J0.4838
G3 X121.8366 Y22.4168 I-0.2 J2.021
G3 X122.4031 Y22.6893 I-0.3698 J1.4941
G3 X122.8484 Y23.2347 I-0.8927 J1.1835
G3 X123.0059 Y23.9276 I-1.432 J0.6898
G3 Y23.9296 I-0.15 J-0.0003
G3 X122.9911 Y24.1258 I-1.6382 J-0.0249
G3 X122.9907 Y24.1287 I-0.1486 J-0.0202
G3 X122.9314 Y24.336 I-0.8653 J-0.1354
G3 X122.9307 Y24.3377 I-0.138 J-0.0587
G3 X122.6937 Y24.6402 I-0.7099 J-0.3119
G3 X122.2705 Y24.8364 I-0.6283 J-0.8008
G3 X122.1249 Y24.8619 I-0.2794 J-1.168
G3 X121.7096 Y24.8869 I-0.399 J-3.1644
G1 X120.8339
G3 X120.718 Y24.8321 I0.0 J-0.15
G0 Z3.0
G0 Y25.1044
G0 Z1.0
G1 F300.0 Z-0.5
G1 F800.0 X121.784
G2 X122.2014 Y25.0914 I-0.0127 J-7.0935
G2 X122.5976 Y25.0408 I-0.2005 J-3.1502
G3 X122.5978 I0.051 J0.2651
G2 X123.07 Y24.8383 I-0.226 J-1.1789
G2 X123.3347 Y24.541 I-0.5358 J-0.7435
G2 X123.4046 Y24.3442 I-0.6178 J-0.3303
G2 X123.4268 Y24.1034 I-1.2872 J-0.2401
G3 Y24.101 I0.27 J-0.0001
G2 X123.3298 Y23.5142 I-1.7326 J-0.0147
G2 X123.0339 Y22.9993 I-1.6115 J0.5834
G3 X123.0333 Y22.9985 I0.2073 J-0.173
G2 X122.5584 Y22.581 I-1.5509 J1.2849
G2 X121.9732 Y22.3216 I-1.1937 J1.9029
G3 X121.8218 Y21.9116 I0.0731 J-0.2599
G1 X123.2191 Y19.8207
G1 X122.9584
G1 X121.5052 Y22.0264
G3 X121.2797 Y22.1478 I-0.2255 J-0.1485
G1 X120.1729
G3 X119.9097 Y21.9384 I0.0 J-0.27
G1 X119.4221 Y19.8207
G1 X119.1941
G1 X120.4112 Y25.1044
G1 X120.718
G1 F300.0 Y25.2244
G1 F800.0 X121.7841
G2 X122.2088 Y25.2111 I-0.0128 J-7.2135
G2 X122.6203 Y25.1587 I-0.208 J-3.27
G3 X122.6204 Y25.1586 I0.0284 J0.1473
G2 X123.14 Y24.9357 I-0.2486 J-1.2967
G2 X123.44 Y24.5985 I-0.6058 J-0.8409
G2 X123.5225 Y24.3667 I-0.7231 J-0.3879
G2 X123.5468 Y24.1034 I-1.4051 J-0.2626
G3 Y24.102 I0.15 J-0.0001
G2 X123.4428 Y23.474 I-1.8526 J-0.0158
G2 X123.126 Y22.9224 I-1.7246 J0.6237
G3 X123.1257 Y22.922 I0.1151 J-0.0961
G2 X122.6224 Y22.4794 I-1.6433 J1.3615
G2 X122.0057 Y22.206 I-1.2576 J2.0045
G3 X121.9216 Y21.9783 I0.0406 J-0.1444
G1 X123.4436 Y19.7007
G1 X122.8937
G1 X121.405 Y21.9603
G3 X121.2797 Y22.0278 I-0.1253 J-0.0825
G1 X120.1729
G3 X120.0267 Y21.9115 I0.0 J-0.15
G1 X119.5176 Y19.7007
G1 X119.0433
G1 X120.3157 Y25.2244
G1 X120.718
G0 Z3.0
G0 X120.5328 Y24.9844
G0 Z0.5
G1 F300.0 Z-1.0
G3 F800.0 X120.4934 Y24.9266 I0.3011 J-0.2475
G1 X120.5067 Y24.9844
G1 X120.5328
G0 Z3.0
G0 X122.8222 Y24.8439
G0 Z0.5
G1 F300.0 Z-1.0
G2 F800.0 X123.0 Y24.7408 I-0.4504 J-0.982
G2 X123.2294 Y24.4835 I-0.4658 J-0.646
G2 X123.2867 Y24.3218 I-0.5125 J-0.2728
G2 X123.3068 Y24.1035 I-1.1693 J-0.2177
G3 Y24.1 I0.39 J-0.0002
G2 X123.2167 Y23.5545 I-1.6126 J-0.0137
G2 X123.1956 Y23.4996 I-1.4984 J0.5432
G3 X123.2457 Y23.928 I-1.7792 J0.425
G3 X123.2456 Y23.9332 I-0.3898 J-0.0007
G3 X123.2287 Y24.1581 I-1.8779 J-0.0285
G3 X123.2276 Y24.1658 I-0.3862 J-0.0526
G3 X123.152 Y24.4298 I-1.1022 J-0.1724
G3 X123.1502 Y24.4341 I-0.3587 J-0.1525
G3 X122.8409 Y24.8295 I-0.9295 J-0.4083
G3 X122.8222 Y24.8439 I-0.7754 J-0.9901
G0 Z3.0
G0 X121.6638 Y22.1376
G0 Z0.5
G1 F300.0 Z-1.0
G3 F800.0 X121.6598 Y22.0099 I0.3825 J-0.076
G1 X121.6054 Y22.0924
G3 X121.5799 Y22.1268 I-0.3257 J-0.2146
G3 X121.6638 Y22.1376 I-0.2493 J2.2569
G0 Z3.0
G0 X120.0194 Y22.2363
G0 Z0.5
G1 F300.0 Z-1.0
G3 F800.0 X119.8366 Y22.0753 I0.1535 J-0.3585
G1 X119.9252 Y22.4601
G3 X120.0194 Y22.2363 I0.3885 J0.0318
G1 F300.0 X120.11 Y22.315
G3 F800.0 X120.3137 Y22.2221 I0.2037 J0.1769
G1 X121.1346
G3 X121.4888 Y22.238 I0.0108 J3.7231
G3 X121.5457 Y22.2438 I-0.0332 J0.6033
G3 X121.8659 Y22.3007 I-0.2151 J2.1398
G3 X122.4755 Y22.5939 I-0.3992 J1.6102
G3 X122.9564 Y23.1829 I-0.9652 J1.2789
G3 X123.1257 Y23.9278 I-1.54 J0.7416
G3 Y23.9314 I-0.2698 J-0.0005
G3 X123.1098 Y24.1419 I-1.758 J-0.0267
G3 X123.109 Y24.1472 I-0.2673 J-0.0364
G3 X123.0416 Y24.3829 I-0.9836 J-0.1539
G3 X123.0403 Y24.3858 I-0.2483 J-0.1055
G3 X122.7672 Y24.7348 I-0.8196 J-0.3601
G3 X122.2965 Y24.9533 I-0.7018 J-0.8954
G3 X122.1391 Y24.9808 I-0.3054 J-1.285
G3 X121.7093 Y25.0066 I-0.4132 J-3.2833
G1 X120.8339
G3 X120.5711 Y24.7978 I0.0 J-0.2698
G1 X120.0509 Y22.5528
G3 X120.11 Y22.315 I0.2628 J-0.0609
G1 F300.0 X120.2004 Y22.3935
G3 F800.0 X120.3137 Y22.3419 I0.1133 J0.0983
G1 X121.1348
G3 X121.48 Y22.3574 I0.0107 J3.6033
G3 X121.5306 Y22.3627 I-0.0245 J0.4838
G3 X121.8366 Y22.4168 I-0.2 J2.021
G3 X122.4031 Y22.6893 I-0.3698 J1.4941
G3 X122.8484 Y23.2347 I-0.8927 J1.1835
G3 X123.0059 Y23.9276 I-1.432 J0.6898
G3 Y23.9296 I-0.15 J-0.0003
G3 X122.9911 Y24.1258 I-1.6382 J-0.0249
G3 X122.9907 Y24.1287 I-0.1486 J-0.0202
G3 X122.9314 Y24.336 I-0.8653 J-0.1354
G3 X122.9307 Y24.3377 I-0.138 J-0.0587
G3 X122.6937 Y24.6402 I-0.7099 J-0.3119
G3 X122.2705 Y24.8364 I-0.6283 J-0.8008
G3 X122.1249 Y24.8619 I-0.2794 J-1.168
G3 X121.7096 Y24.8869 I-0.399 J-3.1644
G1 X120.8339
G3 X120.6877 Y24.7707 I0.0 J-0.15
G1 X120.1675 Y22.5257
G3 X120.2004 Y22.3935 I0.1461 J-0.0339
G0 Z3.0
G0 Y22.1478
G0 Z0.5
G1 F300.0 Z-1.0
G1 F800.0 X120.1729
G3 X119.9097 Y21.9384 I0.0 J-0.27
G1 X119.4221 Y19.8207
G1 X119.1941
G1 X120.4112 Y25.1044
G1 X121.784
G2 X122.2014 Y25.0914 I-0.0127 J-7.0935
G2 X122.5976 Y25.0408 I-0.2005 J-3.1502
G3 X122.5978 I0.051 J0.2651
G2 X123.07 Y24.8383 I-0.226 J-1.1789
G2 X123.3347 Y24.541 I-0.5358 J-0.7435
G2 X123.4046 Y24.3442 I-0.6178 J-0.3303
G2 X123.4268 Y24.1034 I-1.2872 J-0.2401
G3 Y24.101 I0.27 J-0.0001
G2 X123.3298 Y23.5142 I-1.7326 J-0.0147
G2 X123.0339 Y22.9993 I-1.6115 J0.5834
G3 X123.0333 Y22.9985 I0.2073 J-0.173
G2 X122.5584 Y22.581 I-1.5509 J1.2849
G2 X121.9732 Y22.3216 I-1.1937 J1.9029
G3 X121.8218 Y21.9116 I0.0731 J-0.2599
G1 X123.2191 Y19.8207
G1 X122.9584
G1 X121.5052 Y22.0264
G3 X121.2797 Y22.1478 I-0.2255 J-0.1485
G1 X120.2004
G1 F300.0 Y22.0278
G1 F800.0 X120.1729
G3 X120.0267 Y21.9115 I0.0 J-0.15
G1 X119.5176 Y19.7007
G1 X119.0433
G1 X120.3157 Y25.2244
G1 X121.7841
G2 X122.2088 Y25.2111 I-0.0128 J-7.2135
G2 X122.6203 Y25.1587 I-0.208 J-3.27
G3 X122.6204 Y25.1586 I0.0284 J0.1473
G2 X123.14 Y24.9357 I-0.2486 J-1.2967
G2 X123.44 Y24.5985 I-0.6058 J-0.8409
G2 X123.5225 Y24.3667 I-0.7231 J-0.3879
G2 X123.5468 Y24.1034 I-1.4051 J-0.2626
G3 Y24.102 I0.15 J-0.0001
G2 X123.4428 Y23.474 I-1.8526 J-0.0158
G2 X123.126 Y22.9224 I-1.7246 J0.6237
G3 X123.1257 Y22.922 I0.1151 J-0.0961
G2 X122.6224 Y22.4794 I-1.6433 J1.3615
G2 X122.0057 Y22.206 I-1.2576 J2.0045
G3 X121.9216 Y21.9783 I0.0406 J-0.1444
G1 X123.4436 Y19.7007
G1 X122.8937
G1 X121.405 Y21.9603
G3 X121.2797 Y22.0278 I-0.1253 J-0.0825
G1 X120.2004
G0 Z3.0
G0 X125.069 Y21.8183
G0 Z1.0
G1 F300.0 Z-0.5
G2 F800.0 X125.1164 Y22.3129 I4.7223 J-0.2032
G3 X125.1165 Y22.3135 I-0.3857 J0.0576
G2 X125.2592 Y22.9223 I3.704 J-0.5469
G3 X125.1023 Y21.7395 I4.3585 J-1.1798
G3 X125.1992 Y20.9779 I2.7566 J-0.0361
G3 X125.6041 Y20.2374 I1.7431 J0.4722
G3 X125.6069 Y20.2344 I0.2888 J0.2617
G3 X125.7097 Y20.1326 I1.2157 J1.1251
G2 X125.5333 Y20.278 I0.845 J1.205
G2 X125.1724 Y20.865 I1.0054 J1.0226
G2 X125.0896 Y21.2296 I2.0908 J0.6667
G2 X125.0646 Y21.613 I2.6387 J0.3642
G3 Y21.6157 I-0.39 J0.0028
G2 X125.069 Y21.8183 I4.7267 J-0.0006
G0 Z3.0
G0 X129.7493 Y22.2715
G0 Z1.0
G1 F300.0 Z-0.5
G3 F800.0 X129.7937 Y22.5421 I-3.9934 J0.794
G3 X129.836 Y23.1991 I-5.0569 J0.6558
G3 X129.8346 Y23.3018 I-1.4182 J0.0322
G3 X129.8051 Y23.6479 I-3.1339 J-0.0929
G3 X129.6562 Y24.1911 I-2.1692 J-0.3028
G3 X129.3306 Y24.6955 I-1.5752 J-0.6596
G3 X129.3295 Y24.6966 I-0.2852 J-0.2657
G3 X129.2454 Y24.7801 I-1.2184 J-1.1438
G2 X129.4028 Y24.6493 I-0.8586 J-1.1938
G2 X129.7654 Y24.065 I-0.9785 J-1.0118
G3 X129.7662 Y24.0623 I0.3716 J0.1184
G2 X129.848 Y23.7046 I-1.9206 J-0.6274
G1 X129.8603 Y23.6005
G2 X129.8737 Y23.317 I-2.4808 J-0.259
G3 Y23.3122 I0.39 J-0.0038
G2 X129.7493 Y22.2715 I-4.325 J-0.0108
G1 F300.0 X129.6316 Y22.2949
G3 F800.0 X129.6747 Y22.5575 I-3.8757 J0.7706
G3 X129.716 Y23.2004 I-4.9379 J0.6404
G3 X129.7147 Y23.297 I-1.2982 J0.0308
G3 X129.6863 Y23.6312 I-3.014 J-0.0881
G3 X129.5455 Y24.1448 I-2.0503 J-0.2861
G3 X129.2427 Y24.6137 I-1.4645 J-0.6133
G3 X129.242 Y24.6145 I-0.1974 J-0.1839
G3 X128.6191 Y25.0184 I-1.1309 J-1.0616
G3 X128.6164 Y25.0194 I-0.0883 J-0.2549
G3 X127.9232 Y25.1279 I-0.6668 J-1.9909
G3 X127.3402 Y25.059 I-0.0026 J-2.4787
G3 X127.3383 Y25.0585 I0.0632 J-0.2623
G3 X126.7825 Y24.8365 I0.5299 J-2.1337
G3 X126.7814 Y24.8359 I0.1332 J-0.2346
G3 X125.9234 Y24.0667 I1.378 J-2.4003
G3 X125.9218 Y24.0645 I0.2179 J-0.159
G3 X125.4011 Y22.9835 I2.8654 J-2.0459
G3 X125.2223 Y21.7387 I4.2165 J-1.241
G3 X125.315 Y21.0094 I2.6366 J-0.0353
G3 X125.6931 Y20.318 I1.6273 J0.4407
G3 X125.695 Y20.3159 I0.1999 J0.1811
G3 X126.32 Y19.9076 I1.1276 J1.0436
G3 X126.6697 Y19.8218 I0.6169 J1.7594
G3 X126.8451 Y19.803 I0.3142 J2.0962
G3 X126.8491 Y19.8027 I0.0177 J0.2692
G1 X126.9264 Y19.7988
G3 X126.9356 Y19.7985 I0.0137 J0.2694
G1 X127.013 Y19.7972
G3 X127.0145 I0.0044 J0.2697
G3 X128.1517 Y20.0854 I0.025 J2.2891
G3 X128.1529 Y20.0861 I-0.1311 J0.2358
G3 X128.9991 Y20.8386 I-1.3049 J2.3195
G3 X129.5363 Y21.915 I-2.8597 J2.0993
G3 X129.6316 Y22.2949 I-3.7804 J1.1505
G1 F300.0 X129.5141 Y22.3183
G3 F800.0 X129.5559 Y22.5729 I-3.7582 J0.7473
G3 X129.5963 Y23.2018 I-4.8192 J0.625
G3 X129.595 Y23.2922 I-1.1785 J0.0294
G3 X129.5677 Y23.6146 I-2.8944 J-0.0833
G3 X129.435 Y24.0985 I-1.9317 J-0.2694
G3 X129.1551 Y24.5321 I-1.3541 J-0.567
G3 X129.1547 Y24.5325 I-0.1098 J-0.1022
G3 X128.5799 Y24.9053 I-1.0436 J-0.9797
G3 X128.5784 Y24.9058 I-0.0491 J-0.1417
G3 X127.9239 Y25.0081 I-0.6288 J-1.8774
G3 X127.3682 Y24.9425 I-0.0033 J-2.359
G3 X127.3672 Y24.9423 I0.0351 J-0.1458
G3 X126.8416 Y24.7324 I0.5011 J-2.0174
G3 X126.841 Y24.732 I0.0741 J-0.1304
G3 X126.0201 Y23.9961 I1.3184 J-2.2965
G3 X126.0192 Y23.9949 I0.1212 J-0.0884
G3 X125.5162 Y22.9501 I2.7679 J-1.9763
G3 X125.3421 Y21.738 I4.1015 J-1.2077
G3 X125.4306 Y21.0408 I2.5169 J-0.0346
G3 X125.7818 Y20.3984 I1.5118 J0.4093
G3 X125.7829 Y20.3972 I0.1112 J0.1007
G3 X126.3594 Y20.0207 I1.0397 J0.9622
G3 X126.6871 Y19.9403 I0.5775 J1.6463
G3 X126.8529 Y19.9225 I0.2967 J1.9777
G3 X126.8552 Y19.9223 I0.0098 J0.1497
G1 X126.9324 Y19.9184
G3 X126.9376 Y19.9182 I0.0076 J0.1498
G1 X127.015 Y19.917
G3 X127.0158 I0.0025 J0.15
G3 X128.0935 Y20.1901 I0.0237 J2.1694
G3 X128.0942 Y20.1904 I-0.0729 J0.1311
G3 X128.9024 Y20.9093 I-1.2462 J2.2151
G3 X129.4216 Y21.9497 I-2.763 J2.0286
G3 X129.5141 Y22.3183 I-3.6657 J1.1158
G0 Z3.0
G0 X129.8631 Y22.2318
G0 Z1.0
G1 F300.0 Z-0.5
G2 F800.0 X129.778 Y21.9335 I-4.3144 J1.0697
G3 X129.7775 Y21.9319 I0.2569 J-0.0831
G2 X129.1612 Y20.7794 I-3.3948 J1.0742
G2 X128.1796 Y19.9858 I-2.3039 J1.8459
G2 X127.557 Y19.7676 I-1.1764 J2.359
G2 X126.8894 Y19.6994 I-0.6612 J3.1728
G2 X126.4816 Y19.7255 I0.0207 J3.5299
G2 X125.9182 Y19.8787 I0.2553 J2.0515
G2 X125.4496 Y20.192 I0.6365 J1.459
G2 X125.0581 Y20.8285 I1.0891 J1.1086
G1 Y20.8286
G2 X124.9707 Y21.2132 I2.2051 J0.7032
G2 X124.9446 Y21.6138 I2.7576 J0.3806
G3 Y21.6157 I-0.27 J0.0019
G2 X124.9977 Y22.3306 I4.8467 J-0.0006
G3 X124.9978 Y22.3311 I-0.267 J0.0399
G2 X125.1647 Y23.0185 I3.8227 J-0.5644
G3 X125.1653 Y23.0202 I-0.2554 J0.0875
G2 X125.795 Y24.171 I3.5176 J-1.1771
G2 X126.7701 Y24.9381 I2.2631 J-1.8735
G3 X126.7723 Y24.9392 I-0.1184 J0.2427
G2 X127.3876 Y25.1558 I1.1739 J-2.3524
G2 X128.0458 Y25.2257 I0.6554 J-3.0413
G3 X128.0477 I0.0002 J0.27
G2 X128.4494 Y25.2001 I0.0175 J-2.8903
G3 X128.4515 Y25.1998 I0.0359 J0.2676
G2 X129.0162 Y25.047 I-0.2646 J-2.0975
G2 X129.486 Y24.7359 I-0.6295 J-1.4606
G2 X129.8797 Y24.1014 I-1.0616 J-1.0983
G3 X129.8803 Y24.0996 I0.2573 J0.082
G2 X129.9671 Y23.7196 I-2.0347 J-0.6646
G1 X129.9796 Y23.6138
G2 X129.9937 Y23.3159 I-2.6001 J-0.2723
G3 Y23.3125 I0.27 J-0.0026
G2 X129.8631 Y22.2318 I-4.445 J-0.0111
G1 F300.0 X129.9796 Y22.2029
G2 F800.0 X129.8922 Y21.8966 I-4.4308 J1.0985
G3 X129.8919 Y21.8957 I0.1427 J-0.0462
G2 X129.2549 Y20.7044 I-3.5092 J1.1104
G2 X128.2332 Y19.8785 I-2.3976 J1.9209
G2 X127.5818 Y19.6502 I-1.23 J2.4663
G2 X126.8889 Y19.5794 I-0.686 J3.2902
G2 X126.467 Y19.6064 I0.0212 J3.6499
G2 X125.8705 Y19.7686 I0.2699 J2.1706
G2 X125.3659 Y20.106 I0.6843 J1.5691
G2 X124.9437 Y20.7921 I1.1728 J1.1946
G2 X124.8518 Y21.1967 I2.3194 J0.7396
G2 X124.8246 Y21.6147 I2.8764 J0.3971
G3 Y21.6158 I-0.15 J0.0011
G2 X124.879 Y22.3484 I4.9667 J-0.0006
G3 X124.8791 Y22.3486 I-0.1484 J0.0221
G2 X125.0512 Y23.0573 I3.9414 J-0.5819
G3 X125.0515 Y23.0583 I-0.1419 J0.0486
G2 X125.7021 Y24.247 I3.6314 J-1.2152
G2 X126.7175 Y25.046 I2.3561 J-1.9494
G3 X126.7187 Y25.0466 I-0.0658 J0.1348
G2 X127.3623 Y25.2731 I1.2275 J-2.4598
G2 X128.0459 Y25.3457 I0.6808 J-3.1586
G3 X128.047 I0.0001 J0.15
G2 X128.4654 Y25.319 I0.0182 J-3.0103
G3 X128.4665 Y25.3188 I0.0199 J0.1487
G2 X129.0635 Y25.1573 I-0.2796 J-2.2165
G2 X129.5691 Y24.8224 I-0.6767 J-1.5709
G2 X129.9941 Y24.1379 I-1.1448 J-1.1848
G3 X129.9944 Y24.1368 I0.1429 J0.0455
G2 X130.0862 Y23.7346 I-2.1488 J-0.7019
G1 X130.0989 Y23.6271
G2 X130.1137 Y23.3147 I-2.7193 J-0.2856
G3 Y23.3128 I0.15 J-0.0015
G2 X129.9796 Y22.2029 I-4.565 J-0.0114
G0 Z3.0
G0 X129.7493 Y22.2715
G0 Z0.5
G1 F300.0 Z-1.0
G3 F800.0 X129.7937 Y22.5421 I-3.9934 J0.794
G3 X129.836 Y23.1991 I-5.0569 J0.6558
G3 X129.8346 Y23.3018 I-1.4182 J0.0322
G3 X129.8051 Y23.6479 I-3.1339 J-0.0929
G3 X129.6562 Y24.1911 I-2.1692 J-0.3028
G3 X129.3306 Y24.6955 I-1.5752 J-0.6596
G3 X129.3295 Y24.6966 I-0.2852 J-0.2657
G3 X129.2454 Y24.7801 I-1.2184 J-1.1438
G2 X129.4028 Y24.6493 I-0.8586 J-1.1938
G2 X129.7654 Y24.065 I-0.9785 J-1.0118
G3 X129.7662 Y24.0623 I0.3716 J0.1184
G2 X129.848 Y23.7046 I-1.9206 J-0.6274
G1 X129.8603 Y23.6005
G2 X129.8737 Y23.317 I-2.4808 J-0.259
G3 Y23.3122 I0.39 J-0.0038
G2 X129.7493 Y22.2715 I-4.325 J-0.0108
G0 Z3.0
G0 X125.2592 Y22.9223
G0 Z0.5
G1 F300.0 Z-1.0
G3 F800.0 X125.1023 Y21.7395 I4.3585 J-1.1798
G3 X125.1992 Y20.9779 I2.7566 J-0.0361
G3 X125.6041 Y20.2374 I1.7431 J0.4722
G3 X125.6069 Y20.2344 I0.2888 J0.2617
G3 X125.7097 Y20.1326 I1.2157 J1.1251
G2 X125.5333 Y20.278 I0.845 J1.205
G2 X125.1724 Y20.865 I1.0054 J1.0226
G2 X125.0896 Y21.2296 I2.0908 J0.6667
G2 X125.0646 Y21.613 I2.6387 J0.3642
G3 Y21.6157 I-0.39 J0.0028
G2 X125.1164 Y22.3129 I4.7267 J-0.0006
G3 X125.1165 Y22.3135 I-0.3857 J0.0576
G2 X125.2592 Y22.9223 I3.704 J-0.5469
G1 F300.0 X125.375 Y22.8909
G3 F800.0 X125.2223 Y21.7387 I4.2426 J-1.1485
G3 X125.315 Y21.0094 I2.6366 J-0.0353
G3 X125.6931 Y20.318 I1.6273 J0.4407
G3 X125.695 Y20.3159 I0.1999 J0.1811
G3 X126.32 Y19.9076 I1.1276 J1.0436
G3 X126.6697 Y19.8218 I0.6169 J1.7594
G3 X126.8451 Y19.803 I0.3142 J2.0962
G3 X126.8491 Y19.8027 I0.0177 J0.2692
G1 X126.9264 Y19.7988
G3 X126.9356 Y19.7985 I0.0137 J0.2694
G1 X127.013 Y19.7972
G3 X127.0145 I0.0044 J0.2697
G3 X128.1517 Y20.0854 I0.025 J2.2891
G3 X128.1529 Y20.0861 I-0.1311 J0.2358
G3 X128.9991 Y20.8386 I-1.3049 J2.3195
G3 X129.5363 Y21.915 I-2.8597 J2.0993
G3 X129.6747 Y22.5575 I-3.7804 J1.1505
G3 X129.716 Y23.2004 I-4.9379 J0.6404
G3 X129.7147 Y23.297 I-1.2982 J0.0308
G3 X129.6863 Y23.6312 I-3.014 J-0.0881
G3 X129.5455 Y24.1448 I-2.0503 J-0.2861
G3 X129.2427 Y24.6137 I-1.4645 J-0.6133
G3 X129.242 Y24.6145 I-0.1974 J-0.1839
G3 X128.6191 Y25.0184 I-1.1309 J-1.0616
G3 X128.6164 Y25.0194 I-0.0883 J-0.2549
G3 X127.9232 Y25.1279 I-0.6668 J-1.9909
G3 X127.3402 Y25.059 I-0.0026 J-2.4787
G3 X127.3383 Y25.0585 I0.0632 J-0.2623
G3 X126.7825 Y24.8365 I0.5299 J-2.1337
G3 X126.7814 Y24.8359 I0.1332 J-0.2346
G3 X125.9234 Y24.0667 I1.378 J-2.4003
G3 X125.9218 Y24.0645 I0.2179 J-0.159
G3 X125.4011 Y22.9835 I2.8654 J-2.0459
G3 X125.375 Y22.8909 I4.2165 J-1.241
G1 F300.0 X125.4906 Y22.8597
G3 F800.0 X125.3421 Y21.738 I4.1271 J-1.1172
G3 X125.4306 Y21.0408 I2.5169 J-0.0346
G3 X125.7818 Y20.3984 I1.5118 J0.4093
G3 X125.7829 Y20.3972 I0.1112 J0.1007
G3 X126.3594 Y20.0207 I1.0397 J0.9622
G3 X126.6871 Y19.9403 I0.5775 J1.6463
G3 X126.8529 Y19.9225 I0.2967 J1.9777
G3 X126.8552 Y19.9223 I0.0098 J0.1497
G1 X126.9324 Y19.9184
G3 X126.9376 Y19.9182 I0.0076 J0.1498
G1 X127.015 Y19.917
G3 X127.0158 I0.0025 J0.15
G3 X128.0935 Y20.1901 I0.0237 J2.1694
G3 X128.0942 Y20.1904 I-0.0729 J0.1311
G3 X128.9024 Y20.9093 I-1.2462 J2.2151
G3 X129.4216 Y21.9497 I-2.763 J2.0286
G3 X129.5559 Y22.5729 I-3.6657 J1.1158
G3 X129.5963 Y23.2018 I-4.8192 J0.625
G3 X129.595 Y23.2922 I-1.1785 J0.0294
G3 X129.5677 Y23.6146 I-2.8944 J-0.0833
G3 X129.435 Y24.0985 I-1.9317 J-0.2694
G3 X129.1551 Y24.5321 I-1.3541 J-0.567
G3 X129.1547 Y24.5325 I-0.1098 J-0.1022
G3 X128.5799 Y24.9053 I-1.0436 J-0.9797
G3 X128.5784 Y24.9058 I-0.0491 J-0.1417
G3 X127.9239 Y25.0081 I-0.6288 J-1.8774
G3 X127.3682 Y24.9425 I-0.0033 J-2.359
G3 X127.3672 Y24.9423 I0.0351 J-0.1458
G3 X126.8416 Y24.7324 I0.5011 J-2.0174
G3 X126.841 Y24.732 I0.0741 J-0.1304
G3 X126.0201 Y23.9961 I1.3184 J-2.2965
G3 X126.0192 Y23.9949 I0.1212 J-0.0884
G3 X125.5162 Y22.9501 I2.7679 J-1.9763
G3 X125.4906 Y22.8597 I4.1015 J-1.2077
G0 Z3.0
G0 X125.1491 Y22.9718
G0 Z0.5
G1 F300.0 Z-1.0
G2 F800.0 X125.1647 Y23.0185 I3.6714 J-1.2051
G3 X125.1653 Y23.0202 I-0.2554 J0.0875
G2 X125.795 Y24.171 I3.5176 J-1.1771
G2 X126.7701 Y24.9381 I2.2631 J-1.8735
G3 X126.7723 Y24.9392 I-0.1184 J0.2427
G2 X127.3876 Y25.1558 I1.1739 J-2.3524
G2 X128.0458 Y25.2257 I0.6554 J-3.0413
G3 X128.0477 I0.0002 J0.27
G2 X128.4494 Y25.2001 I0.0175 J-2.8903
G3 X128.4515 Y25.1998 I0.0359 J0.2676
G2 X129.0162 Y25.047 I-0.2646 J-2.0975
G2 X129.486 Y24.7359 I-0.6295 J-1.4606
G2 X129.8797 Y24.1014 I-1.0616 J-1.0983
G3 X129.8803 Y24.0996 I0.2573 J0.082
G2 X129.9671 Y23.7196 I-2.0347 J-0.6646
G1 X129.9796 Y23.6138
G2 X129.9937 Y23.3159 I-2.6001 J-0.2723
G3 Y23.3125 I0.27 J-0.0026
G2 X129.778 Y21.9335 I-4.445 J-0.0111
G3 X129.7775 Y21.9319 I0.2569 J-0.0831
G2 X129.1612 Y20.7794 I-3.3948 J1.0742
G2 X128.1796 Y19.9858 I-2.3039 J1.8459
G2 X127.557 Y19.7676 I-1.1764 J2.359
G2 X126.8894 Y19.6994 I-0.6612 J3.1728
G2 X126.4816 Y19.7255 I0.0207 J3.5299
G2 X125.9182 Y19.8787 I0.2553 J2.0515
G2 X125.4496 Y20.192 I0.6365 J1.459
G2 X125.0581 Y20.8285 I1.0891 J1.1086
G1 Y20.8286
G2 X124.9707 Y21.2132 I2.2051 J0.7032
G2 X124.9446 Y21.6138 I2.7576 J0.3806
G3 Y21.6157 I-0.27 J0.0019
G2 X124.9977 Y22.3306 I4.8467 J-0.0006
G3 X124.9978 Y22.3311 I-0.267 J0.0399
G2 X125.1491 Y22.9718 I3.8227 J-0.5644
G1 F300.0 X125.0351 Y23.0092
G2 F800.0 X125.0512 Y23.0573 I3.7854 J-1.2425
G3 X125.0515 Y23.0583 I-0.1419 J0.0486
G2 X125.7021 Y24.247 I3.6314 J-1.2152
G2 X126.7175 Y25.046 I2.3561 J-1.9494
G3 X126.7187 Y25.0466 I-0.0658 J0.1348
G2 X127.3623 Y25.2731 I1.2275 J-2.4598
G2 X128.0459 Y25.3457 I0.6808 J-3.1586
G3 X128.047 I0.0001 J0.15
G2 X128.4654 Y25.319 I0.0182 J-3.0103
G3 X128.4665 Y25.3188 I0.0199 J0.1487
G2 X129.0635 Y25.1573 I-0.2796 J-2.2165
G2 X129.5691 Y24.8224 I-0.6767 J-1.5709
G2 X129.9941 Y24.1379 I-1.1448 J-1.1848
G3 X129.9944 Y24.1368 I0.1429 J0.0455
G2 X130.0862 Y23.7346 I-2.1488 J-0.7019
G1 X130.0989 Y23.6271
G2 X130.1137 Y23.3147 I-2.7193 J-0.2856
G3 Y23.3128 I0.15 J-0.0015
G2 X129.8922 Y21.8966 I-4.565 J-0.0114
G3 X129.8919 Y21.8957 I0.1427 J-0.0462
G2 X129.2549 Y20.7044 I-3.5092 J1.1104
G2 X128.2332 Y19.8785 I-2.3976 J1.9209
G2 X127.5818 Y19.6502 I-1.23 J2.4663
G2 X126.8889 Y19.5794 I-0.686 J3.2902
G2 X126.467 Y19.6064 I0.0212 J3.6499
G2 X125.8705 Y19.7686 I0.2699 J2.1706
G2 X125.3659 Y20.106 I0.6843 J1.5691
G2 X124.9437 Y20.7921 I1.1728 J1.1946
G2 X124.8518 Y21.1967 I2.3194 J0.7396
G2 X124.8246 Y21.6147 I2.8764 J0.3971
G3 Y21.6158 I-0.15 J0.0011
G2 X124.879 Y22.3484 I4.9667 J-0.0006
G3 X124.8791 Y22.3486 I-0.1484 J0.0221
G2 X125.0351 Y23.0092 I3.9414 J-0.5819
G0 Z3.0
G0 X127.6077 Y27.6121
G0 Z1.0
G1 F300.0 Z-0.5
G2 F800.0 X127.4574 Y27.7239 I0.5393 J0.8825
G2 X127.2066 Y28.1007 I0.6509 J0.7051
G2 X127.1261 Y28.5993 I1.3824 J0.479
G3 X127.1262 Y28.6054 I-0.39 J0.0052
G2 X127.1552 Y29.0096 I2.7533 J0.0055
G1 X127.1927 Y29.2247
G1 X127.2133 Y29.3246
G3 X127.181 Y29.1075 I3.6497 J-0.6543
G3 X127.1807 Y29.1046 I0.3873 J-0.046
G1 X127.1612 Y28.9293
G3 X127.1564 Y28.8754 I0.5379 J-0.0745
G1 X127.1515 Y28.8031
G3 X127.1508 Y28.7875 I0.3891 J-0.0266
G1 X127.1485 Y28.7074
G3 X127.1484 Y28.7029 I0.3898 J-0.011
G3 X127.2339 Y28.1544 I1.6282 J-0.0271
G3 X127.235 Y28.151 I0.3695 J0.1249
G3 X127.5779 Y27.6372 I1.1633 J0.405
G3 X127.5851 Y27.6309 I0.2598 J0.2909
G3 X127.6077 Y27.6121 I0.9021 J1.0616
G1 F300.0 X127.6835 Y27.7052
G3 F800.0 X128.1983 Y27.4526 I0.8037 J0.9874
G3 X128.7332 Y27.3927 I0.5024 J2.0685
G3 X129.156 Y27.4257 I0.01 J2.5949
G3 X129.5824 Y27.5438 I-0.315 J1.9665
G3 X129.5838 Y27.5444 I-0.1005 J0.2506
G3 X130.2452 Y28.0088 I-0.6827 J1.6756
G3 X130.2478 Y28.0117 I-0.2006 J0.1807
G3 X130.6379 Y28.6316 I-1.7589 J1.5395
G3 X130.7137 Y28.8247 I-2.8242 J1.2206
G3 X130.8788 Y29.4037 I-4.4172 J1.5728
G1 X131.6643 Y32.8084
G1 X131.9081
G1 X131.1625 Y29.5833
G3 X131.1624 Y29.583 I0.2631 J-0.0608
G2 X131.0059 Y29.0292 I-5.6867 J1.3072
G3 Y29.0289 I0.2559 J-0.0861
G2 X130.7892 Y28.5083 I-3.7842 J1.2698
G2 X130.2252 Y27.8041 I-1.9437 J0.9786
G2 X129.5137 Y27.4118 I-1.4469 J1.7829
G2 X129.0692 Y27.3118 I-0.716 J2.1447
G3 X129.0661 Y27.3114 I0.0324 J-0.268
G2 X128.5941 Y27.2822 I-0.4444 J3.3502
G3 X128.591 I-0.0022 J-0.27
G2 X128.2485 Y27.2993 I-0.0117 J3.211
G3 X128.2466 Y27.2994 I-0.0278 J-0.2686
G2 X127.7648 Y27.4055 I0.1966 J2.041
G2 X127.3767 Y27.6351 I0.3822 J1.0891
G2 X127.0935 Y28.0605 I0.7316 J0.7939
G2 X127.0061 Y28.601 I1.4955 J0.5192
G3 X127.0062 Y28.6051 I-0.27 J0.0036
G2 X127.0367 Y29.0286 I2.8733 J0.0058
G1 X127.0748 Y29.2472
G1 X127.1197 Y29.4648
G1 X127.8927 Y32.8084
G1 X128.1368
G1 X127.3836 Y29.546
G3 X127.3002 Y29.0934 I3.4794 J-0.8757
G3 X127.2999 Y29.0914 I0.2681 J-0.0318
G1 X127.2803 Y28.9143
G3 X127.2763 Y28.8692 I0.4188 J-0.0595
G1 X127.2712 Y28.7949
G3 X127.2707 Y28.7841 I0.2694 J-0.0184
G1 X127.2684 Y28.704
G3 Y28.7009 I0.2699 J-0.0076
G3 X127.3476 Y28.1928 I1.5082 J-0.0251
G3 X127.3484 Y28.1905 I0.2558 J0.0864
G3 X127.6578 Y27.7267 I1.05 J0.3656
G3 X127.6628 Y27.7224 I0.1798 J0.2014
G3 X127.6835 Y27.7052 I0.8244 J0.9702
G1 F300.0 X127.7592 Y27.7982
G3 F800.0 X128.2261 Y27.5694 I0.728 J0.8943
G3 X128.7325 Y27.5127 I0.4747 J1.9517
G3 X129.1369 Y27.5442 I0.0107 J2.4749
G3 X129.5378 Y27.6552 I-0.2959 J1.848
G3 X129.5385 Y27.6555 I-0.0558 J0.1392
G3 X130.1561 Y28.0891 I-0.6375 J1.5645
G3 X130.1575 Y28.0907 I-0.1114 J0.1004
G3 X130.5277 Y28.679 I-1.6686 J1.4605
G3 X130.6006 Y28.8648 I-2.714 J1.1732
G3 X130.7617 Y29.4299 I-4.3041 J1.5326
G1 X131.5688 Y32.9284
G1 X132.059
G1 X131.2794 Y29.5563
G3 X131.2793 Y29.5561 I0.1461 J-0.0338
G2 X131.1197 Y28.9909 I-5.8037 J1.3341
G3 X131.1196 Y28.9908 I0.1422 J-0.0478
G2 X130.8964 Y28.4544 I-3.898 J1.308
G2 X130.301 Y27.7111 I-2.0509 J1.0325
G2 X129.5519 Y27.2981 I-1.5227 J1.8759
G2 X129.0836 Y27.1927 I-0.7542 J2.2585
G3 X129.0819 Y27.1925 I0.018 J-0.1489
G2 X128.5932 Y27.1622 I-0.4602 J3.4692
G3 X128.5914 I-0.0012 J-0.15
G2 X128.2362 Y27.1799 I-0.0121 J3.331
G3 X128.2351 Y27.18 I-0.0154 J-0.1492
G2 X127.7251 Y27.2922 I0.2082 J2.1605
G2 X127.296 Y27.5462 I0.422 J1.2023
G2 X126.9805 Y28.0204 I0.8124 J0.8827
G2 X126.8861 Y28.6026 I1.6085 J0.5593
G3 X126.8862 Y28.6049 I-0.15 J0.002
G2 X126.9182 Y29.0477 I2.9933 J0.006
G1 X126.9569 Y29.2696
G1 X127.0024 Y29.4905
G1 X127.7973 Y32.9284
G1 X128.2876
G1 X127.5003 Y29.5178
G3 X127.4193 Y29.0792 I3.3627 J-0.8475
G3 X127.4192 Y29.0781 I0.149 J-0.0177
G1 X127.3993 Y28.8991
G3 X127.3962 Y28.8632 I0.2998 J-0.0443
G1 X127.3909 Y28.7867
G3 X127.3907 Y28.7807 I0.1497 J-0.0102
G1 X127.3884 Y28.7006
G3 Y28.6989 I0.1499 J-0.0042
G3 X127.4612 Y28.2312 I1.3882 J-0.0231
G3 X127.4617 Y28.2299 I0.1421 J0.048
G3 X127.7377 Y27.8162 I0.9366 J0.3261
G3 X127.7405 Y27.8138 I0.0999 J0.1119
G3 X127.7592 Y27.7982 I0.7467 J0.8787
G0 Z3.0
G0 X127.6077 Y27.6121
G0 Z0.5
G1 F300.0 Z-1.0
G2 F800.0 X127.4574 Y27.7239 I0.5393 J0.8825
G2 X127.2066 Y28.1007 I0.6509 J0.7051
G2 X127.1261 Y28.5993 I1.3824 J0.479
G3 X127.1262 Y28.6054 I-0.39 J0.0052
G2 X127.1552 Y29.0096 I2.7533 J0.0055
G1 X127.1927 Y29.2247
G1 X127.2133 Y29.3246
G3 X127.181 Y29.1075 I3.6497 J-0.6543
G3 X127.1807 Y29.1046 I0.3873 J-0.046
G1 X127.1612 Y28.9293
G3 X127.1564 Y28.8754 I0.5379 J-0.0745
G1 X127.1515 Y28.8031
G3 X127.1508 Y28.7875 I0.3891 J-0.0266
G1 X127.1485 Y28.7074
G3 X127.1484 Y28.7029 I0.3898 J-0.011
G3 X127.2339 Y28.1544 I1.6282 J-0.0271
G3 X127.235 Y28.151 I0.3695 J0.1249
G3 X127.5779 Y27.6372 I1.1633 J0.405
G3 X127.5851 Y27.6309 I0.2598 J0.2909
G3 X127.6077 Y27.6121 I0.9021 J1.0616
G1 F300.0 X127.6835 Y27.7052
G3 F800.0 X128.1983 Y27.4526 I0.8037 J0.9874
G3 X128.7332 Y27.3927 I0.5024 J2.0685
G3 X129.156 Y27.4257 I0.01 J2.5949
G3 X129.5824 Y27.5438 I-0.315 J1.9665
G3 X129.5838 Y27.5444 I-0.1005 J0.2506
G3 X130.2452 Y28.0088 I-0.6827 J1.6756
G3 X130.2478 Y28.0117 I-0.2006 J0.1807
G3 X130.6379 Y28.6316 I-1.7589 J1.5395
G3 X130.7137 Y28.8247 I-2.8242 J1.2206
G3 X130.8788 Y29.4037 I-4.4172 J1.5728
G1 X131.6643 Y32.8084
G1 X131.9081
G1 X131.1625 Y29.5833
G3 X131.1624 Y29.583 I0.2631 J-0.0608
G2 X131.0059 Y29.0292 I-5.6867 J1.3072
G3 Y29.0289 I0.2559 J-0.0861
G2 X130.7892 Y28.5083 I-3.7842 J1.2698
G2 X130.2252 Y27.8041 I-1.9437 J0.9786
G2 X129.5137 Y27.4118 I-1.4469 J1.7829
G2 X129.0692 Y27.3118 I-0.716 J2.1447
G3 X129.0661 Y27.3114 I0.0324 J-0.268
G2 X128.5941 Y27.2822 I-0.4444 J3.3502
G3 X128.591 I-0.0022 J-0.27
G2 X128.2485 Y27.2993 I-0.0117 J3.211
G3 X128.2466 Y27.2994 I-0.0278 J-0.2686
G2 X127.7648 Y27.4055 I0.1966 J2.041
G2 X127.3767 Y27.6351 I0.3822 J1.0891
G2 X127.0935 Y28.0605 I0.7316 J0.7939
G2 X127.0061 Y28.601 I1.4955 J0.5192
G3 X127.0062 Y28.6051 I-0.27 J0.0036
G2 X127.0367 Y29.0286 I2.8733 J0.0058
G1 X127.0748 Y29.2472
G1 X127.1197 Y29.4648
G1 X127.8927 Y32.8084
G1 X128.1368
G1 X127.3836 Y29.546
G3 X127.3002 Y29.0934 I3.4794 J-0.8757
G3 X127.2999 Y29.0914 I0.2681 J-0.0318
G1 X127.2803 Y28.9143
G3 X127.2763 Y28.8692 I0.4188 J-0.0595
G1 X127.2712 Y28.7949
G3 X127.2707 Y28.7841 I0.2694 J-0.0184
G1 X127.2684 Y28.704
G3 Y28.7009 I0.2699 J-0.0076
G3 X127.3476 Y28.1928 I1.5082 J-0.0251
G3 X127.3484 Y28.1905 I0.2558 J0.0864
G3 X127.6578 Y27.7267 I1.05 J0.3656
G3 X127.6628 Y27.7224 I0.1798 J0.2014
G3 X127.6835 Y27.7052 I0.8244 J0.9702
G1 F300.0 X127.7592 Y27.7982
G3 F800.0 X128.2261 Y27.5694 I0.728 J0.8943
G3 X128.7325 Y27.5127 I0.4747 J1.9517
G3 X129.1369 Y27.5442 I0.0107 J2.4749
G3 X129.5378 Y27.6552 I-0.2959 J1.848
G3 X129.5385 Y27.6555 I-0.0558 J0.1392
G3 X130.1561 Y28.0891 I-0.6375 J1.5645
G3 X130.1575 Y28.0907 I-0.1114 J0.1004
G3 X130.5277 Y28.679 I-1.6686 J1.4605
G3 X130.6006 Y28.8648 I-2.714 J1.1732
G3 X130.7617 Y29.4299 I-4.3041 J1.5326
G1 X131.5688 Y32.9284
G1 X132.059
G1 X131.2794 Y29.5563
G3 X131.2793 Y29.5561 I0.1461 J-0.0338
G2 X131.1197 Y28.9909 I-5.8037 J1.3341
G3 X131.1196 Y28.9908 I0.1422 J-0.0478
G2 X130.8964 Y28.4544 I-3.898 J1.308
G2 X130.301 Y27.7111 I-2.0509 J1.0325
G2 X129.5519 Y27.2981 I-1.5227 J1.8759
G2 X129.0836 Y27.1927 I-0.7542 J2.2585
G3 X129.0819 Y27.1925 I0.018 J-0.1489
G2 X128.5932 Y27.1622 I-0.4602 J3.4692
G3 X128.5914 I-0.0012 J-0.15
G2 X128.2362 Y27.1799 I-0.0121 J3.331
G3 X128.2351 Y27.18 I-0.0154 J-0.1492
G2 X127.7251 Y27.2922 I0.2082 J2.1605
G2 X127.296 Y27.5462 I0.422 J1.2023
G2 X126.9805 Y28.0204 I0.8124 J0.8827
G2 X126.8861 Y28.6026 I1.6085 J0.5593
G3 X126.8862 Y28.6049 I-0.15 J0.002
G2 X126.9182 Y29.0477 I2.9933 J0.006
G1 X126.9569 Y29.2696
G1 X127.0024 Y29.4905
G1 X127.7973 Y32.9284
G1 X128.2876
G1 X127.5003 Y29.5178
G3 X127.4193 Y29.0792 I3.3627 J-0.8475
G3 X127.4192 Y29.0781 I0.149 J-0.0177
G1 X127.3993 Y28.8991
G3 X127.3962 Y28.8632 I0.2998 J-0.0443
G1 X127.3909 Y28.7867
G3 X127.3907 Y28.7807 I0.1497 J-0.0102
G1 X127.3884 Y28.7006
G3 Y28.6989 I0.1499 J-0.0042
G3 X127.4612 Y28.2312 I1.3882 J-0.0231
G3 X127.4617 Y28.2299 I0.1421 J0.048
G3 X127.7377 Y27.8162 I0.9366 J0.3261
G3 X127.7405 Y27.8138 I0.0999 J0.1119
G3 X127.7592 Y27.7982 I0.7467 J0.8787
G0 Z3.0
G0 X133.4783 Y29.8847
G0 Z1.0
G1 F300.0 Z-0.5
G1 F800.0 X133.484 Y29.9095
G3 X133.4933 Y29.8943 I0.3879 J0.2276
G3 X133.4783 Y29.8847 I0.2349 J-0.3838
G1 F300.0 X133.4199 Y29.8982
G1 F800.0 X133.4844 Y30.1783
G3 X133.5851 Y29.8733 I0.3876 J-0.0412
G3 X133.3603 Y29.6398 I0.1432 J-0.3628
G1 X133.4199 Y29.8982
G0 Z3.0
G0 X135.1481 Y29.7708
G0 Z1.0
G1 F300.0 Z-0.5
G3 F800.0 X135.2598 Y29.7852 I-0.2386 J2.2972
G3 X135.2605 Y29.6081 I0.3802 J-0.0871
G1 X135.1834 Y29.7251
G3 X135.1481 Y29.7708 I-0.3257 J-0.2146
G0 Z3.0
G0 X136.7784 Y31.0681
G0 Z1.0
G1 F300.0 Z-0.5
G3 F800.0 X136.8558 Y31.6025 I-1.781 J0.5309
G3 Y31.6077 I-0.3898 J-0.0008
G3 X136.8386 Y31.8362 I-1.9112 J-0.0292
G3 X136.8374 Y31.8439 I-0.3862 J-0.0525
G3 X136.7609 Y32.1115 I-1.1169 J-0.1747
G3 X136.759 Y32.1158 I-0.3587 J-0.1525
G3 X136.4458 Y32.5161 I-0.9411 J-0.4135
G3 X136.3684 Y32.5723 I-0.7862 J-1.0036
G2 X136.6178 Y32.4384 I-0.3964 J-1.0373
G2 X136.8541 Y32.1731 I-0.4803 J-0.6659
G2 X136.9135 Y32.0058 I-0.5294 J-0.282
G2 X136.9341 Y31.7815 I-1.2023 J-0.2237
G3 Y31.778 I0.39 J-0.0002
G2 X136.8417 Y31.2187 I-1.6531 J-0.0141
G2 X136.7784 Y31.0681 I-1.5369 J0.5572
G0 Z3.0
G0 X133.9895 Y32.3713
G0 Z1.0
G1 F300.0 Z-0.5
G1 F800.0 X134.0626 Y32.6884
G1 X134.1129
G3 X134.0231 Y32.5159 I0.2899 J-0.2605
G1 X133.9895 Y32.3713
G1 F300.0 X134.1065 Y32.3442
G1 F800.0 X133.6092 Y30.198
G3 X133.872 Y29.8673 I0.2628 J-0.0609
G1 X134.7096
G3 X135.0706 Y29.8835 I0.0111 J3.7918
G3 X135.1284 Y29.8894 I-0.0335 J0.6101
G3 X135.4545 Y29.9474 I-0.2189 J2.1786
G3 X136.0746 Y30.2456 I-0.406 J1.6377
G3 X136.5637 Y30.8446 I-0.9814 J1.3004
G3 X136.7358 Y31.6023 I-1.5663 J0.7543
G3 Y31.6059 I-0.2698 J-0.0005
G3 X136.7196 Y31.82 I-1.7912 J-0.0274
G3 X136.7189 Y31.8254 I-0.2673 J-0.0364
G3 X136.6505 Y32.0645 I-0.9984 J-0.1562
G3 X136.6492 Y32.0675 I-0.2483 J-0.1055
G3 X136.3722 Y32.4214 I-0.8313 J-0.3652
G3 X135.894 Y32.6434 I-0.7125 J-0.9089
G3 X135.734 Y32.6713 I-0.3101 J-1.3044
G3 X135.296 Y32.6977 I-0.421 J-3.3464
G1 X134.4028
G3 X134.14 Y32.4888 I0.0 J-0.2698
G1 X134.1065 Y32.3442
G1 F300.0 X134.2231 Y32.3172
G1 F800.0 X133.7258 Y30.171
G3 X133.872 Y29.9871 I0.1461 J-0.0339
G1 X134.7098
G3 X135.0619 Y30.003 I0.011 J3.672
G3 X135.1133 Y30.0083 I-0.0248 J0.4907
G3 X135.4252 Y30.0635 I-0.2038 J2.0598
G3 X136.0021 Y30.341 I-0.3766 J1.5216
G3 X136.4557 Y30.8964 I-0.9089 J1.2051
G3 X136.6161 Y31.6021 I-1.4583 J0.7025
G3 X136.616 Y31.6041 I-0.15 J-0.0003
G3 X136.601 Y31.8039 I-1.6715 J-0.0256
G3 X136.6005 Y31.8068 I-0.1486 J-0.0202
G3 X136.5403 Y32.0177 I-0.88 J-0.1377
G3 X136.5395 Y32.0193 I-0.138 J-0.0587
G3 X136.2987 Y32.3268 I-0.7216 J-0.3171
G3 X135.868 Y32.5265 I-0.639 J-0.8143
G3 X135.7198 Y32.5524 I-0.2841 J-1.1875
G3 X135.2963 Y32.5779 I-0.4069 J-3.2275
G1 X134.4028
G3 X134.2566 Y32.4618 I0.0 J-0.15
G1 X134.2231 Y32.3172
G0 Z3.0
G0 X133.8725 Y32.3979
G0 Z1.0
G1 F300.0 Z-0.5
G1 F800.0 X133.9671 Y32.8084
G1 X135.3723
G2 X135.7985 Y32.7951 I-0.0137 J-7.2686
G2 X136.2035 Y32.7434 I-0.2057 J-3.2259
G3 X136.2037 I0.051 J0.2651
G2 X136.6877 Y32.5358 I-0.2317 J-1.2084
G2 X136.9595 Y32.2306 I-0.5503 J-0.7634
G2 X137.0314 Y32.0283 I-0.6347 J-0.3395
G2 X137.0541 Y31.7815 I-1.3202 J-0.2462
G3 Y31.7791 I0.27 J-0.0001
G2 X136.9547 Y31.1785 I-1.7731 J-0.0151
G2 X136.6519 Y30.6514 I-1.65 J0.5974
G3 X136.6513 Y30.6506 I0.2073 J-0.173
G2 X136.1654 Y30.2234 I-1.5864 J1.3143
G2 X135.5668 Y29.958 I-1.2211 J1.9466
G3 X135.4154 Y29.5481 I0.0731 J-0.2599
G1 X136.8469 Y27.4059
G1 X136.5676
G1 X135.0832 Y29.6591
G3 X134.8577 Y29.7805 I-0.2255 J-0.1485
G1 X133.7283
G3 X133.4652 Y29.5711 I0.0 J-0.27
G1 X132.9666 Y27.4059
G1 X132.7226
G1 X133.8725 Y32.3979
G1 F300.0 X133.7556 Y32.4249
G1 F800.0 X133.8716 Y32.9284
G1 X135.3724
G2 X135.8059 Y32.9149 I-0.0138 J-7.3886
G2 X136.2262 Y32.8613 I-0.2131 J-3.3457
G1 X136.2263
G2 X136.7577 Y32.6333 I-0.2543 J-1.3263
G2 X137.0648 Y32.2881 I-0.6202 J-0.8609
G2 X137.1492 Y32.0507 I-0.74 J-0.397
G2 X137.1741 Y31.7814 I-1.4381 J-0.2686
G3 Y31.7801 I0.15 J-0.0001
G2 X137.0678 Y31.1383 I-1.8931 J-0.0162
G2 X136.744 Y30.5745 I-1.763 J0.6376
G3 X136.7437 Y30.574 I0.1152 J-0.0961
G2 X136.2294 Y30.1218 I-1.6788 J1.3908
G2 X135.5993 Y29.8425 I-1.285 J2.0481
G3 X135.5152 Y29.6148 I0.0406 J-0.1444
G1 X137.0714 Y27.2859
G1 X136.503
G1 X134.983 Y29.5931
G3 X134.8577 Y29.6605 I-0.1253 J-0.0825
G1 X133.7283
G3 X133.5821 Y29.5442 I0.0 J-0.15
G1 X133.0621 Y27.2859
G1 X132.5718
G1 X133.7556 Y32.4249
G0 Z3.0
G0 X133.9895 Y32.3713
G0 Z0.5
G1 F300.0 Z-1.0
G1 F800.0 X134.0626 Y32.6884
G1 X134.1129
G3 X134.0231 Y32.5159 I0.2899 J-0.2605
G1 X133.9895 Y32.3713
G0 Z3.0
G0 X136.3684 Y32.5723
G0 Z0.5
G1 F300.0 Z-1.0
G2 F800.0 X136.6178 Y32.4384 I-0.3964 J-1.0373
G2 X136.8541 Y32.1731 I-0.4803 J-0.6659
G2 X136.9135 Y32.0058 I-0.5294 J-0.282
G2 X136.9341 Y31.7815 I-1.2023 J-0.2237
G3 Y31.778 I0.39 J-0.0002
G2 X136.8417 Y31.2187 I-1.6531 J-0.0141
G2 X136.7784 Y31.0681 I-1.5369 J0.5572
G3 X136.8558 Y31.6025 I-1.781 J0.5309
G3 Y31.6077 I-0.3898 J-0.0008
G3 X136.8386 Y31.8362 I-1.9112 J-0.0292
G3 X136.8374 Y31.8439 I-0.3862 J-0.0525
G3 X136.7609 Y32.1115 I-1.1169 J-0.1747
G3 X136.759 Y32.1158 I-0.3587 J-0.1525
G3 X136.4458 Y32.5161 I-0.9411 J-0.4135
G3 X136.3684 Y32.5723 I-0.7862 J-1.0036
G0 Z3.0
G0 X135.2598 Y29.7852
G0 Z0.5
G1 F300.0 Z-1.0
G3 F800.0 X135.2605 Y29.6081 I0.3802 J-0.0871
G1 X135.1834 Y29.7251
G3 X135.1481 Y29.7708 I-0.3257 J-0.2146
G3 X135.2598 Y29.7852 I-0.2386 J2.2972
G0 Z3.0
G0 X133.4933 Y29.8943
G0 Z0.5
G1 F300.0 Z-1.0
G3 F800.0 X133.4783 Y29.8847 I0.2349 J-0.3838
G1 X133.484 Y29.9095
G3 X133.4933 Y29.8943 I0.3879 J0.2276
G1 F300.0 X133.5439 Y29.9267
G3 F800.0 X133.5851 Y29.8733 I0.3281 J0.2104
G3 X133.3603 Y29.6398 I0.1432 J-0.3628
G1 X133.4844 Y30.1783
G3 X133.5439 Y29.9267 I0.3876 J-0.0412
G1 F300.0 X133.6449 Y29.9915
G3 F800.0 X133.872 Y29.8673 I0.2271 J0.1456
G1 X134.7096
G3 X135.0706 Y29.8835 I0.0111 J3.7918
G3 X135.1284 Y29.8894 I-0.0335 J0.6101
G3 X135.4545 Y29.9474 I-0.2189 J2.1786
G3 X136.0746 Y30.2456 I-0.406 J1.6377
G3 X136.5637 Y30.8446 I-0.9814 J1.3004
G3 X136.7358 Y31.6023 I-1.5663 J0.7543
G3 Y31.6059 I-0.2698 J-0.0005
G3 X136.7196 Y31.82 I-1.7912 J-0.0274
G3 X136.7189 Y31.8254 I-0.2673 J-0.0364
G3 X136.6505 Y32.0645 I-0.9984 J-0.1562
G3 X136.6492 Y32.0675 I-0.2483 J-0.1055
G3 X136.3722 Y32.4214 I-0.8313 J-0.3652
G3 X135.894 Y32.6434 I-0.7125 J-0.9089
G3 X135.734 Y32.6713 I-0.3101 J-1.3044
G3 X135.296 Y32.6977 I-0.421 J-3.3464
G1 X134.4028
G3 X134.14 Y32.4888 I0.0 J-0.2698
G1 X133.6092 Y30.198
G3 X133.6449 Y29.9915 I0.2628 J-0.0609
G1 F300.0 X133.7457 Y30.0561
G3 F800.0 X133.872 Y29.9871 I0.1263 J0.081
G1 X134.7098
G3 X135.0619 Y30.003 I0.011 J3.672
G3 X135.1133 Y30.0083 I-0.0248 J0.4907
G3 X135.4252 Y30.0635 I-0.2038 J2.0598
G3 X136.0021 Y30.341 I-0.3766 J1.5216
G3 X136.4557 Y30.8964 I-0.9089 J1.2051
G3 X136.6161 Y31.6021 I-1.4583 J0.7025
G3 X136.616 Y31.6041 I-0.15 J-0.0003
G3 X136.601 Y31.8039 I-1.6715 J-0.0256
G3 X136.6005 Y31.8068 I-0.1486 J-0.0202
G3 X136.5403 Y32.0177 I-0.88 J-0.1377
G3 X136.5395 Y32.0193 I-0.138 J-0.0587
G3 X136.2987 Y32.3268 I-0.7216 J-0.3171
G3 X135.868 Y32.5265 I-0.639 J-0.8143
G3 X135.7198 Y32.5524 I-0.2841 J-1.1875
G3 X135.2963 Y32.5779 I-0.4069 J-3.2275
G1 X134.4028
G3 X134.2566 Y32.4618 I0.0 J-0.15
G1 X133.7258 Y30.171
G3 X133.7457 Y30.0561 I0.1461 J-0.0339
G0 Z3.0
G0 Y29.7805
G0 Z0.5
G1 F300.0 Z-1.0
G1 F800.0 X133.7283
G3 X133.4652 Y29.5711 I0.0 J-0.27
G1 X132.9666 Y27.4059
G1 X132.7226
G1 X133.9671 Y32.8084
G1 X135.3723
G2 X135.7985 Y32.7951 I-0.0137 J-7.2686
G2 X136.2035 Y32.7434 I-0.2057 J-3.2259
G3 X136.2037 I0.051 J0.2651
G2 X136.6877 Y32.5358 I-0.2317 J-1.2084
G2 X136.9595 Y32.2306 I-0.5503 J-0.7634
G2 X137.0314 Y32.0283 I-0.6347 J-0.3395
G2 X137.0541 Y31.7815 I-1.3202 J-0.2462
G3 Y31.7791 I0.27 J-0.0001
G2 X136.9547 Y31.1785 I-1.7731 J-0.0151
G2 X136.6519 Y30.6514 I-1.65 J0.5974
G3 X136.6513 Y30.6506 I0.2073 J-0.173
G2 X136.1654 Y30.2234 I-1.5864 J1.3143
G2 X135.5668 Y29.958 I-1.2211 J1.9466
G3 X135.4154 Y29.5481 I0.0731 J-0.2599
G1 X136.8469 Y27.4059
G1 X136.5676
G1 X135.0832 Y29.6591
G3 X134.8577 Y29.7805 I-0.2255 J-0.1485
G1 X133.7457
G1 F300.0 Y29.6605
G1 F800.0 X133.7283
G3 X133.5821 Y29.5442 I0.0 J-0.15
G1 X133.0621 Y27.2859
G1 X132.5718
G1 X133.8716 Y32.9284
G1 X135.3724
G2 X135.8059 Y32.9149 I-0.0138 J-7.3886
G2 X136.2262 Y32.8613 I-0.2131 J-3.3457
G1 X136.2263
G2 X136.7577 Y32.6333 I-0.2543 J-1.3263
G2 X137.0648 Y32.2881 I-0.6202 J-0.8609
G2 X137.1492 Y32.0507 I-0.74 J-0.397
G2 X137.1741 Y31.7814 I-1.4381 J-0.2686
G3 Y31.7801 I0.15 J-0.0001
G2 X137.0678 Y31.1383 I-1.8931 J-0.0162
G2 X136.744 Y30.5745 I-1.763 J0.6376
G3 X136.7437 Y30.574 I0.1152 J-0.0961
G2 X136.2294 Y30.1218 I-1.6788 J1.3908
G2 X135.5993 Y29.8425 I-1.285 J2.0481
G3 X135.5152 Y29.6148 I0.0406 J-0.1444
G1 X137.0714 Y27.2859
G1 X136.503
G1 X134.983 Y29.5931
G3 X134.8577 Y29.6605 I-0.1253 J-0.0825
G1 X133.7457
G0 Z3.0
G0 X133.7223 Y24.9844
G0 Z1.0
G1 F300.0 Z-0.5
G3 F800.0 X133.6228 Y24.8012 I0.2805 J-0.271
G1 X133.6094 Y24.7433
G3 X133.501 Y24.9844 I-0.3889 J-0.0299
G1 X133.7223
G1 F300.0 Y25.1044
G1 F800.0 X135.8908
G1 X135.8636 Y24.9834
G1 X134.0028
G3 X133.7397 Y24.7742 I0.0 J-0.27
G1 X132.5951 Y19.8207
G1 X132.3671
G1 X133.4836 Y24.6526
G3 X133.2205 Y24.9834 I-0.2631 J0.0608
G1 X131.4811
G1 X131.5084 Y25.1044
G1 X133.7223
G1 F300.0 Y25.2244
G1 F800.0 X136.0407
G1 X135.9596 Y24.8634
G1 X134.0028
G3 X133.8566 Y24.7472 I0.0 J-0.15
G1 X132.6906 Y19.7007
G1 X132.2162
G1 X133.3667 Y24.6797
G3 X133.2205 Y24.8634 I-0.1461 J0.0338
G1 X131.3312
G1 X131.4123 Y25.2244
G1 X133.7223
G0 Z3.0
G0 Y24.9844
G0 Z0.5
G1 F300.0 Z-1.0
G3 F800.0 X133.6228 Y24.8012 I0.2805 J-0.271
G1 X133.6094 Y24.7433
G3 X133.501 Y24.9844 I-0.3889 J-0.0299
G1 X133.7223
G1 F300.0 Y25.1044
G1 F800.0 X135.8908
G1 X135.8636 Y24.9834
G1 X134.0028
G3 X133.7397 Y24.7742 I0.0 J-0.27
G1 X132.5951 Y19.8207
G1 X132.3671
G1 X133.4836 Y24.6526
G3 X133.2205 Y24.9834 I-0.2631 J0.0608
G1 X131.4811
G1 X131.5084 Y25.1044
G1 X133.7223
G1 F300.0 Y25.2244
G1 F800.0 X136.0407
G1 X135.9596 Y24.8634
G1 X134.0028
G3 X133.8566 Y24.7472 I0.0 J-0.15
G1 X132.6906 Y19.7007
G1 X132.2162
G1 X133.3667 Y24.6797
G3 X133.2205 Y24.8634 I-0.1461 J0.0338
G1 X131.3312
G1 X131.4123 Y25.2244
G1 X133.7223
G0 Z3.0
G0 X137.3114 Y24.9266
G0 Z1.0
G1 F300.0 Z-0.5
G1 F800.0 X137.3247 Y24.9844
G1 X137.3508
G3 X137.3114 Y24.9266 I0.3011 J-0.2475
G0 Z3.0
G0 X139.6402 Y24.8439
G0 Z1.0
G1 F300.0 Z-0.5
G2 F800.0 X139.8181 Y24.7408 I-0.4504 J-0.982
G2 X140.0474 Y24.4835 I-0.4658 J-0.646
G2 X140.1048 Y24.3218 I-0.5125 J-0.2729
G2 X140.1249 Y24.1035 I-1.1693 J-0.2177
G3 Y24.1 I0.39 J-0.0002
G2 X140.0347 Y23.5545 I-1.6126 J-0.0137
G2 X140.0137 Y23.4996 I-1.4984 J0.5431
G3 X140.0637 Y23.928 I-1.7792 J0.425
G3 Y23.9332 I-0.3898 J-0.0007
G3 X140.0467 Y24.1581 I-1.8779 J-0.0285
G3 X140.0456 Y24.1658 I-0.3862 J-0.0526
G3 X139.9701 Y24.4298 I-1.102 J-0.1724
G3 X139.9682 Y24.4341 I-0.3587 J-0.1525
G3 X139.6589 Y24.8295 I-0.9295 J-0.4084
G3 X139.6402 Y24.8439 I-0.7754 J-0.99
G0 Z3.0
G0 X138.4818 Y22.1376
G0 Z1.0
G1 F300.0 Z-0.5
G3 F800.0 X138.4778 Y22.0099 I0.3825 J-0.076
G1 X138.4234 Y22.0924
G3 X138.398 Y22.1268 I-0.3257 J-0.2146
G3 X138.4818 Y22.1376 I-0.2495 J2.2575
G0 Z3.0
