( Made using CamBam - http://www.cambam.co.uk )
( assbot_logo-acrylic 8/7/2013 5:04:36 PM )
( T14 : 3.0 )
( T101 : 0.3 )
( T203 : 2.0 )
G21 G90 G91.1 G64 G40
G0 Z3.0
( T101 : 0.3 )
T101 M6
( logo-Pocket )
G17
M3 S1000
G0 X68.8679 Y15.9899
G0 Z1.0
G1 F300.0 Z-0.5
G3 F800.0 X68.8521 Y16.0019 I-0.2073 J-0.2568
G3 X68.8642 Y16.0178 I-0.2562 J0.2077
G1 X68.8679 Y15.9899
G1 F300.0 X68.9274 Y15.9978
G1 F800.0 X69.0906 Y14.7709
G1 X69.0474
G1 X68.9288 Y15.7651
G3 X68.7498 Y15.988 I-0.2681 J-0.032
G3 X68.8636 Y16.2434 I-0.1539 J0.2216
G1 X68.5901 Y18.405
G3 X68.448 Y18.61 I-0.2676 J-0.0339
G1 X68.5801
G1 X68.9274 Y15.9978
G0 Z3.0
G0 X66.7567 Y16.0627
G0 Z1.0
G1 F300.0 Z-0.5
G3 F800.0 X66.7536 Y16.0626 I0.0159 J-0.3296
G1 X66.7553 Y16.0655
G3 X66.7567 Y16.0627 I0.2966 J0.1441
G1 F300.0 X66.7596 Y16.0028
G3 F800.0 X66.6205 Y15.9562 I0.013 J-0.2697
G1 X66.7829 Y16.2292
G3 X66.8783 Y16.0031 I0.269 J-0.0197
G1 X66.7726
G3 X66.7596 Y16.0028 I0.0 J-0.27
G1 F300.0 X66.7653 Y15.883
G3 F800.0 X66.6429 Y15.8086 I0.0072 J-0.1498
G1 X65.9687 Y14.6509
G1 X65.7041
G1 X68.1313 Y18.73
G1 X68.6852
G1 X69.2276 Y14.6509
G1 X68.9409
G1 X68.8096 Y15.7509
G3 X68.6607 Y15.8831 I-0.1489 J-0.0178
G1 X66.7726
G3 X66.7653 Y15.883 I0.0 J-0.15
G0 Z3.0
G0 X66.953 Y16.0968
G0 Z1.0
G1 F300.0 Z-0.5
G3 F800.0 X67.0519 Y16.0596 I0.0989 J0.1127
G1 X68.596
G3 X68.7448 Y16.2284 I0.0 J0.15
G1 X68.4713 Y18.39
G3 X68.1931 Y18.4472 I-0.1488 J-0.0188
G1 X66.9226 Y16.2856
G3 X66.953 Y16.0968 I0.1293 J-0.076
G0 Z3.0
G0 X64.9138 Y17.2993
G0 Z1.0
G1 F300.0 Z-0.5
G2 F800.0 X64.8566 Y17.2113 I-1.0525 J0.6206
G3 X64.9866 Y17.7881 I-1.2226 J0.5785
G3 X64.9199 Y18.1561 I-0.92 J0.0233
G3 X64.9159 Y18.1654 I-0.2501 J-0.101
G3 X64.692 Y18.4512 I-0.6886 J-0.3089
G3 X64.5076 Y18.5638 I-0.5695 J-0.7253
G2 X64.5099 Y18.5634 I-0.4345 J-2.2714
G3 X64.5101 Y18.5633 I0.051 J0.2651
G2 X64.8387 Y18.4224 I-0.1573 J-0.8206
G2 X65.0189 Y18.2197 I-0.3641 J-0.5049
G2 X65.0631 Y18.0953 I-0.3545 J-0.1963
G3 X65.0635 Y18.0936 I0.2657 J0.0479
G2 X65.0791 Y17.9243 I-0.9024 J-0.1689
G3 Y17.9218 I0.27 J-0.0001
G2 X65.01 Y17.5037 I-1.2356 J-0.0105
G2 X64.9138 Y17.2993 I-1.1487 J0.4163
G0 Z3.0
G0 X63.852 Y16.4747
G0 Z1.0
G1 F300.0 Z-0.5
G3 F800.0 X63.8836 Y16.239 I0.256 J-0.0858
G1 X64.8646 Y14.7709
G1 X64.8299
G1 X63.7571 Y16.3993
G3 X63.7073 Y16.4558 I-0.2255 J-0.1485
G3 X63.7399 Y16.4595 I-0.0435 J0.5194
G3 X63.852 Y16.4747 I-0.1698 J1.6742
G0 Z3.0
G0 X62.5285 Y16.5331
G0 Z1.0
G1 F300.0 Z-0.5
G3 F800.0 X62.5126 Y16.5229 I0.1708 J-0.2823
G1 X62.5187 Y16.5492
G3 X62.5285 Y16.5331 I0.2865 J0.1633
G1 F300.0 X62.5788 Y16.5657
G3 F800.0 X62.6262 Y16.5106 I0.2264 J0.1467
G3 X62.4362 Y16.3113 I0.0731 J-0.2599
G1 X62.0815 Y14.7709
G1 X62.0475
G1 X62.9318 Y18.61
G1 X63.0263
G3 X62.9335 Y18.4615 I0.1701 J-0.2094
G1 X62.5424 Y16.7734
G3 X62.5788 Y16.5657 I0.2628 J-0.0609
G1 F300.0 X62.6457 Y16.3908
G3 F800.0 X62.5531 Y16.2844 I0.0536 J-0.1401
G1 X62.177 Y14.6509
G1 X61.8967
G1 X62.8363 Y18.73
G1 X63.9109
G2 X64.2279 Y18.7201 I-0.0098 J-5.3952
G2 X64.5326 Y18.6812 I-0.1548 J-2.4276
G1 X64.5327
G2 X64.9087 Y18.5199 I-0.1799 J-0.9385
G2 X65.1238 Y18.2779 I-0.4341 J-0.6024
G2 X65.1812 Y18.1166 I-0.4595 J-0.2544
G3 X65.1814 Y18.1157 I0.1476 J0.0266
G2 X65.1991 Y17.9242 I-1.0203 J-0.191
G3 Y17.9229 I0.15 J-0.0001
G2 X65.1231 Y17.4635 I-1.3556 J-0.0116
G2 X64.8914 Y17.06 I-1.2618 J0.4565
G3 X64.891 Y17.0596 I0.1151 J-0.0961
G2 X64.5218 Y16.7349 I-1.2069 J0.9999
G2 X64.0664 Y16.5331 I-0.9655 J1.564
G3 X63.9833 Y16.3056 I0.0416 J-0.1441
G1 X65.0891 Y14.6509
G1 X64.7653
G1 X63.6569 Y16.3333
G3 X63.5316 Y16.4007 I-0.1253 J-0.0825
G1 X62.6993
G3 X62.6457 Y16.3908 I0.0 J-0.15
G1 F300.0 X62.7386 Y16.5781
G3 F800.0 X62.8052 Y16.5625 I0.0666 J0.1344
G1 X63.4226
G3 X63.6849 Y16.5743 I0.0078 J2.753
G3 X63.725 Y16.5784 I-0.0211 J0.4009
G3 X63.9595 Y16.62 I-0.1549 J1.5553
G3 X64.3988 Y16.8313 I-0.2872 J1.1595
G3 X64.7447 Y17.255 I-0.6939 J0.9196
G3 X64.8668 Y17.7897 I-1.1107 J0.5349
G3 X64.8088 Y18.1112 I-0.8002 J0.0216
G3 X64.8066 Y18.1164 I-0.1391 J-0.0562
G3 X64.6182 Y18.3569 I-0.5793 J-0.2599
G3 X64.282 Y18.5123 I-0.4957 J-0.631
G3 X64.2815 Y18.5124 I-0.0298 J-0.147
G3 X63.8537 Y18.5506 I-0.3898 J-1.9509
G1 X63.1963
G3 X63.0502 Y18.4344 I0.0 J-0.15
G1 X62.6591 Y16.7463
G3 X62.7386 Y16.5781 I0.1461 J-0.0339
G0 Z3.0
G0 X60.1583 Y18.5326
G0 Z1.0
G1 F300.0 Z-0.5
G3 F800.0 X60.1488 Y18.55 I-0.2941 J-0.1497
G1 X60.1678
G3 X60.1583 Y18.5326 I0.2846 J-0.167
G1 F300.0 X60.2118 Y18.5054
G3 F800.0 X60.1894 Y18.4437 I0.2406 J-0.1225
G1 X59.3407 Y14.7709
G1 X59.3067
G1 X60.1273 Y18.3222
G3 X60.0104 Y18.61 I-0.2631 J0.0608
G1 X60.3063
G3 X60.2118 Y18.5054 I0.1462 J-0.227
G1 F300.0 X60.3187 Y18.451
G3 F800.0 X60.3063 Y18.4167 I0.1337 J-0.068
G1 X59.4361 Y14.6509
G1 X59.1559
G1 X60.0104 Y18.3492
G3 X59.8642 Y18.5329 I-0.1461 J0.0338
G1 X58.4901
G1 X58.5344 Y18.73
G1 X61.9384
G1 X61.8941 Y18.5329
G1 X60.4524
G3 X60.3187 Y18.451 I0.0 J-0.15
G0 Z3.0
G0 X57.463 Y18.4767
G0 Z1.0
G1 F300.0 Z-0.5
G1 F800.0 X57.455 Y18.4387
G3 X57.4433 Y18.4448 I-0.8136 J-1.521
G3 X57.4419 Y18.4456 I-0.1255 J-0.239
G3 X57.1183 Y18.5876 I-1.272 J-2.4578
G2 X57.463 Y18.4767 I-0.8389 J-3.1965
G0 Z3.0
G0 X56.9238 Y16.3242
G0 Z1.0
G1 F300.0 Z-0.5
G2 F800.0 X56.9615 Y16.2885 I-0.4972 J-0.562
G2 X57.0525 Y16.1436 I-0.3069 J-0.2938
G2 X57.0796 Y16.0273 I-0.5619 J-0.192
G3 X57.0682 Y16.0651 I-0.8693 J-0.2401
G3 X57.0675 Y16.0674 I-0.3139 J-0.1017
G3 X56.9238 Y16.3242 I-0.7409 J-0.2459
G0 Z3.0
G0 X54.8168 Y17.183
G0 Z1.0
G1 F300.0 Z-0.5
G2 F800.0 X54.7398 Y17.3421 I0.4097 J0.2964
G3 X54.8168 Y17.183 I0.8173 J0.2972
G1 F300.0 X54.7682 Y17.1478
G2 F800.0 X54.661 Y17.4938 I0.4583 J0.3315
G3 X54.6611 Y17.5038 I-0.2699 J0.0069
G2 X54.7686 Y17.9601 I0.973 J0.0115
G2 X54.8526 Y18.0922 I1.0124 J-0.5507
G3 X54.7475 Y17.6484 I0.8593 J-0.4377
G3 X54.9196 Y17.1401 I0.8096 J-0.0092
G3 X54.924 Y17.1346 I0.2126 J0.1665
G3 X55.2059 Y16.9187 I0.6085 J0.5023
G3 X55.4784 Y16.8233 I0.5993 J1.2753
G3 X55.4804 Y16.8229 I0.0626 J0.2626
G1 X55.5427 Y16.8085
G3 X55.5448 Y16.808 I0.0606 J0.2631
G1 X55.654 Y16.7838
G3 X55.6573 Y16.7831 I0.0585 J0.2636
G1 X55.9857 Y16.7144
G3 X55.9882 Y16.7138 I0.0553 J0.2643
G2 X56.4953 Y16.5985 I-1.8912 J-9.489
G2 X56.7852 Y16.4889 I-0.4411 J-1.605
G2 X57.0046 Y16.3302 I-0.3586 J-0.7268
G2 X57.109 Y16.1638 I-0.35 J-0.3356
G2 X57.1444 Y15.9496 I-0.6184 J-0.2122
G2 X57.0329 Y15.4974 I-1.0142 J0.0102
G3 X57.0312 Y15.4939 I0.2403 J-0.1231
G2 X56.9826 Y15.4055 I-1.0449 J0.5161
G3 X57.0521 Y15.7838 I-0.9425 J0.3687
G3 X57.0112 Y16.0466 I-0.8418 J0.0034
G3 X57.0106 Y16.0485 I-0.2569 J-0.0832
G3 X56.865 Y16.3005 I-0.6839 J-0.227
G3 X56.6282 Y16.4856 I-0.6175 J-0.5457
G3 X56.3873 Y16.5813 I-0.5744 J-1.095
G3 X56.3844 Y16.5821 I-0.0728 J-0.26
G1 X56.3283 Y16.5972
G3 X56.1134 Y16.6477 I-0.9041 J-3.3589
G3 X56.1125 Y16.6479 I-0.0535 J-0.2646
G1 X55.9127 Y16.6876
G3 X55.9062 Y16.6888 I-0.0526 J-0.2648
G2 X55.6667 Y16.7357 I0.9639 J5.5609
G1 X55.4169 Y16.7908
G3 X55.4134 Y16.7916 I-0.0582 J-0.2637
G2 X55.0905 Y16.8985 I0.299 J1.4441
G3 X55.0879 Y16.8997 I-0.1138 J-0.2448
G2 X54.8322 Y17.0738 I0.3705 J0.8192
G2 X54.7682 Y17.1478 I0.3943 J0.4055
G0 Z3.0
G0 X54.1433 Y15.0073
G0 Z1.0
G1 F300.0 Z-0.5
G3 F800.0 X54.6072 Y14.7883 I1.149 J1.8334
G3 X54.6673 Y14.7675 I0.9057 J2.5237
G2 X54.6373 Y14.7742 I0.7075 J3.2515
G2 X54.1292 Y14.9405 I0.724 J3.0706
G1 X54.1433 Y15.0073
G1 F300.0 X54.207 Y15.1089
G3 F800.0 X54.6464 Y14.9017 I1.0852 J1.7317
G3 X55.4865 Y14.7508 I0.8665 J2.4103
G1 X55.4866
G3 X56.0183 Y14.8032 I0.0248 J2.4741
G3 X56.0211 Y14.8038 I-0.0307 J0.1468
G3 X56.2843 Y14.8862 I-0.3948 J1.7231
G3 X56.2859 Y14.8869 I-0.0558 J0.1392
G3 X56.5367 Y15.0281 I-0.4598 J1.1094
G3 X56.8251 Y15.3504 I-0.5964 J0.8239
G3 X56.8269 Y15.3537 I-0.1305 J0.074
G3 X56.9321 Y15.7835 I-0.7868 J0.4204
G3 X56.897 Y16.0096 I-0.7218 J0.0037
G3 X56.8967 Y16.0107 I-0.1427 J-0.0462
G3 X56.7752 Y16.2209 I-0.57 J-0.1892
G3 X56.5726 Y16.3793 I-0.5277 J-0.4661
G3 X56.3549 Y16.4658 I-0.5188 J-0.9886
G3 X56.3533 Y16.4662 I-0.0405 J-0.1444
G1 X56.2971 Y16.4813
G3 X56.0896 Y16.5301 I-0.873 J-3.243
G3 X56.0891 Y16.5302 I-0.0297 J-0.147
G1 X55.8893 Y16.5699
G3 X55.8857 Y16.5706 I-0.0292 J-0.1471
G2 X55.6409 Y16.6185 I0.9843 J5.6792
G1 X55.391 Y16.6737
G3 X55.3891 Y16.6741 I-0.0323 J-0.1465
G2 X55.0399 Y16.7897 I0.3233 J1.5616
G3 X55.0385 Y16.7903 I-0.0632 J-0.136
G2 X54.7485 Y16.9877 I0.4199 J0.9285
G2 X54.5411 Y17.4968 I0.4779 J0.4916
G3 Y17.5024 I-0.15 J0.0038
G2 X54.6625 Y18.0162 I1.093 J0.0129
G2 X55.0125 Y18.4237 I1.1185 J-0.6068
G3 X55.0139 Y18.4247 I-0.0906 J0.1196
G2 X55.6116 Y18.7228 I1.0438 J-1.3446
G2 X56.2926 Y18.8094 I0.6594 J-2.4664
G3 X56.2936 I0.0013 J0.15
G2 X56.6982 Y18.7883 I-0.0092 J-4.0705
G2 X56.8945 Y18.7605 I-0.2978 J-2.8052
G1 X56.9937 Y18.7411
G1 X57.0928 Y18.7179
G2 X57.6012 Y18.5505 I-0.8134 J-3.3268
G1 X57.5376 Y18.2491
G3 X57.3875 Y18.3386 I-0.8962 J-1.3314
G3 X57.3867 Y18.339 I-0.0697 J-0.1328
G3 X57.0544 Y18.4831 I-1.2169 J-2.3513
G3 X56.1908 Y18.63 I-0.8483 J-2.3749
G3 X55.7115 Y18.5766 I-0.0084 J-2.1024
G1 X55.7114
G3 X55.2489 Y18.3664 I0.287 J-1.2453
G3 X54.9722 Y18.0617 I0.5711 J-0.7966
G3 X54.9702 Y18.0581 I0.1297 J-0.0753
G3 X54.8675 Y17.6481 I0.7417 J-0.4036
G3 X55.0141 Y17.2141 I0.6896 J-0.0089
G3 X55.0166 Y17.211 I0.1181 J0.0925
G3 X55.2563 Y17.0276 I0.5159 J0.4259
G3 X55.5062 Y16.9401 I0.549 J1.1664
G3 X55.5073 Y16.9398 I0.0348 J0.1459
G1 X55.5697 Y16.9254
G3 X55.5708 Y16.9252 I0.0337 J0.1462
G1 X55.6801 Y16.9009
G3 X55.6818 Y16.9005 I0.0325 J0.1464
G1 X56.0103 Y16.8318
G3 X56.0117 Y16.8315 I0.0307 J0.1468
G2 X56.5261 Y16.7145 I-1.9146 J-9.6067
G2 X56.8381 Y16.5966 I-0.4718 J-1.721
G2 X57.0907 Y16.4138 I-0.4115 J-0.8345
G2 X57.222 Y16.2042 I-0.4361 J-0.4192
G2 X57.2644 Y15.9488 I-0.7314 J-0.2526
G2 X57.1397 Y15.4427 I-1.1342 J0.011
G3 X57.1388 Y15.4408 I0.1335 J-0.0684
G2 X56.786 Y15.0037 I-1.1524 J0.5693
G2 X56.1984 Y14.6874 I-1.1883 J1.5038
G3 X56.1974 Y14.6871 I0.047 J-0.1424
G2 X55.8041 Y14.5975 I-0.6376 J1.8897
G1 X55.698 Y14.5854
G2 X55.3892 Y14.5715 I-0.2875 J2.9481
G3 X55.3875 I-0.0011 J-0.15
G2 X54.6102 Y14.6573 I-0.0127 J3.4476
G2 X53.9916 Y14.8702 I0.751 J3.1875
G1 X54.0631 Y15.208
G3 X54.207 Y15.1089 I1.2292 J1.6327
G0 Z3.0
G0 X52.7203 Y15.7294
G0 Z1.0
G1 F300.0 Z-0.5
G1 F800.0 X52.6795 Y15.6355
G1 X52.6651 Y15.6059
G3 X52.8341 Y16.1564 I-3.2012 J1.2839
G1 X53.4001 Y18.61
G1 X53.434
G1 X52.9046 Y16.3204
G3 X52.9045 Y16.32 I0.2631 J-0.0608
G2 X52.7914 Y15.9193 I-4.1199 J0.947
G2 X52.7203 Y15.7294 I-3.3906 J1.1604
G0 Z3.0
G0 X50.5388 Y14.7515
G0 Z1.0
G1 F300.0 Z-0.5
G2 F800.0 X50.4936 Y14.7665 I0.4313 J1.3741
G2 X50.2318 Y14.9212 I0.2581 J0.7355
G2 X50.0421 Y15.2067 I0.4915 J0.5326
G2 X49.982 Y15.578 I0.9935 J0.3513
G3 Y15.5837 I-0.27 J0.0051
G2 X50.0036 Y15.8843 I2.0482 J0.004
G1 X50.0314 Y16.0434
G1 X50.0641 Y16.2019
G1 X50.6208 Y18.61
G1 X50.6549
G1 X50.1201 Y16.2935
G3 X50.0571 Y15.9517 I2.6332 J-0.662
G3 X50.0569 Y15.9497 I0.2681 J-0.0318
G1 X50.042 Y15.8154
G3 X50.0411 Y15.8057 I0.2684 J-0.0298
G1 X50.036 Y15.7383
G3 X50.0354 Y15.7267 I0.2693 J-0.0201
G1 X50.0333 Y15.6593
G3 X50.0332 Y15.6553 I0.2699 J-0.0085
G3 X50.0953 Y15.2569 I1.1824 J-0.0197
G3 X50.0961 Y15.2546 I0.2558 J0.0864
G3 X50.3439 Y14.8832 I0.8407 J0.2927
G3 X50.3489 Y14.8789 I0.1798 J0.2014
G3 X50.5388 Y14.7515 I0.6535 J0.769
G1 F300.0 X50.5029 Y14.637
G2 F800.0 X50.4539 Y14.6533 I0.4672 J1.4885
G2 X50.1511 Y14.8324 I0.2979 J0.8487
G2 X49.9291 Y15.1663 I0.5722 J0.6214
G2 X49.862 Y15.5803 I1.1065 J0.3917
G3 Y15.5834 I-0.15 J0.0028
G2 X49.8851 Y15.9034 I2.1682 J0.0043
G1 X49.9135 Y16.0658
G1 X49.9468 Y16.2275
G1 X50.5254 Y18.73
G1 X50.8057
G1 X50.2368 Y16.2654
G3 X50.1763 Y15.9376 I2.5165 J-0.6338
G3 X50.1761 Y15.9364 I0.149 J-0.0177
G1 X50.1612 Y15.8022
G3 X50.1607 Y15.7968 I0.1491 J-0.0166
G1 X50.1557 Y15.7294
G3 X50.1554 Y15.7229 I0.1496 J-0.0112
G1 X50.1532 Y15.6555
G3 Y15.6533 I0.1499 J-0.0047
G3 X50.209 Y15.2954 I1.0624 J-0.0177
G3 X50.2094 Y15.2941 I0.1421 J0.048
G3 X50.4238 Y14.9728 I0.7274 J0.2532
G3 X50.4266 Y14.9703 I0.0999 J0.1119
G3 X50.8009 Y14.7819 I0.5758 J0.6775
G3 X51.1834 Y14.7391 I0.3589 J1.4764
G3 X51.4874 Y14.7628 I0.0077 J1.8627
G3 X51.7913 Y14.8469 I-0.2243 J1.4008
G3 X51.792 Y14.8472 I-0.0558 J0.1392
G3 X52.2615 Y15.1769 I-0.4846 J1.1893
G3 X52.263 Y15.1785 I-0.1114 J0.1004
G3 X52.5424 Y15.6227 I-1.2587 J1.1018
G3 X52.5432 Y15.6247 I-0.1379 J0.059
G3 X52.717 Y16.1827 I-3.0793 J1.2651
G1 X53.3046 Y18.73
G1 X53.5849
G1 X53.0215 Y16.2933
G3 Y16.2932 I0.1461 J-0.0338
G2 X52.905 Y15.8807 I-4.2368 J0.9739
G2 X52.8309 Y15.6828 I-3.5043 J1.199
G1 X52.7885 Y15.5854
G1 X52.742 Y15.4893
G2 X52.3141 Y14.9553 I-1.4754 J0.744
G2 X51.7744 Y14.6578 I-1.0969 J1.3513
G2 X51.4371 Y14.5819 I-0.5434 J1.6276
G3 X51.4354 Y14.5817 I0.018 J-0.1489
G2 X51.0808 Y14.5597 I-0.3339 J2.5167
G3 X51.079 I-0.0012 J-0.15
G2 X50.8215 Y14.5725 I-0.0087 J2.4167
G3 X50.8204 Y14.5726 I-0.0154 J-0.1492
G2 X50.5029 Y14.637 I0.1496 J1.5529
G0 Z3.0
G0 X70.4284 Y14.8309
G0 Z1.0
G1 F300.0 Z-0.5
G1 F800.0 X70.4294 Y14.835
G3 X70.4318 Y14.8309 I0.287 J0.1629
G1 X70.4284
G1 F300.0 X70.37 Y14.8444
G1 F800.0 X71.2399 Y18.61
G1 X71.2739
G1 X70.4533 Y15.0587
G3 X70.5702 Y14.7709 I0.2631 J-0.0608
G1 X70.353
G1 X70.37 Y14.8444
G1 F300.0 X70.253 Y14.8714
G1 F800.0 X71.1445 Y18.73
G1 X71.4248
G1 X70.5702 Y15.0317
G3 X70.7164 Y14.8479 I0.1461 J-0.0338
G1 X72.713
G1 X72.6675 Y14.6509
G1 X70.2021
G1 X70.253 Y14.8714
G0 Z3.0
G0 X74.0715 Y14.7709
G0 Z1.0
G1 F300.0 Z-0.5
G3 F800.0 X74.1145 Y14.8663 I-0.2201 J0.1564
G1 X74.9321 Y18.3925
G3 X74.8891 Y18.61 I-0.263 J0.061
G1 X75.0372
G3 X74.9942 Y18.5145 I0.2201 J-0.1564
G1 X74.1766 Y14.9883
G3 X74.2196 Y14.7709 I0.263 J-0.061
G1 X74.0715
G1 F300.0 Y14.6509
G1 F800.0 X73.3689
G1 X73.3977 Y14.7773
G1 X73.8515
G3 X73.9976 Y14.8934 I0.0 J0.15
G1 X74.8152 Y18.4196
G3 X74.669 Y18.6035 I-0.1461 J0.0339
G1 X74.2835
G1 X74.3123 Y18.73
G1 X75.7398
G1 X75.711 Y18.6035
G1 X75.2572
G3 X75.1111 Y18.4874 I0.0 J-0.15
G1 X74.2935 Y14.9612
G3 X74.4396 Y14.7773 I0.1461 J-0.0339
G1 X74.8252
G1 X74.7964 Y14.6509
G1 X74.0715
G0 Z3.0
G0 X76.7646 Y16.0626
G0 Z1.0
G1 F300.0 Z-0.5
G1 F800.0 X76.7664 Y16.0655
G3 X76.7677 Y16.0627 I0.2966 J0.1441
G3 X76.7646 Y16.0626 I0.0159 J-0.3296
G1 F300.0 X76.7681 Y16.0027
G3 F800.0 X76.6315 Y15.9562 I0.0155 J-0.2696
G1 X76.7939 Y16.2292
G3 X76.8893 Y16.0031 I0.269 J-0.0197
G1 X76.7836
G3 X76.7681 Y16.0027 I0.0 J-0.27
G0 Z3.0
G0 X78.8632 Y16.0019
G0 Z1.0
G1 F300.0 Z-0.5
G3 F800.0 X78.8753 Y16.0178 I-0.2562 J0.2077
G1 X78.879 Y15.9899
G3 X78.8632 Y16.0019 I-0.2073 J-0.2568
G1 F300.0 X78.8283 Y15.953
G3 F800.0 X78.7609 Y15.988 I-0.1567 J-0.2199
G3 X78.8746 Y16.2434 I-0.1539 J0.2216
G1 X78.6011 Y18.405
G3 X78.459 Y18.61 I-0.2676 J-0.0339
G1 X78.5911
G1 X79.1016 Y14.7709
G1 X79.0584
G1 X78.9398 Y15.7651
G3 X78.8283 Y15.953 I-0.2681 J-0.032
G1 F300.0 X78.7587 Y15.8553
G3 F800.0 X78.6717 Y15.8831 I-0.087 J-0.1222
G1 X76.7836
G3 X76.654 Y15.8086 I0.0 J-0.15
G1 X75.9798 Y14.6509
G1 X75.7151
G1 X78.1423 Y18.73
G1 X78.6962
G1 X79.2386 Y14.6509
G1 X78.9519
G1 X78.8206 Y15.7509
G3 X78.7587 Y15.8553 I-0.1489 J-0.0178
G0 Z3.0
G0 X78.666 Y16.0717
G0 Z1.0
G1 F300.0 Z-0.5
G3 F800.0 X78.7558 Y16.2284 I-0.0591 J0.1379
G1 X78.4823 Y18.39
G3 X78.2042 Y18.4472 I-0.1488 J-0.0188
G1 X76.9337 Y16.2856
G3 X77.063 Y16.0596 I0.1293 J-0.076
G1 X78.607
G3 X78.666 Y16.0717 I0.0 J0.15
G0 Z3.0
G0 X81.2301 Y18.5197
G0 Z1.0
G1 F300.0 Z-0.5
G1 F800.0 X81.251 Y18.61
G1 X81.2902
G3 X81.2301 Y18.5197 I0.1901 J-0.1917
G0 Z3.0
G0 X82.958 Y14.9168
G0 Z1.0
G1 F300.0 Z-0.5
G3 F800.0 X83.0676 Y14.9185 I0.0487 J0.387
G1 X83.0612 Y14.8909
G1 X82.9659
G1 X82.958 Y14.9168
G1 F300.0 X82.973 Y15.0359
G3 F800.0 X83.2555 Y15.199 I0.0337 J0.2679
G1 X83.1566 Y14.7709
G1 X82.8771
G1 X81.7385 Y18.4971
G3 X81.6704 Y18.61 I-0.2582 J-0.0789
G1 X81.7129
G1 X82.7485 Y15.2248
G3 X82.973 Y15.0359 I0.2582 J0.079
G1 F300.0 X82.988 Y15.1549
G3 F800.0 X83.1528 Y15.27 I0.0187 J0.1488
G1 X83.9524 Y18.73
G1 X84.1944
G1 X83.2521 Y14.6509
G1 X82.7883
G1 X81.6238 Y18.4621
G3 X81.3342 Y18.452 I-0.1435 J-0.0438
G1 X80.4552 Y14.6509
G1 X80.2131
G1 X81.1555 Y18.73
G1 X81.8017
G1 X82.8632 Y15.2599
G3 X82.988 Y15.1549 I0.1434 J0.0439
G0 Z3.0
G0 X82.184 Y20.4874
G0 Z1.0
G1 F300.0 Z-0.5
G2 F800.0 X81.7642 Y20.7385 I0.4373 J1.2075
G2 X81.4696 Y21.1849 I0.738 J0.8075
G2 X81.4014 Y21.4625 I1.482 J0.5114
G3 X81.4011 Y21.464 I-0.267 J-0.0403
G2 X81.3808 Y21.7532 I1.6898 J0.2644
G3 Y21.7592 I-0.27 J0.0039
G2 X81.5483 Y22.7965 I3.1411 J0.025
G3 X81.5484 Y22.7969 I-0.2556 J0.087
G2 X81.9301 Y23.5126 I2.3577 J-0.7979
G3 X81.7941 Y23.2852 I1.9479 J-1.3193
G3 X81.6164 Y22.8603 I2.3094 J-1.2158
G3 X81.4627 Y21.8658 I3.0228 J-0.9763
G3 X81.4667 Y21.7234 I1.9984 J-0.0142
G3 X81.5636 Y21.2181 I1.877 J0.0978
G3 X81.5642 Y21.2163 I0.2557 J0.0866
G3 X81.8482 Y20.7422 I1.2754 J0.442
G3 X81.8502 Y20.7402 I0.1983 J0.1832
G3 X82.184 Y20.4874 I0.9203 J0.8684
G0 Z3.0
G0 X84.5208 Y24.2405
G0 Z1.0
G1 F300.0 Z-0.5
G2 F800.0 X84.8485 Y24.1058 I-0.9367 J-2.7443
G1 X84.8404 Y24.0654
G3 X84.6065 Y24.1993 I-1.0054 J-1.4856
G3 X84.5208 Y24.2405 I-0.9047 J-1.7732
G1 F300.0 X84.5595 Y24.3541
G2 F800.0 X84.9842 Y24.1718 I-0.9755 J-2.8579
G1 X84.9199 Y23.8518
G1 X84.8815 Y23.8859
G3 X84.8751 Y23.8913 I-0.0996 J-0.1121
G3 X84.5535 Y24.0917 I-1.0401 J-1.3115
G3 X84.1382 Y24.2451 I-0.8516 J-1.6656
G3 X83.6102 Y24.3066 I-0.5086 J-2.0708
G3 X82.7896 Y24.1194 I-0.0205 J-1.8023
G3 X82.7886 Y24.1189 I0.0666 J-0.1344
G3 X82.1442 Y23.5999 I0.8913 J-1.7661
G3 X81.9004 Y23.2294 I1.7339 J-1.4066
G3 X81.7306 Y22.8237 I2.2032 J-1.16
G3 X81.5827 Y21.8657 I2.9085 J-0.9396
G3 X81.5865 Y21.7304 I1.8784 J-0.0141
G3 X81.6772 Y21.2566 I1.7572 J0.0909
G3 X81.6776 Y21.2556 I0.1421 J0.0481
G3 X81.9364 Y20.8237 I1.162 J0.4027
G3 X81.9374 Y20.8225 I0.1102 J0.1018
G3 X82.4181 Y20.5188 I0.833 J0.786
G3 X82.4188 Y20.5186 I0.0462 J0.1427
G3 X82.954 Y20.4396 I0.5103 J1.6055
G3 X83.5178 Y20.5069 I0.002 J2.3786
G3 X84.002 Y20.6766 I-0.6029 J2.4958
G3 X84.1868 Y20.7713 I-1.1596 J2.4891
G3 X84.1881 Y20.7721 I-0.0734 J0.1308
G1 X84.2732 Y20.8211
G3 X84.2742 Y20.8216 I-0.0748 J0.13
G3 X84.3651 Y20.8785 I-0.9015 J1.5422
G3 X84.3659 Y20.879 I-0.0833 J0.1247
G1 X84.368 Y20.8804
G1 X84.3139 Y20.6161
G2 X83.694 Y20.3767 I-1.9404 J4.1024
G3 X83.6936 Y20.3766 I0.0436 J-0.1435
G2 X82.8866 Y20.2585 I-0.7873 J2.564
G3 X82.8837 I-0.0011 J-0.15
G2 X82.2349 Y20.3448 I-0.0276 J2.2742
G2 X81.6837 Y20.6495 I0.3864 J1.35
G2 X81.3562 Y21.1456 I0.8186 J0.8965
G2 X81.2827 Y21.4446 I1.5953 J0.5508
G3 X81.2826 Y21.4455 I-0.1483 J-0.0224
G2 X81.2608 Y21.7549 I1.8083 J0.2829
G3 Y21.7583 I-0.15 J0.0022
G2 X81.4347 Y22.8352 I3.2611 J0.0259
G3 Y22.8354 I-0.142 J0.0483
G2 X81.9281 Y23.7004 I2.4714 J-0.8364
G2 X82.7059 Y24.2733 I1.6924 J-1.4833
G3 X82.7066 Y24.2736 I-0.061 J0.1371
G2 X83.2117 Y24.4347 I0.9528 J-2.114
G2 X83.4747 Y24.4725 I0.5087 J-2.6067
G1 X83.6117 Y24.4818
G1 X83.6432 Y24.483
G1 X83.7466 Y24.4847
G2 X84.4205 Y24.3978 I0.0127 J-2.5576
G2 X84.5595 Y24.3541 I-0.8364 J-2.9016
G0 Z3.0
G0 X86.0373 Y22.6583
G0 Z1.0
G1 F300.0 Z-0.5
G3 F800.0 X86.0568 Y22.6293 I0.2832 J0.1694
G3 X86.0266 Y22.6119 I0.1492 J-0.2943
G1 X86.0373 Y22.6583
G1 F300.0 X86.0888 Y22.6891
G3 F800.0 X86.1713 Y22.6027 I0.2317 J0.1386
G3 X85.943 Y22.3957 I0.0348 J-0.2678
G1 X85.4956 Y20.4577
G1 X85.4688
G1 X86.3505 Y24.2855
G1 X86.3776
G1 X86.0573 Y22.8881
G3 X86.0888 Y22.6891 I0.2632 J-0.0603
G0 Z3.0
G0 X88.6492 Y22.5334
G0 Z1.0
G1 F300.0 Z-0.5
G3 F800.0 X88.6758 Y22.5485 I-0.1492 J0.2943
G1 X88.6665 Y22.5081
G3 X88.6492 Y22.5334 I-0.2809 J-0.1731
G1 F300.0 X88.6013 Y22.4973
G3 F800.0 X88.5347 Y22.56 I-0.2157 J-0.1624
G3 X88.7631 Y22.7674 I-0.0348 J0.2678
G1 X89.1111 Y24.2855
G1 X89.1375
G1 X88.2558 Y20.4577
G1 X88.2293
G1 X88.6486 Y22.2742
G3 X88.6013 Y22.4973 I-0.2631 J0.0607
G1 F300.0 X88.5054 Y22.4252
G3 F800.0 X88.3856 Y22.485 I-0.1198 J-0.0902
G1 X86.2061
G3 X86.0599 Y22.3687 I0.0 J-0.15
G1 X85.591 Y20.3377
G1 X85.318
G1 X86.255 Y24.4055
G1 X86.5282
G1 X86.1743 Y22.8613
G3 X86.3205 Y22.6778 I0.1462 J-0.0335
G1 X88.5
G3 X88.6462 Y22.7943 I0.0 J0.15
G1 X89.0155 Y24.4055
G1 X89.2883
G1 X88.3513 Y20.3377
G1 X88.0784
G1 X88.5317 Y22.3012
G3 X88.5054 Y22.4252 I-0.1462 J0.0337
G0 Z3.0
G0 X90.4477 Y22.2064
G0 Z1.0
G1 F300.0 Z-0.5
G1 F800.0 X90.4527 Y22.2285
G3 X90.461 Y22.215 I0.2854 J0.1652
G3 X90.4477 Y22.2064 I0.1716 J-0.2819
G1 F300.0 X90.3892 Y22.2199
G1 F800.0 X90.865 Y24.2855
G1 X90.9567
G3 X90.8655 Y24.1383 I0.1716 J-0.2081
G1 X90.4753 Y22.4545
G3 X90.5582 Y22.1926 I0.2628 J-0.0609
G3 X90.3694 Y21.9937 I0.0743 J-0.2596
G1 X90.0158 Y20.4577
G1 X89.9833
G1 X90.3892 Y22.2199
G0 Z3.0
G0 X91.6396 Y22.137
G0 Z1.0
G1 F300.0 Z-0.5
G3 F800.0 X91.6705 Y22.1406 I-0.0451 J0.5186
G3 X91.7812 Y22.1556 I-0.1697 J1.6719
G3 X91.8131 Y21.9209 I0.2564 J-0.0847
G1 X92.7909 Y20.4577
G1 X92.758
G1 X91.6881 Y22.0816
G3 X91.6396 Y22.137 I-0.2255 J-0.1485
G0 Z3.0
G0 X92.7883 Y22.898
G0 Z1.0
G1 F300.0 Z-0.5
G3 F800.0 X92.9146 Y23.4665 I-1.223 J0.5701
G3 X92.848 Y23.8337 I-0.9185 J0.0231
G3 X92.844 Y23.8431 I-0.2501 J-0.101
G3 X92.6205 Y24.1284 I-0.6875 J-0.3085
G3 X92.4416 Y24.2384 I-0.5685 J-0.7241
G2 X92.766 Y24.0986 I-0.1599 J-0.8173
G2 X92.9455 Y23.8966 I-0.3626 J-0.5028
G2 X92.9896 Y23.7728 I-0.353 J-0.1954
G3 X92.9899 Y23.7711 I0.2657 J0.0479
G2 X93.0055 Y23.6023 I-0.8988 J-0.1682
G3 Y23.5999 I0.27 J-0.0001
G2 X92.9366 Y23.183 I-1.232 J-0.0105
G2 X92.7883 Y22.898 I-1.1449 J0.4149
G1 F300.0 X92.8865 Y22.8291
G2 F800.0 X92.8186 Y22.7406 I-1.0948 J0.7688
G3 X92.8183 Y22.7401 I0.1151 J-0.0961
G2 X92.4501 Y22.4163 I-1.2034 J0.997
G2 X91.996 Y22.2151 I-0.9629 J1.5597
G3 X91.9129 Y21.9876 I0.0416 J-0.1441
G1 X93.0154 Y20.3377
G1 X92.6934
G1 X91.5879 Y22.0156
G3 X91.4627 Y22.0831 I-0.1253 J-0.0825
G1 X90.6325
G3 X90.4864 Y21.9667 I0.0 J-0.15
G1 X90.1113 Y20.3377
G1 X89.8325
G1 X90.7695 Y24.4055
G1 X91.841
G2 X92.1572 Y24.3956 I-0.0097 J-5.3763
G2 X92.461 Y24.3569 I-0.1538 J-2.416
G3 X92.4611 I0.0284 J0.1473
G2 X92.836 Y24.1961 I-0.1794 J-0.9357
G2 X93.0505 Y23.9548 I-0.4326 J-0.6003
G2 X93.1077 Y23.7941 I-0.458 J-0.2536
G3 X93.1079 Y23.7931 I0.1476 J0.0266
G2 X93.1255 Y23.6023 I-1.0167 J-0.1903
G3 Y23.6009 I0.15 J-0.0001
G2 X93.0497 Y23.1428 I-1.352 J-0.0115
G2 X92.8865 Y22.8291 I-1.258 J0.4551
G0 Z3.0
G0 X92.6718 Y22.932
G0 Z1.0
G1 F300.0 Z-0.5
G3 F800.0 X92.673 Y22.9345 I-1.0361 J0.4972
G3 X92.7948 Y23.4681 I-1.1078 J0.5336
G3 X92.737 Y23.7889 I-0.7987 J0.0216
G3 X92.7348 Y23.7941 I-0.1391 J-0.0562
G3 X92.5467 Y24.0341 I-0.5783 J-0.2594
G3 X92.2112 Y24.1892 I-0.4946 J-0.6298
G3 X92.2108 Y24.1893 I-0.0298 J-0.147
G3 X91.7839 Y24.2274 I-0.3888 J-1.9458
G1 X91.1283
G3 X90.9821 Y24.1112 I0.0 J-0.15
G1 X90.592 Y22.4275
G3 X90.7381 Y22.2436 I0.1461 J-0.0339
G1 X91.3539
G3 X91.6156 Y22.2554 I0.0084 J2.7335
G3 X91.6556 Y22.2595 I-0.0211 J0.4003
G3 X91.8895 Y22.301 I-0.1547 J1.553
G3 X92.3279 Y22.5118 I-0.2864 J1.1567
G3 X92.6718 Y22.932 I-0.6921 J0.9174
G0 Z3.0
G0 X94.3693 Y22.5189
G0 Z1.0
G1 F300.0 Z-0.5
G2 F800.0 X94.441 Y22.7688 I3.1023 J-0.755
G2 X94.7845 Y23.454 I2.5741 J-0.8617
G3 X94.4891 Y22.7815 I2.3091 J-1.4156
G3 X94.3522 Y21.8302 I3.1572 J-0.9399
G3 X94.3531 Y21.7567 I1.0571 J-0.0235
G3 X94.435 Y21.2276 I1.9316 J0.028
G3 X94.7236 Y20.7169 I1.2511 J0.3703
G3 X94.7246 Y20.7158 I0.199 J0.1821
G3 X95.0695 Y20.4558 I0.8953 J0.8287
G2 X94.637 Y20.7173 I0.3661 J1.094
G2 X94.361 Y21.1658 I0.77 J0.7829
G2 X94.2788 Y21.7329 I1.7441 J0.5423
G3 Y21.7387 I-0.27 J0.0037
G2 X94.3693 Y22.5189 I3.1928 J0.0252
G0 Z3.0
G0 X97.1516 Y24.2826
G0 Z1.0
G1 F300.0 Z-0.5
G2 F800.0 X97.571 Y24.0276 I-0.3899 J-1.1133
G2 X97.8483 Y23.5805 I-0.7591 J-0.7804
G2 X97.9307 Y23.0139 I-1.7132 J-0.5384
G3 Y23.009 I0.27 J-0.0042
G2 X97.7722 Y21.9956 I-3.2664 J-0.0081
G3 X97.7716 Y21.994 I0.2569 J-0.0831
G2 X97.433 Y21.3019 I-2.4815 J0.7852
G3 X97.7198 Y21.9419 I-2.3254 J1.4261
G3 X97.7202 Y21.9435 I-0.2583 J0.0777
G3 X97.8574 Y22.9266 I-3.2419 J0.9533
G3 X97.7849 Y23.4881 I-1.9837 J0.0294
G3 X97.4862 Y24.0289 I-1.2793 J-0.3537
G3 X97.4836 Y24.0317 I-0.1993 J-0.1818
G3 X97.1516 Y24.2826 I-0.8972 J-0.8421
G1 F300.0 X97.1913 Y24.3958
G2 F800.0 X97.654 Y24.1142 I-0.4295 J-1.2265
G2 X97.9627 Y23.6168 I-0.8421 J-0.8671
G2 X98.0507 Y23.012 I-1.8276 J-0.5747
G3 Y23.0093 I0.15 J-0.0024
G2 X97.8863 Y21.9587 I-3.3864 J-0.0084
G3 X97.886 Y21.9578 I0.1427 J-0.0462
G2 X97.4148 Y21.0765 I-2.5959 J0.8214
G2 X96.661 Y20.4671 I-1.769 J1.4173
G2 X96.1815 Y20.299 I-0.9058 J1.8165
G2 X95.6695 Y20.2468 I-0.5068 J2.4312
G3 X95.6671 I-0.0003 J-0.15
G2 X95.0605 Y20.3326 I-0.027 J1.9945
G2 X94.5534 Y20.6312 I0.375 J1.2171
G2 X94.2466 Y21.1297 I0.8536 J0.869
G2 X94.1588 Y21.7345 I1.8585 J0.5783
G3 X94.1589 Y21.7377 I-0.15 J0.002
G2 X94.3272 Y22.8068 I3.3128 J0.0262
G2 X94.8085 Y23.6862 I2.6879 J-0.8997
G2 X95.5574 Y24.2755 I1.738 J-1.4383
G3 X95.5577 Y24.2756 I-0.0658 J0.1348
G2 X96.5357 Y24.4965 I0.9534 J-1.9462
G3 X96.5396 I0.0017 J0.15
G2 X97.1453 Y24.411 I0.0289 J-1.9838
G2 X97.1913 Y24.3958 I-0.3835 J-1.2417
G0 Z3.0
G0 X97.0843 Y24.1825
G0 Z1.0
G1 F300.0 Z-0.5
G3 F800.0 X96.9501 Y24.2391 I-0.4979 J-0.9929
G3 X96.9495 Y24.2393 I-0.0491 J-0.1417
G3 X96.4461 Y24.3183 I-0.4775 J-1.3996
G3 X95.6164 Y24.107 I-0.0197 J-1.6574
G3 X95.6153 Y24.1064 I0.0733 J-0.1309
G3 X94.9875 Y23.5436 I0.9936 J-1.7399
G3 X94.9868 Y23.5427 I0.1214 J-0.0881
G3 X94.6041 Y22.748 I2.1068 J-1.5042
G3 X94.4719 Y21.829 I3.0423 J-0.9064
G3 X94.4728 Y21.7604 I0.9373 J-0.0224
G3 X94.5497 Y21.2618 I1.8119 J0.0242
G3 X94.812 Y20.7978 I1.1363 J0.3361
G3 X94.8125 Y20.7972 I0.1106 J0.1013
G3 X95.2605 Y20.5047 I0.8074 J0.7474
G3 X95.2619 Y20.5042 I0.049 J0.1418
G3 X95.7661 Y20.4249 I0.487 J1.454
G3 X96.5912 Y20.6345 I0.0165 J1.6646
G3 X96.5919 Y20.6349 I-0.0729 J0.1311
G3 X97.21 Y21.1845 I-0.953 J1.6939
G3 X97.6051 Y21.9764 I-2.1024 J1.5435
G3 X97.6054 Y21.9773 I-0.1436 J0.0432
G3 X97.7376 Y22.927 I-3.127 J0.9195
G3 X97.6695 Y23.4561 I-1.8639 J0.029
G3 X97.3977 Y23.9482 I-1.1639 J-0.3217
G3 X97.3963 Y23.9498 I-0.1108 J-0.1011
G3 X97.0843 Y24.1825 I-0.8099 J-0.7602
G0 Z3.0
G0 X96.4509 Y26.1109
G0 Z1.0
G1 F300.0 Z-0.5
G2 F800.0 X96.3489 Y26.1425 I0.3844 J1.4192
G2 X96.0808 Y26.301 I0.2643 J0.7532
G2 X95.8864 Y26.5935 I0.5036 J0.5456
G2 X95.825 Y26.973 I1.0155 J0.3591
G3 Y26.9787 I-0.27 J0.0051
G2 X95.847 Y27.2855 I2.0881 J0.0042
G1 X95.8753 Y27.4475
G1 X95.9086 Y27.6089
G1 X96.4761 Y30.0635
G1 X96.5206
G1 X95.975 Y27.7
G3 X95.911 Y27.3527 I2.6762 J-0.6728
G3 X95.9108 Y27.3512 I0.2681 J-0.0318
G3 X95.8955 Y27.2134 I32.5096 J-3.6798
G3 X95.8947 Y27.2043 I0.2684 J-0.0292
G1 X95.8895 Y27.1357
G3 X95.8889 Y27.1241 I0.2693 J-0.0201
G1 X95.8868 Y27.0555
G3 X95.8867 Y27.0515 I0.2699 J-0.0085
G3 X95.9496 Y26.6477 I1.1986 J-0.02
G3 X95.9504 Y26.6454 I0.2558 J0.0864
G3 X96.2013 Y26.2694 I0.8512 J0.2964
G3 X96.2063 Y26.2651 I0.1798 J0.2014
G3 X96.4509 Y26.1109 I0.662 J0.779
G0 Z3.0
G0 X98.4723 Y26.8244
G0 Z1.0
G1 F300.0 Z-0.5
G3 F800.0 X98.5435 Y26.9723 I-1.6029 J0.8638
G3 X98.545 Y26.9758 I-0.2483 J0.1062
G3 X98.7279 Y27.5627 I-3.2457 J1.3332
G1 X99.3048 Y30.0635
G1 X99.3491
G1 X98.809 Y27.7274
G3 X98.8089 Y27.7271 I0.2631 J-0.0608
G2 X98.6936 Y27.3188 I-4.1927 J0.9635
G2 X98.6211 Y27.1251 I-3.4565 J1.1829
G1 X98.5795 Y27.0295
G1 X98.5336 Y26.9346
G2 X98.4723 Y26.8244 I-1.3966 J0.7053
G1 F300.0 X98.3666 Y26.8813
G3 F800.0 X98.4332 Y27.0194 I-1.4972 J0.8069
G3 X98.434 Y27.0214 I-0.1379 J0.059
G3 X98.6108 Y27.5889 I-3.1347 J1.2876
G1 X99.2093 Y30.1835
G1 X99.5
G1 X98.9259 Y27.7004
G3 X98.9258 Y27.7002 I0.1461 J-0.0338
G2 X98.8072 Y27.2802 I-4.3097 J0.9904
G2 X98.7317 Y27.0786 I-3.5701 J1.2215
G1 X98.6886 Y26.9794
G1 X98.6412 Y26.8814
G2 X98.205 Y26.3371 I-1.5042 J0.7585
G2 X97.6549 Y26.0338 I-1.1183 J1.3779
G2 X97.3111 Y25.9565 I-0.5539 J1.6591
G3 X97.3093 Y25.9562 I0.018 J-0.1489
G2 X96.9481 Y25.9339 I-0.3402 J2.5642
G3 X96.9463 I-0.0012 J-0.15
G2 X96.6839 Y25.9469 I-0.009 J2.4608
G3 X96.6828 Y25.947 I-0.0154 J-0.1492
G2 X96.3091 Y26.0293 I0.1525 J1.583
G2 X96.0001 Y26.2122 I0.3041 J0.8664
G2 X95.7734 Y26.553 I0.5843 J0.6344
G2 X95.705 Y26.9753 I1.1285 J0.3996
G3 Y26.9785 I-0.15 J0.0029
G2 X95.7286 Y27.3045 I2.2081 J0.0044
G1 X95.7574 Y27.4699
G1 X95.7914 Y27.6346
G1 X96.3807 Y30.1835
G1 X96.6715
G1 X96.0916 Y27.6719
G3 X96.0301 Y27.3386 I2.5596 J-0.6446
G3 X96.03 Y27.3377 I0.149 J-0.0177
G3 X96.0148 Y27.2005 I32.3903 J-3.6663
G3 X96.0143 Y27.1954 I0.1491 J-0.0162
G1 X96.0092 Y27.1268
G3 X96.0089 Y27.1204 I0.1496 J-0.0112
G1 X96.0067 Y27.0517
G3 Y27.0495 I0.1499 J-0.0047
G3 X96.0633 Y26.6861 I1.0786 J-0.018
G3 X96.0637 Y26.6848 I0.1421 J0.048
G3 X96.2812 Y26.3589 I0.7379 J0.2569
G3 X96.284 Y26.3565 I0.0999 J0.1119
G3 X96.6638 Y26.1653 I0.5843 J0.6876
G3 X97.0525 Y26.1218 I0.3647 J1.5001
G3 X97.3615 Y26.1459 I0.0079 J1.8931
G3 X97.6702 Y26.2313 I-0.2279 J1.4231
G3 X97.6709 Y26.2316 I-0.0558 J0.1392
G3 X98.1478 Y26.5664 I-0.4924 J1.2083
G3 X98.1492 Y26.5681 I-0.1114 J0.1004
G3 X98.3666 Y26.8813 I-1.2799 J1.1201
G0 Z3.0
G0 X100.5999 Y27.9207
G0 Z1.0
G1 F300.0 Z-0.5
G1 F800.0 X100.613 Y27.9778
G3 X100.6335 Y27.9431 I0.2938 J0.1497
G3 X100.5999 Y27.9207 I0.1656 J-0.2855
G1 F300.0 X100.5414 Y27.9342
G1 F800.0 X101.0319 Y30.0635
G1 X101.1459
G3 X101.0422 Y29.9065 I0.159 J-0.2179
G1 X100.6441 Y28.1884
G3 X100.7347 Y27.9198 I0.2628 J-0.0609
G3 X100.536 Y27.7182 I0.0644 J-0.2622
G1 X100.1741 Y26.1467
G1 X100.1297
G1 X100.5414 Y27.9342
G0 Z3.0
G0 X101.8127 Y27.8702
G0 Z1.0
G1 F300.0 Z-0.5
G3 F800.0 X101.8576 Y27.8749 I-0.0319 J0.5248
G3 X101.9795 Y27.8917 I-0.1726 J1.7011
G3 X102.0084 Y27.6483 I0.2533 J-0.0934
G1 X103.0118 Y26.1467
G1 X102.965
G1 X101.8716 Y27.8062
G3 X101.8127 Y27.8702 I-0.2255 J-0.1485
G0 Z3.0
G0 X103.1617 Y29.448
G0 Z1.0
G1 F300.0 Z-0.5
G3 F800.0 X103.1103 Y29.6174 I-0.9715 J-0.2021
G3 X103.1054 Y29.6289 I-0.3058 J-0.1235
G3 X103.069 Y29.7005 I-0.7512 J-0.337
G2 X103.1116 Y29.6348 I-0.463 J-0.3465
G2 X103.1506 Y29.5252 I-0.3125 J-0.173
G3 X103.151 Y29.5231 I0.3248 J0.0586
G2 X103.1617 Y29.448 I-0.8639 J-0.1617
G1 F300.0 X103.103 Y29.4358
G3 F800.0 X103.0547 Y29.5949 I-0.9128 J-0.1899
G3 X103.0507 Y29.6044 I-0.2501 J-0.101
G3 X102.8242 Y29.8934 I-0.6964 J-0.3124
G3 X102.5993 Y30.024 I-0.5766 J-0.7342
G2 X102.6428 Y30.016 I-0.4019 J-2.3237
G3 X102.643 I0.051 J0.2651
G2 X102.9793 Y29.8718 I-0.1611 J-0.84
G2 X103.1641 Y29.6638 I-0.3733 J-0.5177
G2 X103.2096 Y29.5358 I-0.365 J-0.202
G3 X103.21 Y29.5341 I0.2657 J0.0479
G2 X103.226 Y29.3609 I-0.9229 J-0.1727
G3 Y29.3584 I0.27 J-0.0001
G2 X103.1554 Y28.9312 I-1.2622 J-0.0108
G2 X102.967 Y28.59 I-1.174 J0.4254
G3 X102.9865 Y28.6291 I-1.1442 J0.5942
G3 X103.1222 Y29.2224 I-1.2356 J0.5949
G3 X103.103 Y29.4358 I-0.932 J0.0235
G0 Z3.0
G0 X103.3416 Y29.4575
G0 Z1.0
G1 F300.0 Z-0.5
G2 F800.0 X103.346 Y29.3608 I-1.0546 J-0.0962
G3 Y29.3595 I0.15 J-0.0001
G2 X103.2684 Y28.891 I-1.3822 J-0.0118
G2 X103.0321 Y28.4796 I-1.287 J0.4657
G3 X103.0318 Y28.4792 I0.1152 J-0.0961
G2 X102.6554 Y28.1481 I-1.2302 J1.0191
G2 X102.1912 Y27.9424 I-0.9843 J1.5946
G3 X102.1081 Y27.715 I0.0416 J-0.1441
G1 X103.2363 Y26.0267
G1 X102.9003
G1 X101.7714 Y27.7401
G3 X101.6462 Y27.8076 I-0.1253 J-0.0825
G1 X100.7991
G3 X100.6529 Y27.6913 I0.0 J-0.15
G1 X100.2696 Y26.0267
G1 X99.9789
G1 X100.9364 Y30.1835
G1 X102.0322
G2 X102.355 Y30.1735 I-0.0102 J-5.4991
G2 X102.6655 Y30.1339 I-0.1577 J-2.4732
G1 X102.6656 Y30.1338
G2 X103.0493 Y29.9692 I-0.1837 J-0.9579
G2 X103.269 Y29.722 I-0.4433 J-0.6152
G2 X103.3277 Y29.5571 I-0.4699 J-0.2602
G3 X103.3279 Y29.5562 I0.1476 J0.0266
G2 X103.3416 Y29.4575 I-1.0409 J-0.1948
G0 Z3.0
G0 X102.9893 Y29.3928
G0 Z1.0
G1 F300.0 Z-0.5
G3 F800.0 X102.9436 Y29.5501 I-0.7992 J-0.1469
G3 X102.9414 Y29.5553 I-0.1391 J-0.0562
G3 X102.7504 Y29.7991 I-0.5872 J-0.2634
G3 X102.4093 Y29.9567 I-0.5027 J-0.64
G3 X102.4089 Y29.9568 I-0.0298 J-0.147
G3 X101.974 Y29.9956 I-0.3961 J-1.9816
G1 X101.305
G3 X101.1588 Y29.8795 I0.0 J-0.15
G1 X100.7607 Y28.1614
G3 X100.9069 Y27.9775 I0.1461 J-0.0339
G1 X101.5352
G3 X101.802 Y27.9895 I0.0082 J2.7927
G3 X101.8426 Y27.9937 I-0.0213 J0.4054
G3 X102.081 Y28.036 I-0.1576 J1.5823
G3 X102.5272 Y28.2506 I-0.2915 J1.1773
G3 X102.8785 Y28.6808 I-0.7043 J0.9336
G3 X103.0024 Y29.224 I-1.1276 J0.5431
G3 X102.9893 Y29.3928 I-0.8123 J0.0219
G0 Z3.0
G0 X104.8748 Y29.6435
G0 Z1.0
G1 F300.0 Z-0.5
G1 F800.0 X104.819 Y30.0635
G1 X104.8888
G1 X105.3472 Y26.385
G3 X105.7702 Y26.1974 I0.2679 J0.0334
G1 X105.74 Y26.1467
G1 X105.3398
G1 X104.8748 Y29.6435
G0 Z3.0
G0 X107.9077 Y29.7897
G0 Z1.0
G1 F300.0 Z-0.5
G1 F800.0 X108.0685 Y30.0635
G1 X108.0707
G1 X107.9077 Y29.7897
G1 F300.0 X108.0108 Y29.7283
G1 F800.0 X105.8082 Y26.0267
G1 X105.2347
G1 X104.6819 Y30.1835
G1 X104.9948
G1 X105.4663 Y26.3999
G3 X105.7445 Y26.3425 I0.1488 J0.0185
G1 X107.9998 Y30.1835
G1 X108.2817
G1 X108.0108 Y29.7283
G0 Z3.0
G0 X109.1698 Y28.4161
G0 Z1.0
G1 F300.0 Z-0.5
G3 F800.0 X109.2028 Y28.3656 I0.2916 J0.1545
G3 X109.1511 Y28.3349 I0.1419 J-0.2979
G1 X109.1698 Y28.4161
G0 Z3.0
G0 X108.6652 Y26.2257
G0 Z1.0
G1 F300.0 Z-0.5
G3 F800.0 X108.6763 Y26.2067 I0.2903 J0.1568
G1 X108.6609
G1 X108.6652 Y26.2257
G1 F300.0 X108.6068 Y26.2391
G1 F800.0 X109.4877 Y30.0635
G1 X109.6174
G3 X109.4856 Y29.8878 I0.1314 J-0.2359
G1 X109.1982 Y28.6307
G3 X109.3259 Y28.337 I0.2632 J-0.0602
G3 X109.0816 Y28.1284 I0.0188 J-0.2693
G1 X108.6925 Y26.4433
G3 X108.8242 Y26.1467 I0.2631 J-0.0607
G1 X108.5855
G1 X108.6068 Y26.2391
G1 F300.0 X108.4898 Y26.2661
G1 F800.0 X109.3922 Y30.1835
G1 X112.0206
G1 X111.9731 Y29.9777
G1 X109.7488
G3 X109.6026 Y29.8611 I0.0 J-0.15
G1 X109.3152 Y28.604
G3 X109.4614 Y28.4205 I0.1462 J-0.0334
G1 X111.6163
G1 X111.5692 Y28.2177
G1 X109.3447
G3 X109.1985 Y28.1014 I0.0 J-0.15
G1 X108.8094 Y26.4163
G3 X108.9556 Y26.2325 I0.1462 J-0.0337
G1 X111.1107
G1 X111.0632 Y26.0267
G1 X108.4347
G1 X108.4898 Y26.2661
G0 Z3.0
G0 X108.7899 Y24.2995
G0 Z1.0
G1 F300.0 Z-0.5
G3 F800.0 X108.2299 Y24.1071 I0.25 J-1.6386
G3 X108.2288 Y24.1064 I0.0733 J-0.1309
G3 X107.601 Y23.5436 I0.9937 J-1.74
G3 X107.6003 Y23.5427 I0.1214 J-0.0881
G3 X107.2176 Y22.748 I2.107 J-1.5043
G3 X107.0855 Y21.829 I3.0419 J-0.9064
G3 X107.0863 Y21.7604 I0.9373 J-0.0224
G3 X107.1632 Y21.2618 I1.8119 J0.0242
G3 X107.4255 Y20.7978 I1.1363 J0.3361
G3 X107.426 Y20.7972 I0.1106 J0.1013
G3 X107.874 Y20.5047 I0.8074 J0.7474
G3 X107.8754 Y20.5042 I0.049 J0.1418
G3 X108.3796 Y20.4249 I0.487 J1.4541
G3 X109.2048 Y20.6345 I0.0165 J1.6644
G3 X109.2054 Y20.6349 I-0.0729 J0.1311
G3 X109.8235 Y21.1845 I-0.9531 J1.6941
G3 X110.2186 Y21.9764 I-2.1025 J1.5435
G3 X110.2189 Y21.9773 I-0.1436 J0.0432
G3 X110.3511 Y22.927 I-3.1268 J0.9194
G3 X110.283 Y23.4561 I-1.8639 J0.029
G3 X110.0113 Y23.9482 I-1.1639 J-0.3217
G3 X110.0098 Y23.9498 I-0.1108 J-0.1011
G3 X109.5637 Y24.2391 I-0.8099 J-0.7602
G3 X109.563 Y24.2393 I-0.0491 J-0.1417
G3 X109.0596 Y24.3183 I-0.4776 J-1.3999
G3 X108.7899 Y24.2995 I-0.0197 J-1.6575
G0 Z3.0
G0 X109.7652 Y24.2826
G0 Z1.0
G1 F300.0 Z-0.5
G2 F800.0 X110.1845 Y24.0276 I-0.3899 J-1.1134
G2 X110.4618 Y23.5805 I-0.759 J-0.7804
G2 X110.5442 Y23.0139 I-1.7131 J-0.5384
G3 Y23.009 I0.27 J-0.0042
G2 X110.3857 Y21.9956 I-3.2663 J-0.0081
G3 X110.3852 Y21.994 I0.2569 J-0.0831
G2 X110.0466 Y21.302 I-2.4818 J0.7853
G3 X110.3333 Y21.9419 I-2.3255 J1.4261
G3 X110.3338 Y21.9435 I-0.2583 J0.0777
G3 X110.4709 Y22.9266 I-3.2417 J0.9532
G3 X110.3984 Y23.4881 I-1.9836 J0.0294
G3 X110.0997 Y24.0289 I-1.2793 J-0.3537
G3 X110.0971 Y24.0317 I-0.1993 J-0.1818
G3 X109.7652 Y24.2826 I-0.8972 J-0.8422
G0 Z3.0
G0 X107.3981 Y23.454
G0 Z1.0
G1 F300.0 Z-0.5
G3 F800.0 X107.1026 Y22.7815 I2.3093 J-1.4157
G3 X106.9657 Y21.8302 I3.1569 J-0.9399
G3 X106.9666 Y21.7567 I1.057 J-0.0235
G3 X107.0485 Y21.2276 I1.9316 J0.028
G3 X107.3371 Y20.7169 I1.251 J0.3703
G3 X107.3382 Y20.7158 I0.199 J0.1821
G3 X107.683 Y20.4558 I0.8953 J0.8287
G2 X107.2505 Y20.7173 I0.3661 J1.094
G2 X106.9745 Y21.1658 I0.7699 J0.7829
G2 X106.8924 Y21.7329 I1.7441 J0.5423
G3 Y21.7387 I-0.27 J0.0037
G2 X107.0545 Y22.7688 I3.1928 J0.0252
G2 X107.3981 Y23.454 I2.5743 J-0.8618
G1 F300.0 X107.2994 Y23.5224
G2 F800.0 X107.422 Y23.6862 I2.3294 J-1.6154
G2 X108.171 Y24.2755 I1.7379 J-1.4381
G3 X108.1712 Y24.2756 I-0.0658 J0.1348
G2 X109.1492 Y24.4965 I0.9534 J-1.9461
G3 X109.1531 I0.0017 J0.15
G2 X109.7588 Y24.411 I0.029 J-1.9834
G2 X110.2675 Y24.1142 I-0.3835 J-1.2418
G2 X110.5762 Y23.6168 I-0.842 J-0.8671
G2 X110.6642 Y23.012 I-1.8275 J-0.5747
G3 Y23.0093 I0.15 J-0.0024
G2 X110.4999 Y21.9587 I-3.3863 J-0.0084
G3 X110.4996 Y21.9578 I0.1427 J-0.0462
G2 X110.0283 Y21.0765 I-2.5962 J0.8215
G2 X109.2746 Y20.4671 I-1.769 J1.4173
G2 X108.795 Y20.299 I-0.9059 J1.8167
G2 X108.283 Y20.2468 I-0.5068 J2.4313
G3 X108.2806 I-0.0003 J-0.15
G2 X107.6741 Y20.3326 I-0.027 J1.9943
G2 X107.1669 Y20.6312 I0.375 J1.2171
G2 X106.8601 Y21.1297 I0.8535 J0.8689
G2 X106.7724 Y21.7345 I1.8585 J0.5784
G3 Y21.7377 I-0.15 J0.002
G2 X106.9407 Y22.8067 I3.3128 J0.0262
G2 X107.2994 Y23.5224 I2.6881 J-0.8998
G0 Z3.0
G0 X105.6188 Y23.5611
G0 Z1.0
G1 F300.0 Z-0.5
G2 F800.0 X105.5501 Y23.183 I-1.2318 J0.0283
G2 X105.4018 Y22.898 I-1.1449 J0.4149
G3 X105.5281 Y23.4665 I-1.223 J0.5701
G3 X105.4616 Y23.8337 I-0.9185 J0.0231
G3 X105.4576 Y23.8431 I-0.2501 J-0.101
G3 X105.234 Y24.1284 I-0.6875 J-0.3084
G3 X105.0551 Y24.2384 I-0.5685 J-0.7241
G2 X105.3796 Y24.0986 I-0.1599 J-0.8173
G2 X105.559 Y23.8966 I-0.3626 J-0.5028
G2 X105.6031 Y23.7728 I-0.353 J-0.1954
G3 X105.6034 Y23.7711 I0.2657 J0.0479
G2 X105.619 Y23.6023 I-0.8988 J-0.1682
G3 Y23.5999 I0.27 J-0.0001
G2 X105.6188 Y23.5611 I-1.232 J-0.0105
G0 Z3.0
G0 X104.3948 Y22.1556
G0 Z1.0
G1 F300.0 Z-0.5
G3 F800.0 X104.4267 Y21.9209 I0.2564 J-0.0847
G1 X105.4044 Y20.4577
G1 X105.3715
G1 X104.3017 Y22.0816
G3 X104.2532 Y22.137 I-0.2255 J-0.1485
G3 X104.284 Y22.1406 I-0.0451 J0.5186
G3 X104.3948 Y22.1556 I-0.1696 J1.6715
G0 Z3.0
G0 X103.0745 Y22.215
G0 Z1.0
G1 F300.0 Z-0.5
G3 F800.0 X103.0612 Y22.2064 I0.1716 J-0.2819
G1 X103.0663 Y22.2285
G3 X103.0745 Y22.215 I0.2854 J0.1652
G1 F300.0 X103.1057 Y22.1637
G3 F800.0 X102.983 Y21.9937 I0.1404 J-0.2306
G1 X102.6293 Y20.4577
G1 X102.5968
G1 X103.4785 Y24.2855
G1 X103.5702
G3 X103.479 Y24.1383 I0.1716 J-0.2081
G1 X103.0889 Y22.4545
G3 X103.1717 Y22.1926 I0.2628 J-0.0609
G3 X103.1057 Y22.1637 I0.0743 J-0.2596
G1 F300.0 X103.1681 Y22.0612
G3 F800.0 X103.0999 Y21.9667 I0.078 J-0.1281
G1 X102.7248 Y20.3377
G1 X102.446
G1 X103.383 Y24.4055
G1 X104.4545
G2 X104.7707 Y24.3956 I-0.0097 J-5.3763
G2 X105.0745 Y24.3569 I-0.1538 J-2.416
G3 X105.0746 I0.0284 J0.1473
G2 X105.4496 Y24.1961 I-0.1794 J-0.9357
G2 X105.664 Y23.9548 I-0.4326 J-0.6003
G2 X105.7212 Y23.7941 I-0.458 J-0.2536
G3 X105.7214 Y23.7931 I0.1476 J0.0266
G2 X105.739 Y23.6023 I-1.0167 J-0.1903
G3 Y23.6009 I0.15 J-0.0001
G2 X105.6632 Y23.1428 I-1.352 J-0.0115
G2 X105.4322 Y22.7406 I-1.258 J0.4551
G3 X105.4318 Y22.7401 I0.1151 J-0.0961
G2 X105.0636 Y22.4163 I-1.2034 J0.997
G2 X104.6095 Y22.2151 I-0.9629 J1.5597
G3 X104.5264 Y21.9876 I0.0416 J-0.1441
G1 X105.6289 Y20.3377
G1 X105.3069
G1 X104.2015 Y22.0156
G3 X104.0762 Y22.0831 I-0.1253 J-0.0825
G1 X103.2461
G3 X103.1681 Y22.0612 I0.0 J-0.15
G0 Z3.0
G0 X103.2791 Y22.2623
G0 Z1.0
G1 F300.0 Z-0.5
G3 F800.0 X103.3517 Y22.2436 I0.0725 J0.1313
G1 X103.9675
G3 X104.2292 Y22.2554 I0.008 J2.7407
G3 X104.2691 Y22.2595 I-0.0211 J0.4003
G3 X104.5031 Y22.301 I-0.1547 J1.5527
G3 X104.9414 Y22.5118 I-0.2865 J1.1568
G3 X105.2866 Y22.9345 I-0.6921 J0.9174
G3 X105.4084 Y23.4681 I-1.1078 J0.5336
G3 X105.3505 Y23.7889 I-0.7987 J0.0216
G3 X105.3483 Y23.7941 I-0.1391 J-0.0562
G3 X105.1602 Y24.0341 I-0.5782 J-0.2594
G3 X104.8247 Y24.1892 I-0.4946 J-0.6298
G3 X104.8243 Y24.1893 I-0.0298 J-0.147
G3 X104.3974 Y24.2274 I-0.3888 J-1.9458
G1 X103.7418
G3 X103.5957 Y24.1112 I0.0 J-0.15
G1 X103.2055 Y22.4275
G3 X103.2791 Y22.2623 I0.1461 J-0.0339
G0 Z3.0
G0 X100.7116 Y24.211
G0 Z1.0
G1 F300.0 Z-0.5
G3 F800.0 X100.7036 Y24.2255 I-0.2933 J-0.1512
G1 X100.7196
G3 X100.7116 Y24.211 I0.2854 J-0.1657
G1 F300.0 X100.6583 Y24.1835
G3 F800.0 X100.5664 Y24.2855 I-0.24 J-0.1237
G1 X100.8568
G3 X100.7419 Y24.1206 I0.1481 J-0.2257
G1 X99.8956 Y20.4577
G1 X99.8631
G1 X100.6814 Y23.999
G3 X100.6583 Y24.1835 I-0.2631 J0.0608
G1 F300.0 X100.5516 Y24.1285
G3 F800.0 X100.4183 Y24.2098 I-0.1333 J-0.0687
G1 X99.0481
G1 X99.0921 Y24.4055
G1 X102.4866
G1 X102.4426 Y24.2098
G1 X101.005
G3 X100.8588 Y24.0936 I0.0 J-0.15
G1 X99.991 Y20.3377
G1 X99.7122
G1 X100.5644 Y24.026
G3 X100.5516 Y24.1285 I-0.1461 J0.0338
G0 Z3.0
G0 X112.3682 Y24.2039
G0 Z1.0
G1 F300.0 Z-0.5
G1 F800.0 X112.3871 Y24.2855
G1 X112.424
G3 X112.3682 Y24.2039 I0.1913 J-0.1905
G0 Z3.0
G0 X114.0906 Y20.6014
G0 Z1.0
G1 F300.0 Z-0.5
G3 F800.0 X114.1971 Y20.6031 I0.0471 J0.3871
G1 X114.1913 Y20.5777
G1 X114.0978
G1 X114.0906 Y20.6014
G1 F300.0 X113.9758 Y20.5663
G1 F800.0 X112.8735 Y24.1739
G3 X112.8066 Y24.2855 I-0.2582 J-0.0789
G1 X112.8467
G1 X113.8795 Y20.9096
G3 X114.3835 Y20.8769 I0.2582 J0.079
G1 X114.2867 Y20.4577
G1 X114.009
G1 X113.9758 Y20.5663
G1 F300.0 X113.861 Y20.5313
G1 F800.0 X112.7587 Y24.1388
G3 X112.4691 Y24.1288 I-0.1435 J-0.0438
G1 X111.5925 Y20.3377
G1 X111.3519
G1 X112.2916 Y24.4055
G1 X112.9355
G1 X113.9943 Y20.9447
G3 X114.2838 Y20.9548 I0.1434 J0.0439
G1 X115.0813 Y24.4055
G1 X115.3219
G1 X114.3821 Y20.3377
G1 X113.9202
G1 X113.861 Y20.5313
G0 Z3.0
G0 X113.8397 Y27.9191
G0 Z1.0
G1 F300.0 Z-0.5
G1 F800.0 X113.7904 Y28.0464
G3 X113.8805 Y28.0101 I0.1669 J0.2847
G3 X113.8397 Y27.9191 I0.2773 J-0.1789
G1 F300.0 X113.7837 Y27.8974
G1 F800.0 X112.9446 Y30.0635
G1 X112.9997
G1 X113.7053 Y28.2339
G3 X114.0022 Y28.0649 I0.2519 J0.0972
G1 X113.9523 Y28.0064
G3 X113.8947 Y27.892 I0.2054 J-0.1752
G1 X113.4911 Y26.1467
G1 X113.4466
G1 X113.8072 Y27.7076
G3 X113.7959 Y27.8659 I-0.2631 J0.0608
G1 X113.7837 Y27.8974
G1 F300.0 X113.6718 Y27.854
G1 F800.0 X112.7694 Y30.1835
G1 X113.0821
G1 X113.8173 Y28.2771
G3 X114.072 Y28.2345 I0.14 J0.054
G1 X115.7122 Y30.1835
G1 X115.9668
G1 X114.0436 Y27.9286
G3 X114.0116 Y27.865 I0.1141 J-0.0973
G1 X113.5865 Y26.0267
G1 X113.2958
G1 X113.6903 Y27.7346
G3 X113.684 Y27.8225 I-0.1462 J0.0338
G1 X113.6718 Y27.854
G0 Z3.0
G0 X122.1762 Y26.1005
G0 Z1.0
G1 F300.0 Z-0.5
G1 F800.0 X122.1799 Y26.1128
G3 X122.1804 Y26.1145 I-0.9493 J0.2809
G3 X122.2168 Y26.2545 I-2.1969 J0.6459
G2 X122.329 Y26.2698 I0.2532 J-1.4324
G3 X122.5835 Y26.3033 I-0.1834 J2.3801
G3 X122.4907 Y26.1761 I1.1666 J-0.9492
G2 X122.3528 Y26.1333 I-0.3882 J1.0056
G2 X122.1762 Y26.1005 I-0.4455 J1.905
G1 F300.0 X122.1927 Y25.9816
G2 F800.0 X122.0065 Y25.9643 I-0.2854 J2.0567
G3 X122.0103 Y25.9759 I-3.8479 J1.275
G3 X122.0316 Y26.0404 I-1.2769 J0.4576
G1 X122.0539 Y26.1107
G3 X122.059 Y26.1271 I-0.8292 J0.2633
G1 X122.0648 Y26.1469
G3 X122.0652 Y26.1484 I-0.8342 J0.2468
G3 X122.1154 Y26.3562 I-2.0817 J0.612
G2 X122.1198 Y26.3572 I0.1111 J-0.4773
G3 X122.1224 Y26.3578 I-0.1894 J0.8491
G2 X122.3186 Y26.3894 I0.3476 J-1.5358
G3 X122.6326 Y26.4357 I-0.173 J2.2606
G1 X122.8299 Y26.4784
G3 X122.8506 Y26.4831 I-0.184 J0.8503
G2 X122.9937 Y26.5137 I0.6338 J-2.6183
G3 X122.994 Y26.5132 I0.6998 J0.517
G3 X122.5714 Y26.0794 I0.7561 J-1.1591
G2 X122.3804 Y26.0165 I-0.4689 J1.1023
G2 X122.1927 Y25.9816 I-0.4731 J2.0218
G1 F300.0 X122.2092 Y25.8627
G2 F800.0 X121.8657 Y25.8423 I-0.3019 J2.1756
G3 X121.857 Y25.8424 I-0.0142 J-0.7499
G2 X121.8367 Y25.8426 I0.0249 J3.4055
G1 X121.8452 Y25.8672
G3 X121.8968 Y26.0149 I-3.6866 J1.372
G3 X121.917 Y26.0759 I-1.1634 J0.4186
G1 X121.9395 Y26.147
G3 X121.9439 Y26.1612 I-0.7148 J0.227
G1 X121.9497 Y26.1809
G3 X121.9501 Y26.1822 I-0.7192 J0.2128
G3 X122.0096 Y26.4491 I-1.9666 J0.5782
G2 X122.0936 Y26.4744 I0.2169 J-0.5702
G3 X122.0959 Y26.4749 I-0.1633 J0.732
G2 X122.3083 Y26.5089 I0.374 J-1.6528
G3 X122.607 Y26.5529 I-0.1627 J2.141
G1 X122.8045 Y26.5957
G3 X122.8223 Y26.5997 I-0.1586 J0.733
G2 X123.0501 Y26.645 I0.6621 J-2.7349
G3 X123.1814 Y26.4826 I0.6433 J0.3856
G3 X123.0987 Y26.4371 I0.7461 J-1.4556
G3 X123.0827 Y26.4275 I0.38 J-0.6466
G3 X122.655 Y25.9853 I0.6673 J-1.0734
G2 X122.63 Y25.974 I-0.4035 J0.8574
G3 X122.6296 Y25.9738 I0.2995 J-0.6876
G2 X122.4079 Y25.8997 I-0.5271 J1.2079
G2 X122.2092 Y25.8627 I-0.5007 J2.1386
G1 F300.0 X122.2257 Y25.7439
G2 F800.0 X121.8634 Y25.7223 I-0.3184 J2.2944
G3 X121.8561 Y25.7224 I-0.0119 J-0.6299
G2 X121.6728 Y25.7285 I0.0258 J3.5255
G1 X121.6951 Y25.7997
G1 X121.7322 Y25.9077
G3 X121.7833 Y26.0539 I-3.5736 J1.3316
G3 X121.8023 Y26.1114 I-1.0499 J0.3796
G1 X121.8252 Y26.1833
G3 X121.8288 Y26.1952 I-0.6005 J0.1907
G1 X121.8347 Y26.215
G3 X121.835 Y26.216 I-0.6041 J0.1788
G3 X121.8938 Y26.4863 I-1.8515 J0.5443
G3 X121.8983 Y26.5278 I-0.6236 J0.0895
G2 X121.9434 Y26.5519 I0.1561 J-0.2377
G2 X122.0675 Y26.5915 I0.2831 J-0.6729
G3 X122.0694 Y26.5919 I-0.1372 J0.6149
G2 X122.298 Y26.6285 I0.4005 J-1.7699
G3 X122.5814 Y26.6702 I-0.1525 J2.0214
G1 X122.7791 Y26.7129
G3 X122.7941 Y26.7164 I-0.1332 J0.6157
G2 X123.1173 Y26.7757 I0.6903 J-2.8516
G3 X123.4295 Y26.4585 I0.5761 J0.2549
G3 X123.1595 Y26.3337 I0.498 J-1.4316
G3 X123.1461 Y26.3256 I0.3192 J-0.5431
G3 X122.7417 Y25.8943 I0.604 J-0.9715
G2 X122.6779 Y25.864 I-0.4902 J0.9484
G3 X122.6776 Y25.8638 I0.2516 J-0.5776
G2 X122.4355 Y25.7829 I-0.5751 J1.3179
G2 X122.2257 Y25.7439 I-0.5282 J2.2554
G0 Z3.0
G0 X127.47 Y32.0041
G0 Z1.0
G1 F300.0 Z-0.5
G3 F800.0 X127.1474 Y32.4066 I-23.2177 J-18.2783
G3 X127.3139 Y32.5164 I-0.3923 J0.7765
G3 X127.47 Y32.0041 I8.3851 J2.2748
G1 F300.0 X127.5837 Y32.0426
G3 F800.0 X127.8561 Y31.3411 I8.1153 J2.7487
G3 X127.9085 Y31.2242 I6.2889 J2.7476
G3 X127.7751 Y31.4065 I-5.925 J-4.1984
G3 X127.6575 Y31.5644 I-3.9643 J-2.8289
G3 X127.5915 Y31.6517 I-2.8953 J-2.1211
G3 X127.5089 Y31.7594 I-2.9055 J-2.1419
G3 X126.9494 Y32.4588 I-23.2566 J-18.0336
G3 X127.3745 Y32.7603 I-0.1943 J0.7244
G1 X127.4036 Y32.6465
G3 X127.4042 Y32.6443 I0.7264 J0.1857
G3 X127.5837 Y32.0426 I8.2948 J2.1469
G0 Z3.0
G0 X129.6289 Y33.7041
G0 Z1.0
G1 F300.0 Z-0.5
G2 F800.0 X129.6025 Y33.7372 I1.9118 J1.5531
G3 X129.602 Y33.7378 I-0.59 J-0.4627
G2 X129.468 Y33.9293 I1.6579 J1.3027
G3 X130.1954 Y33.3333 I2.3972 J2.1837
G3 X130.8083 Y33.0216 I2.2759 J3.7167
G3 X131.5469 Y32.7684 I2.365 J5.6953
G3 X132.4823 Y32.48 I1.405 J2.8967
G3 X132.4855 Y32.4796 I0.1094 J0.7417
G3 X133.5137 Y32.4789 I0.5164 J3.6101
G3 X133.6997 Y32.509 I-0.6282 J4.4699
G2 X131.4824 Y32.6575 I-0.8954 J3.2582
G3 X131.3527 Y32.6992 I-0.2933 J-0.69
G2 X130.5978 Y32.9603 I0.7727 J3.4558
G3 X130.5961 Y32.9612 I-0.3234 J-0.6764
G2 X129.9455 Y33.3804 I1.2916 J2.719
G2 X129.6289 Y33.7041 I1.5952 J1.8768
G1 F300.0 X129.5358 Y33.6284
G2 F800.0 X129.508 Y33.6632 I2.0049 J1.6288
G3 X129.5077 Y33.6636 I-0.4956 J-0.3886
G2 X129.1778 Y34.2462 I1.7523 J1.3768
G2 X128.8898 Y35.3724 I5.5203 J2.0117
G3 X128.9524 Y35.1513 I6.006 J1.5808
G3 X129.4411 Y34.1445 I2.4751 J0.5795
G3 X129.4451 Y34.1396 I0.4921 J0.393
G3 X130.2576 Y33.4359 I2.4201 J1.9734
G3 X130.8542 Y33.1324 I2.2137 J3.6141
G3 X131.5894 Y32.8812 I2.3191 J5.5844
G3 X132.4998 Y32.5988 I1.3626 J2.7839
G3 X132.5025 Y32.5984 I0.0919 J0.623
G3 X133.4969 Y32.5977 I0.4995 J3.4913
G3 X134.1185 Y32.7315 I-0.6114 J4.3511
G3 X134.1217 Y32.7325 I-0.1767 J0.6045
G3 X134.8801 Y33.0162 I-1.6941 J5.6829
G3 X134.8888 Y33.0203 I-0.2605 J0.5734
G1 X135.0632 Y33.1027
G3 X135.0722 Y33.1071 I-0.2692 J0.5693
G3 X135.4944 Y33.3312 I-3.4598 J7.0262
G3 X135.4983 Y33.3335 I-0.3122 J0.547
G3 X135.9478 Y33.6066 I-6.5563 J11.2972
G3 X136.0263 Y33.6655 I-0.3378 J0.5315
G3 X137.134 Y34.6924 I-19.6825 J22.3432
G3 X137.1343 Y34.6926 I-0.4397 J0.4508
G3 X138.0604 Y35.6661 I-12.7641 J13.071
G2 X137.891 Y35.4585 I-11.6231 J9.316
G2 X137.4773 Y34.9879 I-9.0603 J7.5457
G3 X137.4757 Y34.9861 I0.4618 J-0.4282
G2 X136.2591 Y33.8432 I-8.4483 J7.7734
G3 X136.2585 Y33.8426 I0.3967 J-0.4891
G2 X134.3992 Y32.6527 I-6.1467 J7.557
G3 X134.3908 Y32.6485 I0.2772 J-0.5655
G2 X131.4355 Y32.5471 I-1.5864 J3.1186
G3 X131.3265 Y32.5821 I-0.2464 J-0.5796
G2 X130.5461 Y32.8521 I0.7989 J3.5729
G3 X130.5446 Y32.8528 I-0.2717 J-0.5682
G2 X129.8679 Y33.2888 I1.3431 J2.8274
G2 X129.5358 Y33.6284 I1.6728 J1.9684
G0 Z3.0
G0 X130.4755 Y28.1606
G0 Z1.0
G1 F300.0 Z-0.5
G3 F800.0 X130.654 Y28.0818 I2.3789 J5.1496
G3 X130.6549 Y28.0814 I0.3839 J0.9123
G3 X130.996 Y27.9502 I2.3529 J5.6052
G3 X130.506 Y27.8999 I3.234 J-33.9737
G3 X130.4755 Y28.1606 I-0.9899 J0.0164
G1 F300.0 X130.5258 Y28.2695
G3 F800.0 X130.7006 Y28.1924 I2.3286 J5.0407
G3 X130.7013 Y28.1921 I0.3374 J0.8017
G3 X131.883 Y27.8347 I2.3065 J5.4945
G2 X131.5639 Y27.8637 I0.7393 J9.9018
G3 X131.3987 Y27.8657 I-0.0927 J-0.865
G3 X130.3727 Y27.7643 I2.8313 J-33.8892
G3 X130.2262 Y28.4191 I-0.8566 J0.1521
G3 X130.5258 Y28.2695 I2.6283 J4.8911
G1 F300.0 X130.5762 Y28.3785
G3 F800.0 X130.7471 Y28.303 I2.2783 J4.9318
G3 X130.7478 Y28.3027 I0.2908 J0.6911
G3 X131.9258 Y27.9487 I2.26 J5.3839
G3 X131.9267 Y27.9486 I0.1389 J0.7368
G3 X132.7235 Y27.8473 I1.2593 J6.7227
G3 X132.7261 Y27.8471 I0.0507 J0.748
G3 X133.7748 Y27.8541 I0.4753 J7.3929
G3 X133.8545 Y27.8604 I-0.0881 J1.6086
G3 X134.1397 Y27.8902 I-0.3447 J4.6825
G3 X135.5974 Y28.1948 I-1.1112 J8.9596
G3 X136.7067 Y28.5958 I-2.8324 J9.5696
G2 X135.272 Y28.0269 I-3.4704 J6.6585
G2 X133.48 Y27.7135 I-2.4429 J8.6885
G3 X133.4774 Y27.7133 I0.0541 J-0.748
G2 X132.2532 Y27.6939 I-0.7735 J10.1944
G3 X132.2481 Y27.6941 I-0.0331 J-0.7493
G2 X131.5511 Y27.7444 I0.3742 J10.0424
G3 X131.4087 Y27.7461 I-0.0799 J-0.7457
G3 X130.2068 Y27.6241 I2.8213 J-33.7696
G3 X129.9799 Y28.5058 I-0.6907 J0.2923
G2 X129.1961 Y29.2188 I4.5929 J5.8358
G3 X129.1959 Y29.219 I-0.543 J-0.5174
G2 X128.569 Y30.0218 I3.7461 J3.5718
G2 X128.3567 Y30.4016 I3.4413 J2.1723
G3 X128.8432 Y29.731 I5.7883 J3.6871
G3 X128.8451 Y29.7286 I0.5792 J0.4761
G3 X129.621 Y28.9468 I4.7429 J3.9306
G3 X129.6634 Y28.9136 I0.4828 J0.5736
G3 X130.5762 Y28.3785 I3.191 J4.3966
G0 Z3.0
G0 X137.7451 Y20.7305
G0 Z1.0
G1 F300.0 Z-0.5
G3 F800.0 X137.7741 Y20.6352 I1.2786 J0.3364
G2 X137.7575 Y20.534 I-0.4066 J0.0146
G2 X137.6084 Y20.1757 I-1.8604 J0.5641
G3 X137.6062 Y20.1716 I0.7658 J-0.4128
G1 X137.5333 Y20.0347
G1 X137.4514 Y19.8858
G3 X137.1968 Y19.3945 I5.7187 J-3.2754
G3 X137.1955 Y19.3918 I0.7886 J-0.3675
G3 X137.0932 Y19.1438 I2.9446 J-1.3602
G3 X137.0007 Y18.9804 I3.2465 J-1.9459
G3 X136.8759 Y18.7318 I4.1451 J-2.2361
G3 X136.6729 Y18.2689 I8.5259 J-4.0156
G3 X136.6655 Y18.2501 I0.8058 J-0.328
G3 X136.6557 Y18.2283 I0.7893 J-0.3658
G1 X136.5262 Y17.9273
G3 X136.525 Y17.9247 I0.7991 J-0.344
G2 X136.4689 Y17.8037 I-1.9821 J0.8456
G3 X136.4592 Y17.7837 I0.7776 J-0.3902
G2 X136.2885 Y17.4793 I-2.2068 J1.0377
G2 X136.2257 Y17.5471 I0.4412 J0.4725
G2 X136.2516 Y17.6847 I1.1974 J-0.1541
G2 X136.3884 Y18.077 I2.2866 J-0.5777
G3 X136.3889 Y18.078 I-0.793 J0.3578
G2 X136.5337 Y18.3783 I5.6851 J-2.5562
G3 X136.5434 Y18.3978 I-0.7733 J0.3987
G3 X136.5506 Y18.4109 I-0.7604 J0.4228
G1 X136.6543 Y18.6053
G1 X136.7095 Y18.7068
G1 X136.7702 Y18.8182
G3 X136.7737 Y18.8248 I-0.764 J0.4161
G1 X136.9103 Y19.0808
G3 X136.9166 Y19.0928 I-0.7676 J0.4096
G1 X136.9508 Y19.1594
G3 X136.957 Y19.1717 I-0.7738 J0.3976
G1 X137.0277 Y19.3149
G3 X137.028 Y19.3155 I-0.78 J0.3853
G3 X137.1744 Y19.6453 I-4.0068 J1.9752
G3 X137.252 Y19.7804 I-1.3779 J0.8813
G3 X137.3399 Y19.9489 I-5.3999 J2.9224
G3 X137.3416 Y19.9524 I-0.7776 J0.3902
G3 X137.5019 Y20.2865 I-12.6017 J6.2538
G2 X137.5866 Y20.4593 I4.5947 J-2.1446
G1 X137.6381 Y20.5564
G1 X137.7027 Y20.6674
G2 X137.7451 Y20.7305 I0.6857 J-0.4146
G1 F300.0 X137.8612 Y20.761
G3 F800.0 X137.8943 Y20.6552 I1.1625 J0.3058
G2 X137.8725 Y20.4996 I-0.5269 J-0.0054
G2 X137.714 Y20.1187 I-1.9753 J0.5986
G3 X137.7121 Y20.1152 I0.6602 J-0.3559
G1 X137.6389 Y19.9776
G1 X137.556 Y19.827
G3 X137.3056 Y19.3438 I5.6141 J-3.2166
G3 X137.3045 Y19.3415 I0.6798 J-0.3168
G3 X137.202 Y19.0919 I2.8357 J-1.3099
G3 X137.1064 Y18.9237 I3.1376 J-1.894
G3 X136.9846 Y18.681 I4.0394 J-2.1793
G3 X136.784 Y18.2237 I8.4172 J-3.9647
G3 X136.7773 Y18.2064 I0.6947 J-0.2827
G2 X136.7748 Y18.2006 I-0.0801 J0.0303
G3 X136.7659 Y18.1808 I0.68 J-0.3164
G1 X136.6364 Y17.8799
G3 X136.6354 Y17.8776 I0.6889 J-0.2966
G2 X136.5762 Y17.7499 I-2.0925 J0.8927
G3 X136.5678 Y17.7326 I0.6703 J-0.3364
G2 X136.3776 Y17.3965 I-2.3154 J1.0888
G3 X136.3747 Y17.3923 I0.623 J-0.4176
G2 X136.313 Y17.3079 I-0.9034 J0.5968
G2 X136.2758 Y17.3342 I0.3042 J0.4711
G3 X136.2695 Y17.3389 I-0.4566 J-0.595
G2 X136.1012 Y17.5131 I0.4602 J0.613
G2 X136.1352 Y17.7139 I1.3218 J-0.1202
G2 X136.279 Y18.1264 I2.403 J-0.6069
G3 X136.2794 Y18.1272 I-0.6836 J0.3085
G2 X136.427 Y18.4333 I5.7945 J-2.6054
G3 X136.4369 Y18.4531 I-0.6666 J0.3437
G3 X136.4447 Y18.4674 I-0.6539 J0.3674
G1 X136.5486 Y18.6622
G1 X136.6041 Y18.7642
G1 X136.6648 Y18.8756
G3 X136.6678 Y18.8813 I-0.6586 J0.3587
G1 X136.8044 Y19.1373
G3 X136.8099 Y19.1476 I-0.6617 J0.3531
G1 X136.8441 Y19.2143
G3 X136.8494 Y19.2248 I-0.6671 J0.3427
G1 X136.9201 Y19.368
G3 X136.9204 Y19.3685 I-0.6724 J0.3322
G3 X137.0668 Y19.6996 I-3.8991 J1.9222
G1 X137.0717 Y19.7074
G3 X137.1458 Y19.8363 I-1.2752 J0.8191
G3 X137.2326 Y20.0027 I-5.2938 J2.8665
G3 X137.2341 Y20.0057 I-0.6703 J0.3364
G3 X137.3931 Y20.3371 I-12.4942 J6.2005
G2 X137.4802 Y20.5148 I4.7035 J-2.1952
G1 X137.5332 Y20.6147
G1 X137.5995 Y20.7286
G2 X137.7313 Y20.8985 I0.7889 J-0.4758
G2 X137.7829 Y20.9392 I0.2312 J-0.2404
G2 X137.8204 Y20.9549 I0.0721 J-0.1194
G3 X137.8267 Y20.9565 I-0.1861 J0.7266
G3 X137.8612 Y20.761 I1.197 J0.1104
G1 F300.0 X137.9772 Y20.7916
G3 F800.0 X138.0137 Y20.6786 I1.0465 J0.2753
G2 X137.9874 Y20.465 I-0.6463 J-0.0287
G2 X137.8196 Y20.0618 I-2.0902 J0.6331
G3 X137.8181 Y20.0588 I0.5546 J-0.2989
G1 X137.7444 Y19.9205
G1 X137.6607 Y19.7683
G3 X137.4143 Y19.2931 I5.5095 J-3.1578
G3 X137.4134 Y19.2912 I0.571 J-0.2661
G3 X137.3109 Y19.04 I2.7267 J-1.2596
G3 X137.2122 Y18.8669 I3.0288 J-1.8422
G3 X137.0933 Y18.6301 I3.9336 J-2.1226
G3 X136.8952 Y18.1784 I8.3085 J-3.9138
G3 X136.8895 Y18.164 I0.5835 J-0.2375
G2 X136.8836 Y18.15 I-0.1923 J0.0728
G3 X136.8762 Y18.1334 I0.5712 J-0.2657
G1 X136.7466 Y17.8324
G3 X136.7458 Y17.8305 I0.5786 J-0.2491
G2 X136.6834 Y17.696 I-2.2029 J0.9397
G3 X136.6764 Y17.6815 I0.5631 J-0.2826
G2 X136.4772 Y17.3297 I-2.424 J1.1398
G3 X136.4748 Y17.3261 I0.5233 J-0.3508
G2 X136.34 Y17.1572 I-1.0036 J0.6629
G2 X136.2027 Y17.239 I0.2771 J0.6218
G3 X136.1975 Y17.2429 I-0.3835 J-0.4998
G2 X135.9785 Y17.4812 I0.5323 J0.7089
G2 X136.0188 Y17.7431 I1.4446 J-0.0883
G2 X136.1697 Y18.1757 I2.5194 J-0.6361
G3 X136.17 Y18.1765 I-0.5743 J0.2591
G2 X136.3204 Y18.4883 I5.904 J-2.6546
G3 X136.3303 Y18.5085 I-0.56 J0.2887
G3 X136.3388 Y18.5239 I-0.5473 J0.312
G1 X136.443 Y18.7191
G1 X136.4987 Y18.8215
G1 X136.5594 Y18.933
G3 X136.562 Y18.9378 I-0.5533 J0.3013
G1 X136.6986 Y19.1938
G3 X136.7031 Y19.2025 I-0.5558 J0.2966
G1 X136.7374 Y19.2691
G3 X136.7418 Y19.278 I-0.5604 J0.2879
G1 X136.8126 Y19.4212
G3 X136.8128 Y19.4216 I-0.5648 J0.279
G3 X136.9591 Y19.7536 I-3.7915 J1.8691
G1 X136.9703 Y19.7716
G3 X137.0396 Y19.8922 I-1.1738 J0.755
G3 X137.1253 Y20.0566 I-5.1876 J2.8106
G3 X137.1266 Y20.0591 I-0.5631 J0.2826
G3 X137.2843 Y20.3877 I-12.3868 J6.1471
G2 X137.3739 Y20.5704 I4.8123 J-2.2459
G1 X137.4283 Y20.6731
G1 X137.4963 Y20.7898
G2 X137.6468 Y20.9837 I0.8921 J-0.537
G2 X137.7195 Y21.041 I0.3157 J-0.3257
G2 X137.7906 Y21.0711 I0.1355 J-0.2213
G3 X137.9433 Y21.1324 I-0.1563 J0.6103
G3 X137.9446 Y20.9877 I1.325 J-0.0601
G3 X137.9457 Y20.9735 I0.6287 J0.0402
G3 X137.9772 Y20.7916 I1.078 J0.0934
G1 F300.0 X138.0933 Y20.8221
G3 F800.0 X138.1324 Y20.7048 I0.9304 J0.2448
G2 X138.1023 Y20.4305 I-0.7649 J-0.055
G2 X137.9253 Y20.0049 I-2.2051 J0.6676
G3 X137.924 Y20.0025 I0.4489 J-0.242
G1 X137.85 Y19.8634
G1 X137.7653 Y19.7095
G3 X137.5231 Y19.2425 I5.4048 J-3.0991
G3 X137.5224 Y19.2409 I0.4623 J-0.2155
G3 X137.4198 Y18.9882 I2.6178 J-1.2093
G3 X137.3179 Y18.8102 I2.9198 J-1.7903
G3 X137.202 Y18.5792 I3.8279 J-2.0658
G3 X137.0063 Y18.1332 I8.1998 J-3.8629
G3 X137.0017 Y18.1215 I0.4724 J-0.1923
G2 X136.9924 Y18.0994 I-0.3046 J0.1153
G3 X136.9864 Y18.0859 I0.4624 J-0.2151
G1 X136.8568 Y17.785
G3 X136.8562 Y17.7834 I0.4684 J-0.2017
G2 X136.7907 Y17.6422 I-2.3133 J0.9868
G3 X136.785 Y17.6305 I0.4558 J-0.2288
G2 X136.5769 Y17.2629 I-2.5326 J1.1909
G3 X136.575 Y17.26 I0.4236 J-0.284
G2 X136.3699 Y17.0184 I-1.1037 J0.7291
G2 X136.3347 Y17.0297 I0.1021 J0.3777
G2 X136.1297 Y17.1438 I0.2824 J0.7493
G3 X136.1254 Y17.147 I-0.3105 J-0.4046
G2 X135.8568 Y17.4508 I0.6043 J0.8049
G2 X135.9024 Y17.7723 I1.5662 J-0.0578
G2 X136.0603 Y18.2251 I2.6358 J-0.6653
G3 X136.0605 Y18.2257 I-0.4649 J0.2098
G2 X136.2137 Y18.5433 I6.0134 J-2.7038
G3 X136.2235 Y18.5634 I-0.4533 J0.2337
G2 X136.224 Y18.5643 I0.0098 J-0.0045
G3 X136.233 Y18.5804 I-0.441 J0.2562
G1 X136.3373 Y18.776
G1 X136.3933 Y18.8789
G1 X136.454 Y18.9904
G3 X136.4561 Y18.9943 I-0.4479 J0.2439
G1 X136.5927 Y19.2503
G3 X136.5964 Y19.2573 I-0.45 J0.2401
G1 X136.6306 Y19.3239
G3 X136.6342 Y19.3311 I-0.4536 J0.2331
G1 X136.705 Y19.4743
G3 X136.7051 Y19.4747 I-0.4573 J0.2259
G3 X136.8513 Y19.8075 I-3.6839 J1.8161
G1 X136.8689 Y19.8357
G3 X136.9334 Y19.948 I-1.0723 J0.6908
G3 X137.0181 Y20.1104 I-5.0813 J2.7547
G3 X137.0191 Y20.1124 I-0.4558 J0.2287
G3 X137.1755 Y20.4383 I-12.2793 J6.0938
G2 X137.2675 Y20.6259 I4.9211 J-2.2965
G1 X137.3234 Y20.7314
G1 X137.393 Y20.8509
G2 X137.5623 Y21.0689 I0.9954 J-0.5981
G2 X137.656 Y21.1428 I0.4002 J-0.4109
G2 X137.7609 Y21.1874 I0.199 J-0.3231
G3 X138.0853 Y21.4433 I-0.1265 J0.4941
G3 X138.5546 Y22.3406 I-111.7827 J59.0336
G3 X138.5525 Y22.3323 I0.4935 J-0.1285
G2 X138.5225 Y22.2439 I-0.5059 J0.1227
G3 X138.52 Y22.2382 I0.4662 J-0.2069
G2 X138.464 Y22.1265 I-0.976 J0.4189
G3 X138.4619 Y22.1227 I0.4418 J-0.2548
G1 X138.2809 Y21.8027
G3 X138.2164 Y21.6775 I1.395 J-0.7975
G3 X138.1537 Y21.5338 I1.3462 J-0.6732
G3 X138.0644 Y20.9953 I1.1146 J-0.4616
G3 X138.0652 Y20.9838 I0.509 J0.0325
G3 X138.0933 Y20.8221 I0.9585 J0.083
G0 Z3.0
G0 X149.0748 Y27.8918
G0 Z1.0
G1 F300.0 Z-0.5
G2 F800.0 X149.0743 Y28.0376 I8.9636 J0.1021
G3 X149.0738 Y28.0788 I-1.11 J0.0054
G2 Y28.0862 I0.1022 J0.0033
G3 X149.0746 Y28.1153 I-1.1091 J0.0441
G2 X149.1196 Y29.2176 I20.2115 J-0.2729
G3 X149.1179 Y29.0582 I8.1951 J-0.1646
G3 X149.1185 Y29.0225 I1.11 J-0.0007
G1 X149.1219 Y28.9139
G3 X149.0929 Y28.562 I3.0279 J-0.4265
G3 X149.0928 Y28.5595 I1.1097 J-0.0271
G1 X149.0905 Y28.4544
G3 X149.0902 Y28.4293 I1.1097 J-0.0246
G2 Y28.0228 I-396.2618 J-0.185
G1 X149.0877 Y27.9155
G3 X149.0875 Y27.906 I1.1097 J-0.026
G2 X149.0873 Y27.8959 I-0.4902 J0.0073
G3 X149.0748 Y27.8918 I0.9136 J-2.779
G1 F300.0 X148.9548 Y27.8904
G2 F800.0 X148.9543 Y28.0382 I9.0836 J0.1035
G3 X148.9538 Y28.0749 I-0.99 J0.0048
G2 X148.9539 Y28.0909 I0.2222 J0.0072
G3 X148.9546 Y28.1169 I-0.9892 J0.0393
G2 X149.016 Y29.4452 I20.3314 J-0.2745
G3 X149.0161 Y29.4461 I-0.9869 J0.078
G1 X149.047 Y29.8414
G1 X149.0642 Y30.0513
G1 Y30.0512
G1 Y30.0513
G1 X149.1002 Y30.49
G3 X149.1923 Y30.5881 I-1.8413 J1.8207
G3 X149.2893 Y30.7016 I-2.09 J1.8828
G3 X149.3185 Y30.7383 I-1.2037 J0.9925
G2 X149.3187 Y30.4526 I-3.0268 J-0.1448
G2 X149.2963 Y30.0958 I-15.9359 J0.8204
G1 X149.2787 Y29.88
G3 X149.2786 Y29.8792 I0.9867 J-0.0808
G1 X149.2694 Y29.7658
G3 X149.2379 Y29.0581 I8.0452 J-0.7128
G3 X149.2384 Y29.0263 I0.99 J-0.0006
G1 X149.2422 Y28.9072
G3 X149.2129 Y28.5591 I2.9076 J-0.4199
G3 X149.2128 Y28.5569 I0.9897 J-0.0242
G1 X149.2105 Y28.4517
G3 X149.2102 Y28.4293 I0.9898 J-0.0219
G2 Y28.0214 I-396.3818 J-0.185
G1 X149.2077 Y27.9127
G3 X149.2075 Y27.9042 I0.9897 J-0.0232
G2 X149.2045 Y27.8519 I-0.6102 J0.0091
G3 X149.2015 Y27.8155 I0.985 J-0.0995
G2 X149.2008 Y27.8065 I-0.5644 J0.036
G3 X149.1658 Y27.795 I0.9281 J-2.8985
G3 X148.9825 Y27.7309 I0.8351 J-2.6781
G1 X148.9583 Y27.7221
G2 X148.9548 Y27.8904 I9.0801 J0.2718
G1 F300.0 X148.8348 Y27.889
G2 F800.0 X148.8343 Y28.0388 I9.2036 J0.1049
G3 X148.8339 Y28.0711 I-0.87 J0.0042
G2 X148.834 Y28.0957 I0.3421 J0.011
G3 X148.8346 Y28.1185 I-0.8693 J0.0346
G2 X148.8964 Y29.4547 I20.4514 J-0.2761
G3 Y29.4554 I-0.8673 J0.0686
G1 X148.9274 Y29.851
G1 X148.9446 Y30.0611
G1 Y30.061
G1 Y30.0611
G1 X148.9841 Y30.5419
G2 X149.0137 Y30.5731 I2.0544 J-1.9158
G3 X149.1029 Y30.6681 I-1.7547 J1.7377
G3 X149.1963 Y30.7776 I-2.0007 J1.8027
G3 X149.3566 Y31.017 I-1.1108 J0.9166
G3 X149.4163 Y30.9812 I0.6476 J1.0104
G2 X149.4272 Y30.898 I-1.3076 J-0.215
G2 X149.4386 Y30.4468 I-3.1356 J-0.3046
G2 X149.416 Y30.0864 I-16.0557 J0.8262
G1 X149.3983 Y29.8702
G3 X149.3982 Y29.8695 I0.8671 J-0.071
G1 X149.389 Y29.7557
G3 X149.3579 Y29.0581 I7.9256 J-0.7027
G3 X149.3583 Y29.0301 I0.87 J-0.0005
G1 X149.3624 Y28.9004
G3 X149.3328 Y28.5562 I2.7873 J-0.413
G3 Y28.5542 I0.8697 J-0.0212
G1 X149.3305 Y28.4491
G3 X149.3302 Y28.4294 I0.8698 J-0.0193
G2 Y28.0199 I-396.5018 J-0.1851
G1 X149.3276 Y27.9099
G3 X149.3275 Y27.9024 I0.8698 J-0.0204
G2 X149.3239 Y27.8399 I-0.7302 J0.0109
G3 X149.3213 Y27.8079 I0.8656 J-0.0874
G2 X149.3089 Y27.7148 I-0.6842 J0.0437
G3 X149.2736 Y27.7036 I0.4379 J-1.4359
G3 X149.2026 Y27.6808 I0.8553 J-2.7955
G3 X149.0248 Y27.6185 I0.7983 J-2.5639
G1 X148.8448 Y27.5534
G2 X148.8348 Y27.889 I9.1936 J0.4405
G1 F300.0 X148.7148 Y27.8877
G2 F800.0 X148.7143 Y28.0393 I9.3236 J0.1062
G3 X148.7139 Y28.0672 I-0.75 J0.0037
G2 X148.7141 Y28.1005 I0.462 J0.0149
G3 X148.7146 Y28.1201 I-0.7494 J0.0298
G2 X148.7767 Y29.4641 I20.5714 J-0.2777
G3 X148.7768 Y29.4648 I-0.7477 J0.0591
G1 X148.8077 Y29.8606
G1 X148.825 Y30.0709
G1 X148.8648 Y30.5548
G3 X148.8669 Y30.5917 I-0.7475 J0.0614
G2 X148.9278 Y30.657 I2.1716 J-1.9656
G3 X149.0135 Y30.7482 I-1.6688 J1.6538
G3 X149.1034 Y30.8535 I-1.9113 J1.7227
G3 X149.3097 Y31.2001 I-1.0178 J0.8407
G3 X149.3191 Y31.1923 I0.5825 J0.6937
G3 X149.5236 Y31.0601 I0.685 J0.8351
G2 X149.5467 Y30.9098 I-1.4149 J-0.2939
G2 X149.5584 Y30.4409 I-3.255 J-0.3164
G2 X149.5356 Y30.0771 I-16.1756 J0.8321
G1 X149.5179 Y29.8604
G3 X149.5178 Y29.8598 I0.7475 J-0.0612
G1 X149.5086 Y29.7455
G3 X149.4779 Y29.058 I7.8061 J-0.6925
G3 X149.4783 Y29.0339 I0.75 J-0.0005
G1 X149.4827 Y28.8933
G3 X149.4528 Y28.5532 I2.667 J-0.4059
G3 Y28.5516 I0.7498 J-0.0183
G1 X149.4504 Y28.4464
G3 X149.4502 Y28.4294 I0.7498 J-0.0166
G2 Y28.0185 I-396.6218 J-0.1852
G1 X149.4476 Y27.9071
G3 X149.4475 Y27.9006 I0.7498 J-0.0176
G2 X149.4433 Y27.8278 I-0.8502 J0.0126
G3 X149.441 Y27.8002 I0.7462 J-0.0753
G2 X149.4088 Y27.6206 I-0.804 J0.0513
G2 X149.4078 Y27.6178 I-0.156 J0.0554
G3 X149.3101 Y27.5892 I0.339 J-1.3389
G3 X149.2395 Y27.5666 I0.8188 J-2.6812
G3 X149.067 Y27.5062 I0.7614 J-2.4497
G1 X148.8022 Y27.4104
G3 X148.8018 Y27.4102 I0.2552 J-0.7053
G2 X148.734 Y27.3873 I-0.5777 J1.5938
G2 X148.7148 Y27.8877 I9.3044 J0.6066
G1 F300.0 X148.5948 Y27.8863
G2 F800.0 X148.5943 Y28.0399 I9.4436 J0.1076
G3 X148.594 Y28.0633 I-0.63 J0.0031
G2 X148.5942 Y28.1052 I0.582 J0.0188
G3 X148.5946 Y28.1218 I-0.6295 J0.025
G2 X148.6571 Y29.4736 I20.6914 J-0.2793
G3 X148.6572 Y29.4741 I-0.628 J0.0497
G1 X148.6881 Y29.8702
G1 X148.7054 Y30.0807
G1 X148.7452 Y30.5647
G3 X148.7469 Y30.6375 I-0.6279 J0.0516
G2 X148.7493 Y30.6403 I0.0773 J-0.0649
G3 X148.754 Y30.6455 I-0.4674 J0.4224
G2 X148.8419 Y30.7408 I2.2845 J-2.0193
G3 X148.9241 Y30.8283 I-1.5829 J1.57
G3 X149.0105 Y30.9294 I-1.8219 J1.6426
G3 X149.2566 Y31.4317 I-0.9249 J0.7647
G3 X149.3951 Y31.2852 I0.6356 J0.4622
G3 X149.6195 Y31.1477 I0.609 J0.7422
G1 X149.6275 Y31.1442
G2 X149.6661 Y30.9216 I-1.5188 J-0.3781
G2 X149.6783 Y30.435 I-3.3744 J-0.3281
G2 X149.6553 Y30.0678 I-16.2954 J0.838
G1 X149.6375 Y29.8506
G3 X149.6374 Y29.8501 I0.6279 J-0.0514
G1 X149.6281 Y29.7354
G3 X149.5979 Y29.0579 I7.6865 J-0.6824
G3 X149.5982 Y29.0376 I0.63 J-0.0004
G1 X149.603 Y28.886
G3 X149.5728 Y28.5503 I2.5468 J-0.3986
G3 X149.5727 Y28.5489 I0.6298 J-0.0154
G1 X149.5704 Y28.4438
G3 X149.5702 Y28.4295 I0.6298 J-0.014
G2 Y28.017 I-396.7418 J-0.1852
G1 X149.5676 Y27.9042
G3 X149.5675 Y27.8988 I0.6298 J-0.0148
G2 X149.5627 Y27.8158 I-0.9702 J0.0144
G3 X149.5608 Y27.7926 I0.6268 J-0.0633
G2 X149.523 Y27.5836 I-0.9237 J0.0589
G2 X149.5005 Y27.5338 I-0.2702 J0.0924
G2 X149.4909 Y27.5233 I-0.0515 J0.0372
G2 X149.4536 Y27.5055 I-0.0797 J0.1192
G3 X149.3466 Y27.4749 I0.2931 J-1.2266
G3 X149.2763 Y27.4524 I0.7823 J-2.5669
G3 X149.1093 Y27.3939 I0.7246 J-2.3355
G1 X148.843 Y27.2976
G3 X148.8427 Y27.2974 I0.2143 J-0.5924
G2 X148.7093 Y27.2548 I-0.6186 J1.7066
G1 X148.6249 Y27.233
G2 X148.5948 Y27.8863 I9.4135 J0.7609
G0 Z3.0
G0 X143.354 Y33.2467
G0 Z1.0
G1 F300.0 Z-0.5
G3 F800.0 X143.2201 Y33.2991 I-0.4263 J-0.8935
G3 X143.3838 Y33.4797 I-27.2914 J24.9088
G3 X143.5777 Y33.6944 I-48.3666 J43.8578
G3 X143.354 Y33.2467 I239.7719 J-120.0957
G1 F300.0 X143.3023 Y33.1384
G3 F800.0 X142.9858 Y33.2213 I-0.3746 J-0.7852
G3 X143.2948 Y33.5601 I-27.0571 J24.9865
G3 X143.9907 Y34.34 I-48.2775 J43.7773
G1 X144.077 Y34.438
G3 X144.0777 Y34.4389 I-0.6528 J0.5748
G1 X144.0982 Y34.4622
G3 X143.4052 Y33.0805 I239.2514 J-120.8636
G3 X143.3023 Y33.1384 I-0.4775 J-0.7272
G1 F300.0 X143.2506 Y33.0301
G3 F800.0 X142.6688 Y33.0571 I-0.323 J-0.6769
G3 X143.2058 Y33.6406 I-26.74 J25.1507
G3 X143.9005 Y34.4192 I-48.1885 J43.6969
G1 X143.9869 Y34.5173
G3 X143.9876 Y34.5181 I-0.5627 J0.4955
G1 X144.1663 Y34.7216
G3 X144.1936 Y34.7546 I-0.5634 J0.4947
G3 X144.7613 Y35.5025 I-26.1372 J20.4296
G3 X143.4467 Y32.8946 I238.5883 J-121.9038
G3 X143.2506 Y33.0301 I-0.5191 J-0.5414
G0 Z3.0
G0 X142.4714 Y43.987
G0 Z1.0
G1 F300.0 Z-0.5
G3 F800.0 X142.4933 Y44.0891 I-9.9135 J2.1813
G3 X142.5213 Y44.0772 I0.4023 J0.9043
G2 X142.4714 Y43.987 I-28.5514 J15.7489
G1 F300.0 X142.3542 Y44.0128
G3 F800.0 X142.4079 Y44.2733 I-9.7963 J2.1555
G3 X142.6964 Y44.1468 I0.4877 J0.7201
G2 X142.2111 Y43.2886 I-28.7265 J15.6793
G1 X142.1348 Y43.1596
G3 X142.3371 Y43.9363 I-13.1906 J3.8496
G3 X142.3373 Y43.9374 I-0.8477 J0.1945
G3 X142.3542 Y44.0128 I-9.7794 J2.2308
G1 F300.0 X142.237 Y44.0385
G3 F800.0 X142.3278 Y44.5039 I-9.6791 J2.1297
G3 X142.8855 Y44.2437 I0.5679 J0.4896
G2 X142.3145 Y43.2277 I-28.9155 J15.5823
G1 X141.9207 Y42.5618
G1 X141.6591 Y42.1234
G3 X142.0121 Y43.1676 I-15.3926 J5.7852
G3 X142.0136 Y43.1726 I-0.7179 J0.2162
G3 X142.2201 Y43.9632 I-13.0694 J3.8367
G3 X142.2203 Y43.9641 I-0.7308 J0.1677
G3 X142.237 Y44.0385 I-9.6624 J2.2041
G1 F300.0 X142.1198 Y44.0643
G3 F800.0 X142.2685 Y44.9192 I-9.5619 J2.1039
G3 X142.2695 Y44.9264 I-8.7815 J1.159
G3 X143.1042 Y44.3992 I0.6262 J0.0671
G2 X143.0968 Y44.3851 I-14.3392 J7.5532
G3 X143.089 Y44.3699 I0.5569 J-0.294
G2 X143.074 Y44.3412 I-0.5804 J0.2866
G3 X143.0681 Y44.3305 I0.55 J-0.3067
G2 X142.4179 Y43.1669 I-29.0982 J15.4955
G1 X142.0239 Y42.5006
G1 X141.57 Y41.7399
G3 X141.5686 Y41.7376 I0.5408 J-0.3227
G3 X141.0548 Y40.8553 I68.3242 J-40.3795
G3 X141.0537 Y40.8534 I0.5462 J-0.3134
G3 X140.7653 Y40.3332 I22.9798 J-13.0805
G3 X141.063 Y40.9901 I-52.2029 J24.0509
G3 X141.0648 Y40.9943 I-0.5752 J0.2563
G1 X141.148 Y41.1846
G3 X141.1491 Y41.1872 I-0.5771 J0.2521
G3 X141.3376 Y41.6345 I-25.8719 J11.1646
G3 X141.3394 Y41.6389 I-0.5824 J0.2395
G1 X141.4338 Y41.8737
G3 X141.4348 Y41.8761 I-0.5842 J0.2351
G3 X141.8972 Y43.2022 I-15.1683 J6.0325
G3 X141.8984 Y43.2064 I-0.603 J0.1816
G3 X142.1031 Y43.99 I-12.9542 J3.8029
G3 X142.1033 Y43.9908 I-0.6138 J0.1408
G3 X142.1198 Y44.0643 I-9.5454 J2.1775
G0 Z3.0
G0 X141.9797 Y48.3102
G0 Z1.0
G1 F300.0 Z-0.5
G3 F800.0 X141.5613 Y48.9478 I-3.1466 J-1.609
G3 X140.6702 Y49.6901 I-2.3793 J-1.9501
G3 X140.5669 Y49.7374 I-0.3627 J-0.6562
G3 X139.3769 Y50.0421 I-2.0748 J-5.6266
G2 X140.0497 Y49.9773 I-0.0161 J-3.6909
G3 X140.0522 Y49.9768 I0.1399 J0.7366
G2 X140.915 Y49.67 I-0.5361 J-2.8748
G2 X141.3733 Y49.33 I-1.0558 J-1.9019
G2 X141.7725 Y48.7295 I-1.2155 J-1.2409
G3 X141.8187 Y48.6335 I0.6969 J0.2764
G2 X141.9797 Y48.3102 I-2.7108 J-1.5517
G1 F300.0 X141.8729 Y48.2556
G3 F800.0 X141.4686 Y48.8716 I-3.0397 J-1.5543
G3 X140.6122 Y49.5851 I-2.2866 J-1.874
G3 X140.5254 Y49.6248 I-0.3047 J-0.5512
G3 X139.2444 Y49.9394 I-2.0333 J-5.514
G3 X137.9585 Y49.9952 I-0.9613 J-7.3044
G3 X137.1111 Y49.9149 I0.3399 J-8.0982
G3 X137.0814 Y49.9098 I0.0922 J-0.623
G3 X137.0684 Y49.9072 I0.8607 J-4.3608
G2 X137.724 Y50.0747 I1.7314 J-5.411
G2 X138.9958 Y50.1518 I0.9365 J-4.9174
G3 X139.0838 Y50.1521 I0.0422 J0.6283
G2 X140.0721 Y50.0952 I0.277 J-3.8009
G3 X140.0742 Y50.0948 I0.1175 J0.6187
G2 X140.9728 Y49.7752 I-0.5581 J-2.9927
G2 X141.4571 Y49.4159 I-1.1136 J-2.007
G2 X141.884 Y48.7738 I-1.2993 J-1.3268
G3 X141.9229 Y48.6931 I0.5854 J0.2322
G2 X142.266 Y47.8212 I-2.8149 J-1.6113
G2 X142.3877 Y46.8415 I-4.6019 J-1.0689
G3 X142.3892 Y46.808 I0.6296 J0.0119
G2 X142.3894 Y46.7977 I-0.1047 J-0.0075
G3 X142.3893 Y46.77 I0.6295 J-0.0167
G2 X142.3693 Y46.0578 I-7.8268 J-0.1361
G3 X142.3691 Y46.0561 I0.6281 J-0.0463
G2 X142.3331 Y45.6253 I-17.2287 J1.2246
G3 X142.3443 Y45.9956 I-8.8461 J0.4529
G3 X142.2612 Y47.1028 I-5.0748 J0.1758
G3 X141.9035 Y48.1942 I-4.2327 J-0.783
G3 X141.9028 Y48.1956 I-0.5669 J-0.2742
G3 X141.8729 Y48.2556 I-3.0697 J-1.4943
G1 F300.0 X141.766 Y48.201
G3 F800.0 X141.3759 Y48.7954 I-2.9329 J-1.4997
G3 X140.5541 Y49.4801 I-2.1939 J-1.7978
G3 X140.4839 Y49.5122 I-0.2466 J-0.4461
G3 X139.2289 Y49.8204 I-1.9918 J-5.4014
G3 X137.9637 Y49.8753 I-0.9458 J-7.1855
G3 X137.1287 Y49.7962 I0.3347 J-7.9784
G3 X137.1046 Y49.7921 I0.0747 J-0.5043
G3 X136.1707 Y49.4945 I0.8375 J-4.2431
G3 X136.1703 Y49.4943 I0.2088 J-0.465
G3 X135.3366 Y49.0174 I2.0391 J-4.5315
G3 X134.8434 Y48.6388 I3.623 J-5.2292
G3 X134.2536 Y48.1033 I6.2776 J-7.5077
G3 X134.1701 Y48.0216 I1.1926 J-1.3027
G3 X133.8495 Y47.6996 I14.2825 J-14.5369
G1 X133.6816 Y47.5274
G1 X133.3072 Y47.1437
G3 X133.0242 Y46.8672 I5.0194 J-5.4211
G1 X133.1356 Y46.9928
G1 X133.2848 Y47.1585
G1 X133.4856 Y47.3778
G1 X133.7574 Y47.6674
G1 X133.9135 Y47.8296
G1 X133.996 Y47.9139
G1 X134.1903 Y48.1078
G1 X134.2953 Y48.2096
G3 X134.321 Y48.2364 I-0.3549 J0.3659
G2 X135.857 Y49.4957 I4.7678 J-4.2491
G3 X135.8576 Y49.496 I-0.258 J0.4397
G2 X137.7014 Y50.1925 I2.9422 J-4.9998
G2 X139.0039 Y50.2715 I0.9591 J-5.0353
G3 X139.0751 Y50.2717 I0.0342 J0.5086
G2 X140.0945 Y50.2131 I0.2858 J-3.9206
G3 X140.0962 Y50.2128 I0.0951 J0.5008
G2 X141.0307 Y49.8803 I-0.5801 J-3.1107
G2 X141.5408 Y49.5019 I-1.1714 J-2.1122
G2 X141.9956 Y48.818 I-1.383 J-1.4128
G3 X142.027 Y48.7527 I0.4739 J0.1879
G2 X142.3829 Y47.8485 I-2.919 J-1.671
G2 X142.5077 Y46.8437 I-4.7188 J-1.0962
G3 X142.5089 Y46.8167 I0.5097 J0.0096
G2 X142.5094 Y46.7945 I-0.2244 J-0.0162
G3 X142.5093 Y46.7721 I0.5096 J-0.0135
G2 X142.4889 Y46.049 I-7.9468 J-0.1382
G3 X142.4888 Y46.0476 I0.5084 J-0.0375
G2 X142.3901 Y45.0586 I-17.3484 J1.2331
G3 X143.3062 Y44.6913 I0.5056 J-0.0651
G3 X143.5166 Y45.0501 I-1.6123 J1.1863
G3 X143.5695 Y45.1657 I-1.5137 J0.7629
G3 X143.6281 Y45.3036 I-3.0296 J1.369
G3 X143.6634 Y45.3916 I-1.7855 J0.7667
G3 X143.8773 Y46.0202 I-6.2003 J2.4609
G3 X144.0265 Y46.4758 I-2.7094 J1.1391
G3 X144.1196 Y46.9142 I-8.1237 J1.9543
G1 X144.174 Y47.1789
G1 X144.208 Y47.3204
G1 X144.2288 Y47.3956
G2 X144.3571 Y47.7074 I1.3499 J-0.3733
G2 X144.4668 Y47.8437 I0.4827 J-0.2764
G2 X144.1697 Y46.5977 I-8.7167 J1.4204
G3 X144.1693 Y46.5966 I0.486 J-0.1539
G2 X143.6704 Y45.2893 I-11.1044 J3.4891
G3 X143.6652 Y45.2773 I0.4645 J-0.2101
G2 X143.6367 Y45.214 I-1.3096 J0.5521
G3 X143.632 Y45.204 I0.4595 J-0.2207
G2 X143.2029 Y44.3291 I-14.867 J6.7484
G3 X143.1966 Y44.3167 I0.4508 J-0.238
G2 X143.1788 Y44.2828 I-0.688 J0.3397
G3 X143.1741 Y44.2741 I0.4452 J-0.2482
G2 X142.5213 Y43.106 I-29.2041 J15.5519
G1 X142.1271 Y42.4393
G1 X141.6731 Y41.6784
G3 X141.672 Y41.6766 I0.4378 J-0.2612
G3 X141.1589 Y40.7956 I68.2209 J-40.3184
G3 X141.158 Y40.794 I0.4421 J-0.2537
G3 X140.5976 Y39.756 I22.8755 J-13.0212
G3 X140.5961 Y39.7531 I0.4539 J-0.2321
G1 X140.53 Y39.6218
G3 X140.5282 Y39.6182 I0.4553 J-0.2292
G1 X140.4622 Y39.4843
G3 X140.4593 Y39.4783 I0.4571 J-0.2256
G1 X140.3265 Y39.2002
G3 X140.3212 Y39.1886 I0.4601 J-0.2196
G2 X139.2792 Y37.2001 I-16.402 J7.3274
G3 X139.2791 Y37.1999 I0.4359 J-0.2644
G2 X137.9832 Y35.3818 I-12.8418 J7.7821
G2 X137.5653 Y34.9063 I-9.1525 J7.6225
G3 X137.564 Y34.9049 I0.3738 J-0.3466
G2 X136.3347 Y33.75 I-8.5366 J7.8547
G3 X136.3342 Y33.7495 I0.3211 J-0.3959
G2 X134.452 Y32.545 I-6.2224 J7.6501
G3 X134.4452 Y32.5416 I0.2244 J-0.4577
G2 X131.3885 Y32.4367 I-1.6409 J3.2256
G3 X131.3003 Y32.465 I-0.1994 J-0.4691
G2 X130.4943 Y32.7438 I0.8251 J3.69
G3 X130.4931 Y32.7444 I-0.2199 J-0.4599
G2 X129.7904 Y33.1972 I1.3946 J2.9358
G2 X129.4136 Y33.5891 I1.7503 J2.0599
G3 X129.4133 Y33.5895 I-0.4011 J-0.3146
G2 X129.0654 Y34.2043 I1.8466 J1.4509
G2 X128.7196 Y35.807 I5.6328 J2.0537
G2 X128.7737 Y37.4801 I7.8413 J0.5839
G3 X128.7739 Y37.4811 I-0.5048 J0.0706
G2 X128.9872 Y38.5963 I10.8104 J-1.4899
G3 X128.9877 Y38.5983 I-0.495 J0.1217
G2 X129.1579 Y39.2261 I11.4172 J-2.7583
G3 X129.161 Y39.2368 I-0.4881 J0.147
G2 X129.2048 Y39.3813 I3.0751 J-0.8529
G3 X129.208 Y39.3915 I-0.4842 J0.1593
G2 X129.2596 Y39.5549 I9.7079 J-2.9716
G1 X129.3169 Y39.73
G2 X129.516 Y40.2948 I17.5059 J-5.853
G3 X129.4275 Y40.0387 I19.4917 J-6.8756
G3 X129.4253 Y40.0319 I0.4829 J-0.1633
G1 X129.3294 Y39.7343
G3 X129.3261 Y39.7237 I0.4852 J-0.1564
G1 X129.2307 Y39.4042
G3 X129.2281 Y39.3953 I0.4885 J-0.1458
G1 X129.1819 Y39.2295
G3 X129.1802 Y39.2231 I0.491 J-0.1369
G1 X129.1347 Y39.0513
G3 X129.1344 Y39.0504 I0.4928 J-0.1305
G3 X128.8004 Y37.092 I10.9378 J-2.8731
G3 X128.7988 Y37.0521 I0.5081 J-0.0412
G3 X128.8651 Y36.101 I6.594 J-0.0176
G3 X129.0683 Y35.1824 I6.0306 J0.8521
G3 X129.5349 Y34.2194 I2.3592 J0.5484
G3 X129.5381 Y34.2154 I0.3983 J0.3181
G3 X130.3199 Y33.5385 I2.3271 J1.8975
G3 X130.9001 Y33.2433 I2.1514 J3.5115
G3 X131.6319 Y32.994 I2.2732 J5.4735
G3 X132.5173 Y32.7175 I1.3201 J2.6711
G3 X132.5195 Y32.7172 I0.0744 J0.5043
G3 X133.4801 Y32.7165 I0.4825 J3.3725
G3 X134.0848 Y32.8467 I-0.5946 J4.2323
G3 X134.0874 Y32.8475 I-0.143 J0.4893
G3 X134.8305 Y33.1255 I-1.6599 J5.5679
G3 X134.8375 Y33.1288 I-0.2108 J0.4641
G1 X135.0119 Y33.2112
G3 X135.0192 Y33.2147 I-0.2179 J0.4608
G3 X135.4349 Y33.4354 I-3.4068 J6.9185
G3 X135.4381 Y33.4373 I-0.2527 J0.4427
G3 X135.8834 Y33.7078 I-6.496 J11.1934
G3 X135.947 Y33.7556 I-0.2734 J0.4302
G3 X137.0502 Y34.7783 I-19.6032 J22.2532
G3 X137.0504 Y34.7785 I-0.3559 J0.3649
G3 X138.0933 Y35.886 I-12.6803 J12.9851
G3 X138.0975 Y35.8909 I-0.3854 J0.3336
G1 X138.2247 Y36.0416
G3 X138.2262 Y36.0434 I-0.3896 J0.3287
G3 X138.8905 Y36.9186 I-8.9781 J7.5046
G3 X139.636 Y38.2024 I-7.5939 J5.2683
G3 X139.6403 Y38.2117 I-0.46 J0.2198
G1 X139.7246 Y38.3974
G1 X139.8091 Y38.5815
G1 X139.9814 Y38.951
G1 X140.3319 Y39.6919
G3 X140.3323 Y39.6927 I-0.4608 J0.218
G1 X140.5644 Y40.1855
G3 X140.63 Y40.3262 I-4.906 J2.3713
G3 X140.9534 Y41.0389 I-52.0676 J24.0578
G3 X140.9549 Y41.0423 I-0.4656 J0.2075
G1 X141.038 Y41.2327
G3 X141.0389 Y41.2347 I-0.4671 J0.2041
G3 X141.2266 Y41.6801 I-25.7617 J11.1171
G3 X141.228 Y41.6837 I-0.4714 J0.1939
G1 X141.3225 Y41.9185
G3 X141.3233 Y41.9204 I-0.4729 J0.1903
G3 X141.7823 Y43.2368 I-15.0568 J5.9882
G3 X141.7833 Y43.2402 I-0.4881 J0.147
G3 X141.9862 Y44.0168 I-12.8391 J3.7691
G3 X141.9863 Y44.0175 I-0.4968 J0.114
G3 X142.1495 Y44.9347 I-9.4284 J2.1508
G3 X142.2243 Y45.9982 I-8.6625 J1.1435
G3 X142.1432 Y47.0809 I-4.9549 J0.1732
G3 X141.7955 Y48.1419 I-4.1147 J-0.7611
G3 X141.7949 Y48.1431 I-0.4589 J-0.222
G3 X141.766 Y48.201 I-2.9618 J-1.4418
G0 Z3.0
G0 X134.3503 Y51.7367
G0 Z1.0
G1 F300.0 Z-0.5
G1 F800.0 X134.2122 Y51.5454
G3 X134.2097 Y51.5419 I0.608 J-0.4388
G3 X133.6417 Y50.7302 I45.6134 J-32.5233
G3 X133.6405 Y50.7285 I0.6181 J-0.4244
G3 X133.1678 Y50.0132 I23.5875 J-16.1029
G3 X133.0177 Y50.0931 I-0.4253 J-0.6175
G2 X133.4612 Y50.6663 I26.5111 J-20.0567
G3 X133.466 Y50.6724 I-0.5881 J0.4654
G2 X133.5476 Y50.7748 I3.7835 J-2.9315
G3 X133.5577 Y50.7874 I-0.5801 J0.4754
G2 X133.6469 Y50.8982 I4.3606 J-3.4196
G3 X133.656 Y50.9094 I-0.5781 J0.4778
G2 X133.7536 Y51.0293 I5.1531 J-4.0952
G3 X133.759 Y51.0358 I-0.576 J0.4803
G2 X134.3503 Y51.7367 I20.8823 J-17.0174
G1 F300.0 X134.2599 Y51.8156
G2 F800.0 X135.4688 Y53.1118 I20.3814 J-17.7972
G3 X135.469 Y53.112 I-0.4464 J0.4446
G2 X135.6439 Y53.286 I17.0337 J-16.9511
G1 X134.9802 Y52.3937
G3 X134.9783 Y52.3911 I0.5053 J-0.3758
G1 X134.6231 Y51.9084
G3 X134.5227 Y51.7706 I6.1358 J-4.5746
G1 X134.3095 Y51.4751
G3 X134.3074 Y51.4722 I0.5107 J-0.3685
G3 X133.7406 Y50.6622 I45.5157 J-32.4536
G3 X133.7396 Y50.6608 I0.5191 J-0.3565
G3 X133.1955 Y49.8332 I23.4884 J-16.0353
G3 X132.8136 Y50.0214 I-0.453 J-0.4375
G2 X133.3671 Y50.7408 I26.7152 J-19.985
G3 X133.3711 Y50.7459 I-0.494 J0.391
G2 X133.4548 Y50.8508 I3.8784 J-3.005
G3 X133.4633 Y50.8614 I-0.4873 J0.3993
G2 X133.5544 Y50.9746 I4.4551 J-3.4936
G3 X133.562 Y50.984 I-0.4856 J0.4014
G2 X133.6615 Y51.1062 I5.247 J-4.1698
G3 X133.666 Y51.1116 I-0.4839 J0.4034
G2 X134.2599 Y51.8156 I20.9754 J-17.0932
G0 Z3.0
G0 X131.3016 Y48.5891
G0 Z1.0
G1 F300.0 Z-0.5
G3 F800.0 X131.1584 Y48.3622 I28.1528 J-17.9275
G3 X131.2478 Y48.6081 I-175.8379 J64.0807
G3 X131.3016 Y48.5891 I0.2766 J0.6971
G1 F300.0 X131.3372 Y48.7037
G3 F800.0 X131.4996 Y48.6758 I0.1871 J0.6016
G3 X130.9065 Y47.7202 I27.9548 J-18.0141
G3 X130.82 Y47.575 I3.2554 J-2.0381
G3 X130.7321 Y47.4256 I3.4822 J-2.1471
G3 X130.6365 Y47.2605 I3.7429 J-2.2789
G3 X130.6052 Y47.2062 I25.8974 J-14.9755
G3 X130.6261 Y47.2637 I-6.7566 J2.496
G3 X131.1709 Y48.7481 I-175.3057 J65.1792
G3 X131.1815 Y48.7767 I-12.0908 J4.5015
G3 X131.3372 Y48.7037 I0.3428 J0.5285
G1 F300.0 X131.3729 Y48.8183
G3 F800.0 X131.7571 Y48.8514 I0.1515 J0.487
G3 X131.0089 Y47.6576 I27.6974 J-18.1898
G3 X130.9233 Y47.5139 I3.153 J-1.9755
G3 X130.8358 Y47.365 I3.3789 J-2.086
G3 X130.741 Y47.2016 I3.6392 J-2.2184
G3 X129.8241 Y45.4896 I25.7929 J-14.9165
G3 X130.4093 Y47.0255 I-104.8607 J40.8367
G3 X130.4606 Y47.1629 I-6.394 J2.4652
G3 X130.5134 Y47.3049 I-6.6121 J2.5393
G3 X131.0583 Y48.7894 I-175.193 J65.138
G3 X131.1287 Y48.9834 I-11.9782 J4.4602
G3 X131.3729 Y48.8183 I0.3956 J0.3218
G0 Z3.0
G0 X132.0118 Y46.1313
G0 Z1.0
G1 F300.0 Z-0.5
G3 F800.0 X132.082 Y46.1054 I0.2945 J0.6895
G3 X131.8937 Y45.8327 I8.2384 J-5.8921
G2 X132.0118 Y46.1313 I31.6415 J-12.3516
G1 F300.0 X132.059 Y46.2417
G3 F800.0 X132.2932 Y46.1912 I0.2473 J0.5792
G3 X131.6748 Y45.2556 I8.0272 J-5.9779
G1 Y45.2557
G1 Y45.2556
G3 X131.2882 Y44.5434 I11.3676 J-6.6314
G3 X131.2695 Y44.508 I1.7037 J-0.9226
G1 X131.4247 Y44.933
G1 X131.5872 Y45.3687
G1 X131.7778 Y45.866
G2 X131.9509 Y46.3009 I31.7573 J-12.3849
G3 X132.059 Y46.2417 I0.3554 J0.5199
G1 F300.0 X132.1061 Y46.352
G3 F800.0 X132.6302 Y46.4273 I0.2002 J0.4688
G3 X132.4675 Y46.223 I5.6964 J-4.7046
G3 X132.467 Y46.2222 I0.4043 J-0.3105
G3 X131.7785 Y45.1952 I7.8535 J-6.009
G1 X131.7784
G1 X131.7785
G3 X131.3946 Y44.4878 I11.2639 J-6.571
G3 X131.3403 Y44.3793 I1.5973 J-0.867
G1 X130.9238 Y43.5333
G3 X130.9236 Y43.533 I0.4573 J-0.2252
G3 X130.511 Y42.6752 I51.0046 J-25.0604
G3 X130.4531 Y42.5521 I2.2639 J-1.1392
G3 X130.3924 Y42.4208 I2.5075 J-1.2397
G3 X130.3048 Y42.228 I57.8398 J-26.3906
G3 X130.3357 Y42.3109 I-7.0774 J2.6828
G3 X130.3899 Y42.454 I-5.8832 J2.3115
G3 X130.4621 Y42.6461 I-6.8583 J2.6852
G3 X130.5576 Y42.9034 I-8.2902 J3.2253
G3 X130.6112 Y43.0487 I-6.948 J2.6413
G3 X130.6724 Y43.216 I-8.0972 J3.0615
G3 X130.7421 Y43.4072 I-10.0446 J3.77
G3 X130.8217 Y43.6265 I-14.6042 J5.425
G1 X131.0309 Y44.2043
G1 X131.3121 Y44.9746
G1 X131.475 Y45.4112
G1 X131.6659 Y45.9093
G2 X131.9052 Y46.5062 I31.8693 J-12.4282
G3 X132.1061 Y46.352 I0.4011 J0.3146
G0 Z3.0
G0 X127.113 Y47.4196
G0 Z1.0
G1 F300.0 Z-0.5
G2 F800.0 X127.0543 Y47.1782 I-4.3547 J0.9311
G3 X127.037 Y47.0909 I0.6078 J-0.1659
G3 X127.0262 Y47.0021 I13.2791 J-1.6695
G2 X126.9717 Y47.3652 I3.4918 J0.7099
G3 X126.9716 Y47.3658 I-0.627 J-0.0613
G2 X126.9906 Y48.0553 I2.7281 J0.2697
G2 X127.0743 Y48.3741 I1.7377 J-0.2856
G1 X127.1279 Y48.4379
G3 X127.1308 Y48.4413 I-0.482 J0.4057
G1 X127.2049 Y48.5306
G2 X127.209 Y48.2014 I-3.4002 J-0.2069
G3 X127.2089 Y48.2 I0.6296 J-0.0226
G2 X127.113 Y47.4196 I-4.4506 J0.1506
G1 F300.0 X127.2304 Y47.3945
G2 F800.0 X127.1701 Y47.1466 I-4.472 J0.9562
G3 X127.1561 Y47.076 I0.492 J-0.1343
G3 X127.0874 Y46.3826 I13.1601 J-1.6545
G3 X126.9928 Y46.6445 I-2.6811 J-0.8201
G2 X126.8522 Y47.3535 I3.5251 J1.0675
G3 Y47.354 I-0.5076 J-0.0496
G2 X126.8721 Y48.0742 I2.8475 J0.2815
G2 X126.9691 Y48.4355 I1.8562 J-0.3046
G1 X127.0361 Y48.5151
G3 X127.0385 Y48.5179 I-0.3902 J0.3284
G1 X127.1571 Y48.661
G3 X127.16 Y48.6644 I-0.3925 J0.3256
G2 X127.2969 Y48.8148 I1.4468 J-1.1791
G2 X127.3094 Y48.7153 I-2.8601 J-0.4094
G3 X127.3095 Y48.7136 I0.5071 J0.0547
G2 X127.3289 Y48.1971 I-3.5049 J-0.3899
G3 X127.3288 Y48.196 I0.5097 J-0.0183
G2 X127.2304 Y47.3945 I-4.5705 J0.1547
G0 Z3.0
G0 X127.5389 Y40.6099
G0 Z1.0
G1 F300.0 Z-0.5
G3 F800.0 X127.7169 Y40.6011 I0.1258 J0.7394
G3 X127.6406 Y40.3035 I23.9158 J-6.2945
G3 X127.6402 Y40.3019 I0.7274 J-0.1818
G3 X127.5434 Y39.8953 I22.4263 J-5.5522
G3 X127.5431 Y39.9229 I-6.5226 J-0.0606
G3 X127.5425 Y40.0725 I-6.8628 J0.0475
G3 X127.5417 Y40.2268 I-7.2747 J0.037
G3 X127.5405 Y40.386 I-7.7864 J0.0249
G3 X127.5391 Y40.5502 I-8.4453 J0.0105
G3 X127.5389 Y40.6099 I-9.3369 J-0.0077
G1 F300.0 X127.4189 Y40.609
G3 F800.0 X127.4175 Y40.7177 I-9.2167 J-0.0665
G3 X127.4174 Y40.7698 I-16.0767 J-0.0105
G3 X127.8832 Y40.7584 I0.2473 J0.5794
G3 X127.757 Y40.2744 I23.7495 J-6.4518
G3 X127.7567 Y40.273 I0.611 J-0.1527
G3 X127.4418 Y38.7941 I22.3098 J-5.5233
G3 X127.4179 Y38.6599 I6.1802 J-1.1687
G3 X127.4234 Y39.7749 I-63.9815 J0.875
G3 X127.4231 Y39.9225 I-6.4026 J0.0598
G3 X127.4225 Y40.0719 I-6.7428 J0.0478
G3 X127.4217 Y40.226 I-7.1547 J0.0376
G3 X127.4205 Y40.385 I-7.6664 J0.0257
G3 X127.4191 Y40.5491 I-8.3253 J0.0115
G3 X127.4189 Y40.609 I-9.2169 J-0.0065
G0 Z3.0
G0 X122.7888 Y36.8672
G0 Z1.0
G1 F300.0 Z-0.5
G2 F800.0 X122.8314 Y36.796 I-0.4797 J-0.3357
G3 X122.8297 Y36.7815 I0.9817 J-0.1283
G3 X122.8028 Y36.8111 I-0.8634 J-0.7567
G3 X122.7768 Y36.8378 I-0.7214 J-0.678
G2 X122.7888 Y36.8672 I0.9426 J-0.3666
G1 F300.0 X122.6784 Y36.9142
G2 F800.0 X122.7199 Y37.0013 I1.041 J-0.4431
G2 X122.7639 Y37.0806 I3.7931 J-2.0519
G1 X122.7702 Y37.0743
G3 X122.772 Y37.0725 I0.6176 J0.6128
G2 X122.7826 Y37.0611 I-0.1654 J-0.165
G3 X122.786 Y37.0573 I0.6553 J0.5723
G1 X122.8378 Y36.9987
G2 X122.942 Y36.8432 I-0.5287 J-0.4671
G2 X122.9512 Y36.7861 I-0.0889 J-0.0436
G3 X122.9557 Y36.5201 I0.8619 J-0.1184
G3 X122.904 Y36.5063 I0.1977 J-0.8472
G2 X122.7779 Y36.6559 I4.2207 J3.6874
G3 X122.7154 Y36.7289 I-0.8116 J-0.6311
G3 X122.6387 Y36.8012 I-0.6339 J-0.5958
G2 X122.6455 Y36.8273 I0.36 J-0.0804
G2 X122.6784 Y36.9142 I1.0739 J-0.3561
G1 F300.0 X122.568 Y36.9612
G2 F800.0 X122.6141 Y37.0579 I1.1515 J-0.4901
G2 X122.7392 Y37.2745 I3.8989 J-2.1086
G1 X122.7657 Y37.2492
G1 X122.8554 Y37.1588
G3 X122.8569 Y37.1572 I0.5324 J0.5283
G2 X122.873 Y37.14 I-0.2503 J-0.2498
G3 X122.8759 Y37.1368 I0.5649 J0.4933
G1 X122.9277 Y37.0781
G2 X123.0497 Y36.8961 I-0.6186 J-0.5466
G2 X123.0701 Y36.7698 I-0.1966 J-0.0966
G3 X123.1047 Y36.4213 I0.743 J-0.1021
G3 X122.8676 Y36.3663 I0.0487 J-0.7484
G2 X122.8616 Y36.3731 I0.5919 J0.5306
G3 X122.8567 Y36.3786 I-0.5641 J-0.4942
G2 X122.6839 Y36.5812 I4.268 J3.815
G3 X122.628 Y36.6467 I-0.7176 J-0.5564
G3 X122.5566 Y36.7134 I-0.5465 J-0.5136
G2 X122.5121 Y36.7657 I0.1216 J0.1485
G2 X122.512 Y36.7672 I0.0094 J0.0012
G2 X122.5311 Y36.8636 I0.4866 J-0.0464
G2 X122.568 Y36.9612 I1.1883 J-0.3924
G1 F300.0 X122.4575 Y37.0082
G2 F800.0 X122.5083 Y37.1146 I1.2619 J-0.5371
G2 X122.7119 Y37.4548 I4.0046 J-2.1653
G1 X122.7158 Y37.4607
G1 X122.773 Y37.4081
G1 X122.8497 Y37.3349
G1 X122.9406 Y37.2433
G3 X122.9419 Y37.242 I0.4472 J0.4437
G2 X122.9634 Y37.219 I-0.3352 J-0.3346
G3 X122.9658 Y37.2162 I0.4745 J0.4144
G1 X123.0176 Y37.1576
G2 X123.1574 Y36.9491 I-0.7085 J-0.626
G2 X123.189 Y36.7534 I-0.3043 J-0.1495
G3 X123.286 Y36.3226 I0.6241 J-0.0857
G3 X123.3124 Y36.2825 I8.4613 J5.5391
G3 X122.8429 Y36.221 I-0.159 J-0.6096
G2 X122.7713 Y36.294 I0.6166 J0.6759
G3 X122.7672 Y36.2987 I-0.4739 J-0.4152
G2 X122.5899 Y36.5066 I4.3575 J3.895
G3 X122.5405 Y36.5645 I-0.6236 J-0.4818
G3 X122.4806 Y36.6205 I-0.4591 J-0.4315
G2 X122.4022 Y36.7164 I0.1976 J0.2413
G2 X122.3924 Y36.777 I0.1193 J0.0505
G2 X122.4168 Y36.8999 I0.6062 J-0.0562
G2 X122.4575 Y37.0082 I1.3027 J-0.4288
G0 Z3.0
G0 X133.8226 Y56.8591
G0 Z1.0
G1 F300.0 Z-0.5
G2 F800.0 X133.9018 Y57.0846 I5.7467 J-1.8919
G2 X134.1425 Y57.6542 I7.0944 J-2.6617
G2 X134.0353 Y57.3482 I-10.4224 J3.4786
G2 X133.8516 Y56.918 I-5.613 J2.1424
G2 X133.8226 Y56.8591 I-3.0831 J1.4809
G1 F300.0 X133.7086 Y56.8966
G2 F800.0 X133.7894 Y57.1267 I5.8607 J-1.9294
G2 X134.3442 Y58.2957 I7.2068 J-2.7038
G2 X134.3633 Y58.3123 I0.1239 J-0.1238
G3 X134.3697 Y58.3171 I-0.305 J0.4088
G2 X134.4683 Y58.3835 I0.5662 J-0.7345
G2 X134.4896 Y58.3955 I0.5096 J-0.881
G1 X134.4872 Y58.387
G1 X134.3806 Y58.0132
G2 X134.1477 Y57.3062 I-10.6605 J3.1196
G2 X133.9599 Y56.8663 I-5.7253 J2.1845
G2 X133.6512 Y56.3438 I-3.1914 J1.5326
G2 X133.6072 Y56.2848 I-2.0921 J1.5164
G3 X133.544 Y56.1779 I0.4042 J-0.311
G3 X133.5049 Y56.0879 I34.335 J-14.9897
G2 X133.5215 Y56.1796 I4.3422 J-0.7416
G3 X133.5227 Y56.1857 I-0.5008 J0.0965
G2 X133.5912 Y56.4943 I3.8836 J-0.6997
G3 X133.5921 Y56.4981 I-0.4931 J0.1303
G2 X133.7086 Y56.8966 I5.9772 J-1.5309
G1 F300.0 X133.5946 Y56.9341
G2 F800.0 X133.6771 Y57.1688 I5.9747 J-1.9669
G2 X134.2473 Y58.3678 I7.3191 J-2.7459
G2 X134.2916 Y58.4085 I0.2208 J-0.1959
G3 X134.2965 Y58.4122 I-0.2332 J0.3126
G2 X134.408 Y58.4873 I0.6395 J-0.8295
G2 X134.6601 Y58.595 I0.5699 J-0.9848
G3 X134.6615 Y58.5954 I-0.109 J0.3745
G2 X134.6707 Y58.598 I0.1028 J-0.3483
G1 X134.6027 Y58.3544
G1 X134.4959 Y57.9799
G2 X134.2601 Y57.2641 I-10.7758 J3.1529
G2 X134.0682 Y56.8147 I-5.8377 J2.2265
G2 X133.7487 Y56.2737 I-3.2998 J1.5843
G2 X133.7023 Y56.2116 I-2.1895 J1.5865
G3 X133.654 Y56.1299 I0.3091 J-0.2378
G3 X133.1558 Y54.9323 I34.225 J-14.9417
G3 X133.3529 Y55.8741 I-5.7866 J1.7026
G3 X133.3533 Y55.8775 I-0.3869 J0.0492
G2 X133.4037 Y56.2023 I4.4938 J-0.5312
G3 X133.4046 Y56.207 I-0.383 J0.0738
G2 X133.4751 Y56.525 I4.0017 J-0.721
G3 X133.4759 Y56.5279 I-0.3771 J0.0997
G2 X133.5946 Y56.9341 I6.0934 J-1.5607
G0 Z3.0
G0 X142.0125 Y57.698
G0 Z1.0
G1 F300.0 Z-0.5
G3 F800.0 X142.1559 Y57.7996 I-37.1183 J52.5444
G3 X142.2026 Y57.7423 I0.6973 J0.5203
G3 X142.0125 Y57.698 I2.215 J-9.9305
G1 F300.0 X142.0409 Y57.5814
G3 F800.0 X141.3637 Y57.3913 I2.3767 J-9.7696
G3 X142.1894 Y57.9708 I-36.4695 J52.851
G3 X142.4689 Y57.6759 I0.6638 J0.3491
G3 X142.2958 Y57.6399 I1.7568 J-8.9002
G3 X142.0409 Y57.5814 I2.1218 J-9.8281
G0 Z3.0
G0 X146.7456 Y57.4561
G0 Z1.0
G1 F300.0 Z-0.5
G3 F800.0 X147.0656 Y57.4719 I-0.9524 J22.5429
G3 X147.0759 Y57.2815 I1.0953 J-0.0361
G3 X147.0108 Y57.318 I-2.7292 J-4.7967
G3 X146.7456 Y57.4561 I-2.9729 J-5.3862
G1 F300.0 X146.6928 Y57.3483
G3 F800.0 X146.2087 Y57.5598 I-2.6548 J-5.4165
G3 X147.1989 Y57.6 I-0.4156 J22.4392
G3 X147.2362 Y57.1241 I0.962 J-0.1642
G3 X147.2759 Y57.0199 I1.1438 J0.3769
G3 X146.9529 Y57.2129 I-2.9292 J-4.5351
G3 X146.6928 Y57.3483 I-2.9149 J-5.2811
G0 Z3.0
G0 X149.9815 Y53.1278
G0 Z1.0
G1 F300.0 Z-0.5
G3 F800.0 X150.2984 Y52.7368 I54.4391 J43.8035
G3 X150.0964 Y52.6049 I0.4363 J-0.8887
G3 X150.0883 Y52.646 I-12.2723 J-2.3979
G3 X149.9815 Y53.1278 I-8.4569 J-1.6215
G1 F300.0 X149.8651 Y53.0984
G3 F800.0 X149.7606 Y53.4763 I-8.2338 J-2.074
G3 X149.6986 Y53.675 I-6.5178 J-1.927
G3 X150.496 Y52.6848 I54.722 J43.2563
G3 X150.0221 Y52.3473 I0.2387 J-0.8366
G3 X149.9705 Y52.623 I-12.198 J-2.1403
G3 X149.8651 Y53.0984 I-8.3392 J-1.5985
G1 F300.0 X149.7488 Y53.0691
G3 F800.0 X149.6456 Y53.4419 I-8.1174 J-2.0447
G3 X149.452 Y54.0038 I-6.4028 J-1.8926
G3 X149.4489 Y54.0114 I-0.6973 J-0.2756
G1 X149.3956 Y54.1422
G3 X149.393 Y54.1485 I-0.6942 J-0.2832
G3 X149.0187 Y54.8839 I-5.1181 J-2.1418
G3 X148.1369 Y56.159 I-4.2395 J-1.9892
G3 X146.8949 Y57.1078 I-3.7902 J-3.6743
G3 X145.4119 Y57.6821 I-2.857 J-5.176
G3 X145.9936 Y57.6769 I0.4487 J17.5871
G3 X145.9947 I-0.0057 J0.75
G3 X147.3575 Y57.7309 I-0.2015 J22.3221
G3 X147.35 Y57.162 I0.8034 J-0.295
G3 X147.4954 Y56.8739 I1.0299 J0.339
G3 X147.5391 Y56.8135 I2.1647 J1.5216
G3 X147.5513 Y56.7976 I0.6012 J0.4484
G3 X147.7931 Y56.5336 I1.9001 J1.4979
G1 X147.8368 Y56.4915
G3 X147.8478 Y56.481 I0.5209 J0.5396
G1 X148.0356 Y56.3069
G3 X148.0632 Y56.2826 I0.5099 J0.55
G2 X148.5249 Y55.8072 I-2.1024 J-2.5037
G3 X148.5274 Y55.8041 I0.5882 J0.4653
G2 X148.9379 Y55.2161 I-4.3084 J-3.445
G3 X148.9551 Y55.189 I0.6416 J0.3884
G2 X148.9815 Y55.1457 I-0.5451 J-0.3628
G3 X148.9951 Y55.1224 I0.6546 J0.366
G2 X149.2681 Y54.6497 I-10.5266 J-6.3947
G3 X149.2785 Y54.6314 I0.6576 J0.3606
G2 X149.339 Y54.5231 I-2.6567 J-1.555
G3 X149.3465 Y54.5093 I0.662 J0.3525
G1 X149.5187 Y54.2016
G3 X149.5217 Y54.1963 I0.6545 J0.3662
G1 X149.6148 Y54.033
G3 X149.6191 Y54.0256 I0.6515 J0.3715
G1 X149.7204 Y53.8526
G3 X149.7791 Y53.7666 I0.6472 J0.3789
G3 X150.7228 Y52.5981 I54.6415 J43.1646
G3 X149.9875 Y51.783 I0.0119 J-0.7499
G2 X149.9884 Y51.773 I-15.4462 J-1.3483
G3 X149.9868 Y51.7826 I-8.2493 J-1.3655
G3 X149.8527 Y52.6 I-12.1627 J-1.5756
G3 X149.7488 Y53.0691 I-8.2214 J-1.5755
G0 Z3.0
G0 X149.1888 Y43.3345
G0 Z1.0
G1 F300.0 Z-0.5
G1 F800.0 X149.1782 Y43.0807
G3 X149.1043 Y43.0861 I-0.1086 J-0.984
G3 X149.1888 Y43.3345 I-23.8504 J8.2576
G1 F300.0 X149.075 Y43.3726
G3 F800.0 X149.3468 Y44.236 I-23.8212 J7.9711
G1 X149.2923 Y42.9377
G3 X148.9315 Y42.9557 I-0.2227 J-0.841
G3 X149.075 Y43.3726 I-23.6776 J8.388
G1 F300.0 X148.9612 Y43.4107
G3 F800.0 X149.3247 Y44.5933 I-23.7074 J7.9331
G3 X149.352 Y44.6921 I-2.8303 J0.8343
G3 X149.5183 Y45.3364 I-25.2525 J6.8613
G1 X149.5038 Y45.043
G3 X149.5037 Y45.0407 I0.7491 J-0.0368
G1 X149.4686 Y44.2767
G3 X149.4685 Y44.2737 I0.7492 J-0.0345
G1 X149.4053 Y42.7674
G3 X148.7367 Y42.7688 I-0.3357 J-0.6707
G3 X148.9612 Y43.4107 I-23.4829 J8.5749
G1 F300.0 X148.8475 Y43.4487
G3 F800.0 X149.2094 Y44.6265 I-23.5936 J7.895
G3 X149.2359 Y44.7227 I-2.715 J0.8012
G3 X149.4092 Y45.3956 I-25.1364 J6.8306
G3 X149.6487 Y46.1975 I-3.9572 J1.6189
G3 X149.7689 Y47.0023 I-9.0303 J1.7595
G1 X149.7919 Y47.2169
G3 X149.7926 Y47.2238 I-0.6262 J0.0672
G2 X149.8554 Y47.7762 I16.0176 J-1.5409
G3 X149.8599 Y47.8243 I-0.6244 J0.0819
G1 X149.8709 Y48.0306
G3 X149.8718 Y48.0563 I-0.6289 J0.0338
G2 X149.8725 Y48.0679 I0.1282 J-0.0017
G3 X149.8746 Y48.0938 I-0.6264 J0.0653
G1 X149.8918 Y48.3676
G1 X149.9282 Y48.9148
G3 X149.981 Y50.0457 I-22.6013 J1.6202
G3 X149.9811 Y50.0517 I-0.6296 J0.0136
G1 X149.9828 Y50.1984
G3 X149.9798 Y50.5609 I-8.5113 J0.111
G3 Y50.5631 I-0.6295 J-0.0186
G1 X149.9738 Y50.7422
G3 X149.9736 Y50.7473 I-0.6294 J-0.0208
G3 X149.8681 Y51.765 I-8.2345 J-0.3398
G3 X149.7349 Y52.577 I-12.044 J-1.558
G3 X149.5307 Y53.4076 I-8.1036 J-1.5525
G3 X149.3404 Y53.9597 I-6.2878 J-1.8583
G3 X149.3378 Y53.9661 I-0.5857 J-0.2315
G1 X149.2845 Y54.0969
G3 X149.2823 Y54.1021 I-0.5831 J-0.2379
G3 X148.9127 Y54.8272 I-5.0074 J-2.0955
G3 X148.0508 Y56.0755 I-4.1336 J-1.9324
G3 X146.837 Y57.0028 I-3.7041 J-3.5907
G3 X143.9531 Y57.7233 I-2.799 J-5.0709
G3 X143.9424 Y57.7231 I0.0092 J-0.6297
G3 X142.3212 Y57.5227 I0.2833 J-8.9475
G3 X140.7696 Y57.0523 I2.0964 J-9.7108
G1 Y57.0524
G1 Y57.0523
G3 X140.4706 Y56.9303 I5.1192 J-12.9699
G3 X142.1635 Y58.0997 I-35.5764 J53.3121
G3 X142.2446 Y58.1572 I-2.9538 J4.254
G3 X142.9738 Y57.7016 I0.6086 J0.1627
G2 X144.4004 Y57.862 I1.7065 J-8.7527
G1 X144.5276 Y57.8504
G3 X144.5353 Y57.8497 I0.0572 J0.6274
G1 X144.7004 Y57.8367
G3 X144.7067 Y57.8363 I0.0495 J0.6281
G1 X144.8169 Y57.8287
G3 X144.8227 Y57.8283 I0.0431 J0.6285
G1 X144.9697 Y57.8196
G3 X144.9772 Y57.8192 I0.0373 J0.6289
G1 X145.1733 Y57.8099
G3 X145.1785 Y57.8097 I0.0298 J0.6293
G3 X145.9927 Y57.7969 I0.6821 J17.4595
G3 X145.9936 I-0.0048 J0.63
G3 X147.5658 Y57.8668 I-0.2004 J22.2021
G3 X147.5456 Y57.8385 I0.6033 J-0.4503
G3 X147.5105 Y57.78 I0.5217 J-0.3531
G3 X147.4638 Y57.2 I0.6504 J-0.3442
G3 X147.5934 Y56.9431 I0.9161 J0.301
G3 X147.6353 Y56.8852 I2.0667 J1.4524
G3 X147.6456 Y56.8719 I0.505 J0.3767
G3 X147.8759 Y56.6205 I1.8059 J1.4236
G1 X147.9202 Y56.5778
G3 X147.9294 Y56.569 I0.4376 J0.4532
G1 X148.1172 Y56.3949
G3 X148.1404 Y56.3744 I0.4283 J0.462
G2 X148.619 Y55.8816 I-2.1795 J-2.5956
G3 X148.6211 Y55.8791 I0.4941 J0.3909
G2 X149.0405 Y55.2782 I-4.4022 J-3.52
G3 X149.055 Y55.2555 I0.5389 J0.3263
G2 X149.0863 Y55.2043 I-0.645 J-0.4293
G3 X149.0977 Y55.1847 I0.5499 J0.3075
G2 X149.3733 Y54.7074 I-10.6292 J-6.457
G3 X149.382 Y54.6921 I0.5524 J0.3029
G2 X149.4449 Y54.5795 I-2.7602 J-1.6157
G3 X149.4512 Y54.5679 I0.5561 J0.2961
G1 X149.6234 Y54.2602
G3 X149.6259 Y54.2557 I0.5498 J0.3076
G1 X149.7191 Y54.0924
G3 X149.7227 Y54.0862 I0.5473 J0.3121
G1 X149.8239 Y53.9132
G3 X149.8733 Y53.841 I0.5437 J0.3183
G3 X151.0471 Y52.3952 I54.5473 J43.0902
G3 X150.1071 Y51.7934 I-0.3124 J-0.5471
G2 X150.1502 Y49.7267 I-15.5657 J-1.3588
G2 X149.9574 Y47.6429 I-22.8208 J1.0608
G3 X149.9559 Y47.6315 I0.624 J-0.0867
G2 X149.94 Y47.5163 I-3.2478 J0.3913
G3 X149.9373 Y47.4976 I0.6224 J-0.0976
G2 X149.92 Y47.3766 I-3.6209 J0.4571
G3 X149.9188 Y47.3687 I0.622 J-0.0998
G2 X149.6712 Y45.8857 I-38.9736 J5.7448
G3 X149.6612 Y45.8011 I0.6193 J-0.1156
G1 X149.6237 Y45.0371
G3 X149.6236 Y45.0352 I0.6292 J-0.0309
G1 X149.5885 Y44.2712
G3 X149.5884 Y44.2686 I0.6293 J-0.0289
G1 X149.5242 Y42.7403
G3 X149.5241 Y42.738 I0.6294 J-0.0264
G1 X149.5166 Y42.5407
G3 X148.4807 Y42.3207 I-0.447 J-0.4439
G2 X148.1004 Y41.3848 I-21.066 J8.015
G3 X148.1002 Y41.3843 I0.5782 J-0.2502
G2 X147.6786 Y40.468 I-19.471 J8.4035
G3 X147.6733 Y40.4569 I0.5659 J-0.2769
G2 X147.6228 Y40.3534 I-2.8148 J1.3095
G3 X147.619 Y40.3459 I0.561 J-0.2867
G2 X146.5945 Y38.4286 I-30.8369 J15.2457
G1 X146.2791 Y37.8856
G1 X145.9118 Y37.2697
G1 X145.7135 Y36.943
G2 X145.254 Y36.1958 I-148.9376 J91.0835
G3 X145.2296 Y36.1527 I0.5358 J-0.3314
G3 X143.4706 Y32.6728 I238.12 J-122.5541
G3 X142.4854 Y32.8018 I-0.5429 J-0.3196
G2 X141.813 Y32.1503 I-38.1725 J38.7164
G3 X141.7927 Y32.1301 I0.4345 J-0.4562
G2 X141.7915 Y32.1289 I-0.0129 J0.0123
G3 X141.7472 Y32.087 I0.4102 J-0.4782
G2 X141.7437 Y32.0837 I-0.0351 J0.0337
G3 X141.7211 Y32.0635 I0.4089 J-0.4792
G2 X140.9397 Y31.3504 I-24.449 J26.0099
G2 X140.4063 Y30.8921 I-20.8765 J23.7535
G3 X140.3926 Y30.8802 I0.4053 J-0.4823
G2 X140.3531 Y30.8473 I-0.5217 J0.5859
G3 X140.3371 Y30.8345 I0.3872 J-0.497
G2 X139.5854 Y30.2365 I-13.6468 J16.3864
G3 X139.5844 Y30.2357 I0.381 J-0.5018
G2 X138.5461 Y29.501 I-10.8316 J14.2052
G1 X138.4056 Y29.4101
G2 X137.7699 Y29.0253 I-7.5647 J11.7798
G2 X137.0166 Y28.627 I-7.1421 J12.5934
G3 X136.9851 Y28.6103 I0.278 J-0.5653
G2 X135.3045 Y27.9114 I-3.7488 J6.644
G2 X133.4887 Y27.5938 I-2.4754 J8.804
G3 X133.4865 Y27.5936 I0.0454 J-0.6284
G2 X132.2479 Y27.5741 I-0.7826 J10.314
G3 X132.2436 Y27.5742 I-0.0278 J-0.6294
G2 X131.5383 Y27.6251 I0.3787 J10.1623
G3 X131.4187 Y27.6265 I-0.0672 J-0.6264
G3 X129.9638 Y27.4732 I2.8113 J-33.65
G3 X129.9057 Y28.4115 I-0.4477 J0.4432
G2 X129.1092 Y29.136 I4.6671 J5.9301
G3 X129.1091 Y29.1362 I-0.4561 J-0.4346
G2 X128.4676 Y29.9577 I3.8329 J3.6547
G2 X128.1537 Y30.5573 I3.5427 J2.2365
G3 X128.1503 Y30.565 I-0.5799 J-0.2461
G2 X128.0913 Y30.7141 I1.9383 J0.8536
G3 X128.013 Y30.8663 I-0.5941 J-0.2096
G1 X127.8525 Y31.0951
G3 X127.6784 Y31.3354 I-5.869 J-4.0693
G3 X127.5616 Y31.4922 I-3.8675 J-2.7579
G3 X127.4959 Y31.5792 I-2.7995 J-2.0488
G3 X127.4146 Y31.6852 I-2.8099 J-2.0694
G3 X126.7906 Y32.4623 I-23.1623 J-17.9594
G3 X126.7884 Y32.4649 I-0.4845 J-0.4027
G3 X126.7129 Y32.5546 I-41.7941 J-35.1273
G3 X127.3824 Y33.2407 I0.0421 J0.6286
G1 X127.3772 Y33.2976
G3 X127.49 Y32.7929 I9.5713 J1.8755
G3 X127.4906 Y32.7906 I0.6107 J0.1537
G1 X127.5199 Y32.6762
G3 X127.5203 Y32.6744 I0.6101 J0.156
G3 X127.966 Y31.3893 I8.1787 J2.1169
G3 X128.9359 Y29.8072 I6.179 J2.6994
G3 X128.9375 Y29.8052 I0.4865 J0.3999
G3 X129.6983 Y29.0386 I4.6505 J3.8541
G3 X129.7339 Y29.0107 I0.4056 J0.4818
G3 X130.7937 Y28.4136 I3.1205 J4.2995
G3 X130.7942 Y28.4134 I0.2443 J0.5804
G3 X131.9481 Y28.0667 I2.2136 J5.2732
G3 X131.9488 Y28.0665 I0.1167 J0.6189
G3 X132.7317 Y27.967 I1.2372 J6.6048
G3 X132.7338 Y27.9669 I0.0426 J0.6283
G3 X133.7669 Y27.9738 I0.4676 J7.2732
G3 X133.8438 Y27.98 I-0.0802 J1.4889
G3 X134.1243 Y28.0092 I-0.334 J4.563
G3 X135.5633 Y28.3098 I-1.0958 J8.8406
G3 X137.3502 Y29.0354 I-2.7983 J9.4545
G3 X139.177 Y30.103 I-5.7152 J11.8763
G3 X139.1777 Y30.1034 I-0.3604 J0.5165
G3 X140.8175 Y31.4041 I-10.0101 J14.3045
G3 X140.9282 Y31.5034 I-1.8918 J2.22
G3 X141.9519 Y32.485 I-15.4883 J17.1769
G3 X142.0843 Y32.6197 I-3.3849 J3.4601
G3 X142.2171 Y32.7566 I-4.0746 J4.0868
G3 X142.4949 Y33.0478 I-11.2731 J11.0329
G3 X143.1167 Y33.721 I-26.5662 J25.16
G3 X143.8104 Y34.4984 I-48.0995 J43.6164
G1 X143.8968 Y34.5966
G3 X143.8974 Y34.5972 I-0.4726 J0.4162
G1 X144.0761 Y34.8008
G3 X144.0991 Y34.8285 I-0.4732 J0.4155
G3 X146.0574 Y37.6195 I-26.0427 J20.3557
G3 X146.0602 Y37.624 I-0.5335 J0.3346
G1 X146.3108 Y38.031
G3 X146.3128 Y38.0342 I-0.5363 J0.3302
G3 X148.1064 Y41.5072 I-24.1563 J14.6749
G3 X148.107 Y41.5086 I-0.5782 J0.2496
G3 X148.3081 Y41.9901 I-25.5584 J10.9581
G3 X148.3083 Y41.9906 I-0.5834 J0.2373
G3 X148.8475 Y43.4487 I-23.0544 J9.3531
G0 Z3.0
G0 X156.8352 Y45.6468
G0 Z1.0
G1 F300.0 Z-0.5
G3 F800.0 X156.8432 Y45.6668 I-1.2514 J0.5064
G1 X157.0931 Y45.3967
G1 X157.2453 Y45.2301
G1 X157.4159 Y45.0394
G1 X157.5011 Y44.9419
G1 X157.5118 Y44.9294
G3 X157.5056 Y44.9219 I1.0311 J-0.8714
G3 X157.4787 Y44.8922 I0.9887 J-0.9193
G1 X157.0997 Y45.3274
G1 X156.8352 Y45.6468
G1 F300.0 X156.724 Y45.6918
G3 F800.0 X156.788 Y45.9026 I-1.1402 J0.4614
G3 X156.8001 Y45.8898 I1.9956 J1.8658
G3 X156.8508 Y45.835 I2.2285 J2.0112
G3 X156.9092 Y45.7721 I2.5682 J2.3269
G1 X157.1814 Y45.4779
G1 X157.3343 Y45.3106
G1 X157.5058 Y45.1189
G1 X157.5919 Y45.0204
G1 X157.6705 Y44.9286
G2 X157.6228 Y44.8742 I-5.0253 J4.3611
G3 X157.5957 Y44.8426 I0.9201 J-0.8162
G3 X157.5495 Y44.7903 I0.8986 J-0.8399
G3 X157.5318 Y44.7712 I0.8925 J-0.8464
G1 X157.4772 Y44.7112
G1 X157.0082 Y45.2497
G1 X156.7142 Y45.6047
G2 X156.6959 Y45.6276 I1.3287 J1.0847
G3 X156.724 Y45.6918 I-1.1121 J0.5256
G1 F300.0 X156.6128 Y45.7368
G3 F800.0 X156.6891 Y46.0506 I-1.0289 J0.4164
G3 X156.7196 Y46.0555 I-0.1606 J1.0983
G3 X156.7961 Y46.0711 I-0.2418 J1.3833
G3 X156.8353 Y46.0288 I14.2643 J13.1777
G3 X156.8882 Y45.9713 I1.9483 J1.7396
G3 X156.9388 Y45.9166 I2.1404 J1.9298
G3 X156.9967 Y45.8542 I2.4802 J2.2453
G1 X157.2697 Y45.5591
G1 X157.4233 Y45.391
G1 X157.5957 Y45.1984
G1 X157.6827 Y45.0989
G1 X157.7769 Y44.9888
G2 X157.8279 Y44.928 I-7.6594 J-6.474
G2 X157.7125 Y44.7946 I-5.1827 J4.3616
G3 X157.6858 Y44.7633 I0.8304 J-0.7366
G3 X157.641 Y44.7126 I0.8084 J-0.7606
G2 X157.6374 Y44.7086 I-0.0631 J0.0525
G3 X157.6206 Y44.6905 I0.8046 J-0.7646
G1 X157.4753 Y44.5306
G1 X156.9167 Y45.172
G1 X156.6215 Y45.5285
G2 X156.5548 Y45.6154 I1.4214 J1.1609
G3 X156.6128 Y45.7368 I-0.971 J0.5378
G1 F300.0 X156.5015 Y45.7818
G3 F800.0 X156.5738 Y46.1598 I-0.9177 J0.3714
G3 X156.619 Y46.1631 I-0.0637 J1.1891
G3 X156.6989 Y46.1737 I-0.0905 J0.9859
G3 X156.8356 Y46.2054 I-0.2212 J1.265
G3 X156.924 Y46.1096 I14.2248 J13.0434
G3 X156.9763 Y46.0528 I1.8596 J1.6588
G3 X157.0268 Y45.9982 I2.0523 J1.8483
G3 X157.0842 Y45.9364 I2.3922 J2.1637
G1 X157.3581 Y45.6403
G1 X157.5123 Y45.4715
G1 X157.6856 Y45.2779
G1 X157.7734 Y45.1774
G1 X157.8683 Y45.0666
G2 X157.9835 Y44.9278 I-7.7508 J-6.5517
G2 X157.8023 Y44.7149 I-5.3383 J4.3619
G3 X157.778 Y44.6865 I0.7406 J-0.657
G2 X157.7736 Y44.6815 I-0.0762 J0.0626
G3 X157.7332 Y44.6359 I0.7206 J-0.6789
G2 X157.7243 Y44.6259 I-0.1554 J0.1293
G3 X157.7094 Y44.6098 I0.7177 J-0.682
G1 X157.4734 Y44.3501
G1 X156.8253 Y45.0943
G1 X156.5289 Y45.4523
G2 X156.4121 Y45.6109 I1.5141 J1.2371
G3 X156.5015 Y45.7818 I-0.8283 J0.5423
G1 F300.0 X156.3903 Y45.8268
G3 F800.0 X156.4445 Y46.2801 I-0.8065 J0.3264
G3 X156.608 Y46.2826 I0.0656 J1.0688
G3 X156.6783 Y46.292 I-0.0795 J0.8664
G3 X156.8721 Y46.3434 I-0.2005 J1.1468
G3 X157.0128 Y46.1904 I14.1883 J12.9054
G3 X157.0644 Y46.1342 I1.7709 J1.578
G3 X157.1148 Y46.0798 I1.9642 J1.7668
G3 X157.1717 Y46.0185 I2.3042 J2.0821
G1 X157.4464 Y45.7215
G1 X157.6013 Y45.552
G1 X157.7755 Y45.3574
G1 X157.8642 Y45.2559
G1 X157.9597 Y45.1443
G2 X158.1377 Y44.9279 I-7.8422 J-6.6295
G2 X157.8921 Y44.6353 I-5.4925 J4.3618
G3 X157.8708 Y44.6103 I0.6508 J-0.5773
G2 X157.861 Y44.5992 I-0.1689 J0.1388
G3 X157.8254 Y44.5591 I0.6332 J-0.5966
G2 X157.8113 Y44.5432 I-0.2476 J0.206
G3 X157.7982 Y44.5291 I0.6307 J-0.5993
G1 X157.519 Y44.2219
