N5 (File Name = assbot_logo-milled on Thursday, August 01, 2013)
N10 (Default Mill Post)
N15  G91.1
N20 G0  Z1.0000 
N25 M3 
N30  X19.4448  Y13.0874 
N35  Z0.1000 
N40 G1  Z-1.0000  F500.00 
N45  X11.5107   
N50 G0  Z1.0000 
N55  X19.4448 
N60  Z0.1000 
N65 G1  Z-1.5000  
N70  X11.5107   
N75 G0  Z1.0000 
N80  X11.1559  Y13.6281 
N85  Z0.1000 
N90 G1  Z-1.0000  
N95  X11.6561  Y13.3446   
N100  X42.0818  Y67.0199   
N105  X50.6081   
N110  X59.5404  Y12.9094   
N115  X52.5275   
N120  X49.9068  Y28.4856   
N125  X28.0190   
N130  X19.3451  Y12.9094   
N135  X11.4094   
N140  X11.6561  Y13.3446   
N145  X11.1559  Y13.6281   
N150  X11.6672  Y13.3636   
N155  X11.4205  Y12.9284   
N160  X19.3562   
N165  X28.0302  Y28.5046   
N170  X49.9179   
N175  X52.5386  Y12.9284   
N180  X59.5515   
N185  X50.6192  Y67.0389   
N190  X42.0930   
N195  X11.6672  Y13.3636   
N200  X11.1670  Y13.6471   
N205 G0  Z0.1000 
N210 G1  Z-1.5000  
N215  X11.6561  Y13.3446   
N220  X42.0818  Y67.0199   
N225  X50.6081   
N230  X59.5404  Y12.9094   
N235  X52.5275   
N240  X49.9068  Y28.4856   
N245  X28.0190   
N250  X19.3451  Y12.9094   
N255  X11.4094   
N260  X11.6561  Y13.3446   
N265  X11.1559  Y13.6281   
N270  X11.6672  Y13.3636   
N275  X11.4205  Y12.9284   
N280  X19.3562   
N285  X28.0302  Y28.5046   
N290  X49.9179   
N295  X52.5386  Y12.9284   
N300  X59.5515   
N305  X50.6192  Y67.0389   
N310  X42.0930   
N315  X11.6672  Y13.3636   
N320  X11.1670  Y13.6471   
N325 G0  Z1.0000 
N330  X12.8231  Y12.9284 
N335  Z0.1000 
N340 G1  Z-1.0000  
N345  Y15.4028   
N350 G0  Z1.0000 
N355  Y12.9284 
N360  Z0.1000 
N365 G1  Z-1.5000  
N370  Y15.4028   
N375 G0  Z1.0000 
N380  X20.8592  Y15.6274 
N385  Z0.1000 
N390 G1  Z-1.0000  
N395  X12.9504   
N400 G0  Z1.0000 
N405  X20.8592 
N410  Z0.1000 
N415 G1  Z-1.5000  
N420  X12.9504   
N425 G0  Z1.0000 
N430  X21.2898  Y30.3392 
N435  Z0.1000 
N440 G1  Z-1.0000  
N445  Y16.4006   
N450  X20.7148  Y16.4741   
N455  X13.4304   
N460 G0  Z1.0000 
N465  X21.2898  Y30.3392 
N470  Z0.1000 
N475 G1  Z-1.5000  
N480  Y16.4006   
N485  X20.7148  Y16.4741   
N490  X13.4304   
N495 G0  Z1.0000 
N500  X21.8022  Y17.3207 
N505  Z0.1000 
N510 G1  Z-1.0000  
N515  X13.9103   
N520 G0  Z1.0000 
N525  X21.8022 
N530  Z0.1000 
N535 G1  Z-1.5000  
N540  X13.9103   
N545 G0  Z1.0000 
N550  X22.2737  Y18.1674 
N555  Z0.1000 
N560 G1  Z-1.0000  
N565  X14.3902   
N570 G0  Z1.0000 
N575  X22.2737 
N580  Z0.1000 
N585 G1  Z-1.5000  
N590  X14.3902   
N595 G0  Z1.0000 
N600  X14.5165  Y12.9284 
N605  Z0.1000 
N610 G1  Z-1.0000  
N615  Y18.3901   
N620 G0  Z1.0000 
N625  Y12.9284 
N630  Z0.1000 
N635 G1  Z-1.5000  
N640  Y18.3901   
N645 G0  Z1.0000 
N650  X22.7452  Y19.0141 
N655  Z0.1000 
N660 G1  Z-1.0000  
N665  X14.8702   
N670 G0  Z1.0000 
N675  X22.7452 
N680  Z0.1000 
N685 G1  Z-1.5000  
N690  X14.8702   
N695 G0  Z1.0000 
N700  X23.6881  Y20.7074 
N705  Z0.1000 
N710 G1  Z-1.0000  
N715  X15.8300   
N720 G0  Z1.0000 
N725  X23.6881 
N730  Z0.1000 
N735 G1  Z-1.5000  
N740  X15.8300   
N745 G0  Z1.0000 
N750  X16.2098  Y12.9284 
N755  Z0.1000 
N760 G1  Z-1.0000  
N765  Y21.3773   
N770 G0  Z1.0000 
N775  Y12.9284 
N780  Z0.1000 
N785 G1  Z-1.5000  
N790  Y21.3773   
N795 G0  Z1.0000 
N800  X24.1596  Y21.5541 
N805  Z0.1000 
N810 G1  Z-1.0000  
N815  X16.3100   
N820 G0  Z1.0000 
N825  X24.1596 
N830  Z0.1000 
N835 G1  Z-1.5000  
N840  X16.3100   
N845 G0  Z1.0000 
N850  X24.6765  Y36.3137 
N855  Z0.1000 
N860 G1  Z-1.0000  
N865  Y22.4822   
N870  X24.1015  Y22.4007   
N875  Y22.9757   
N880  Y22.4007   
N885  X16.7899   
N890 G0  Z1.0000 
N895  X24.6765  Y36.3137 
N900  Z0.1000 
N905 G1  Z-1.5000  
N910  Y22.4822   
N915  X24.1015  Y22.4007   
N920  Y22.9757   
N925  Y22.4007   
N930  X16.7899   
N935 G0  Z1.0000 
N940  X25.1026  Y23.2474 
N945  Z0.1000 
N950 G1  Z-1.0000  
N955  X17.2698   
N960 G0  Z1.0000 
N965  X25.1026 
N970  Z0.1000 
N975 G1  Z-1.5000  
N980  X17.2698   
N985 G0  Z1.0000 
N990  X17.9031  Y12.9284 
N995  Z0.1000 
N1000 G1  Z-1.0000  
N1005  Y24.3646   
N1010 G0  Z1.0000 
N1015  Y12.9284 
N1020  Z0.1000 
N1025 G1  Z-1.5000  
N1030  Y24.3646   
N1035 G0  Z1.0000 
N1040  X26.0456  Y24.9407 
N1045  Z0.1000 
N1050 G1  Z-1.0000  
N1055  X18.2297   
N1060 G0  Z1.0000 
N1065  X26.0456 
N1070  Z0.1000 
N1075 G1  Z-1.5000  
N1080  X18.2297   
N1085 G0  Z1.0000 
N1090  X26.9885  Y26.6341 
N1095  Z0.1000 
N1100 G1  Z-1.0000  
N1105  X19.1896   
N1110 G0  Z1.0000 
N1115  X26.9885 
N1120  Z0.1000 
N1125 G1  Z-1.5000  
N1130  X19.1896   
N1135 G0  Z1.0000 
N1140  X19.5965  Y13.3598 
N1145  Z0.1000 
N1150 G1  Z-1.0000  
N1155  Y27.3519   
N1160 G0  Z1.0000 
N1165  Y13.3598 
N1170  Z0.1000 
N1175 G1  Z-1.5000  
N1180  Y27.3519   
N1185 G0  Z1.0000 
N1190  X27.4600  Y27.4807 
N1195  Z0.1000 
N1200 G1  Z-1.0000  
N1205  X19.6695   
N1210 G0  Z1.0000 
N1215  X27.4600 
N1220  Z0.1000 
N1225 G1  Z-1.5000  
N1230  X19.6695   
N1235 G0  Z1.0000 
N1240  X27.9315  Y28.3274 
N1245  Z0.1000 
N1250 G1  Z-1.0000  
N1255  X20.1494   
N1260 G0  Z1.0000 
N1265  X27.9315 
N1270  Z0.1000 
N1275 G1  Z-1.5000  
N1280  X20.1494   
N1285 G0  Z1.0000 
N1290  X56.8698  Y29.1741 
N1295  Z0.1000 
N1300 G1  Z-1.0000  
N1305  X20.6294   
N1310 G0  Z1.0000 
N1315  X56.8698 
N1320  Z0.1000 
N1325 G1  Z-1.5000  
N1330  X20.6294   
N1335 G0  Z1.0000 
N1340  X56.7300  Y30.0207 
N1345  Z0.1000 
N1350 G1  Z-1.0000  
N1355  X21.1093   
N1360 G0  Z1.0000 
N1365  X56.7300 
N1370  Z0.1000 
N1375 G1  Z-1.5000  
N1380  X21.1093   
N1385 G0  Z1.0000 
N1390  X56.5902  Y30.8674 
N1395  Z0.1000 
N1400 G1  Z-1.0000  
N1405  X21.5892   
N1410 G0  Z1.0000 
N1415  X56.5902 
N1420  Z0.1000 
N1425 G1  Z-1.5000  
N1430  X21.5892   
N1435 G0  Z1.0000 
N1440  X56.4505  Y31.7141 
N1445  Z0.1000 
N1450 G1  Z-1.0000  
N1455  X22.0692   
N1460 G0  Z1.0000 
N1465  X56.4505 
N1470  Z0.1000 
N1475 G1  Z-1.5000  
N1480  X22.0692   
N1485 G0  Z1.0000 
N1490  X56.3107  Y32.5607 
N1495  Z0.1000 
N1500 G1  Z-1.0000  
N1505  X22.5491   
N1510 G0  Z1.0000 
N1515  X56.3107 
N1520  Z0.1000 
N1525 G1  Z-1.5000  
N1530  X22.5491   
N1535 G0  Z1.0000 
N1540  X31.2284  Y34.2541 
N1545  Z0.1000 
N1550 G1  Z-1.0000  
N1555  X23.5089   
N1560 G0  Z1.0000 
N1565  X31.2284 
N1570  Z0.1000 
N1575 G1  Z-1.5000  
N1580  X23.5089   
N1585 G0  Z1.0000 
N1590  X31.6985  Y35.1007 
N1595  Z0.1000 
N1600 G1  Z-1.0000  
N1605  X23.9889   
N1610 G0  Z1.0000 
N1615  X31.6985 
N1620  Z0.1000 
N1625 G1  Z-1.5000  
N1630  X23.9889   
N1635 G0  Z1.0000 
N1640  X32.1687  Y35.9474 
N1645  Z0.1000 
N1650 G1  Z-1.0000  
N1655  X24.4688   
N1660 G0  Z1.0000 
N1665  X32.1687 
N1670  Z0.1000 
N1675 G1  Z-1.5000  
N1680  X24.4688   
N1685 G0  Z1.0000 
N1690  X32.6388  Y36.7941 
N1695  Z0.1000 
N1700 G1  Z-1.0000  
N1705  X24.9487   
N1710 G0  Z1.0000 
N1715  X32.6388 
N1720  Z0.1000 
N1725 G1  Z-1.5000  
N1730  X24.9487   
N1735 G0  Z1.0000 
N1740  X40.6249  Y51.1874 
N1745  Z0.1000 
N1750 G1  Z-1.0000  
N1755  X33.1076   
N1760  X33.1431  Y37.7022   
N1765  X32.5681  Y37.6407   
N1770  Y38.2157   
N1775  Y37.6407   
N1780  X25.4287   
N1785 G0  Z1.0000 
N1790  X40.6249  Y51.1874 
N1795  Z0.1000 
N1800 G1  Z-1.5000  
N1805  X33.1076   
N1810  X33.1431  Y37.7022   
N1815  X32.5681  Y37.6407   
N1820  Y38.2157   
N1825  Y37.6407   
N1830  X25.4287   
N1835 G0  Z1.0000 
N1840  X33.5792  Y38.4874 
N1845  Z0.1000 
N1850 G1  Z-1.0000  
N1855  X25.9086   
N1860 G0  Z1.0000 
N1865  X33.5792 
N1870  Z0.1000 
N1875 G1  Z-1.5000  
N1880  X25.9086   
N1885 G0  Z1.0000 
N1890  X34.5195  Y40.1807 
N1895  Z0.1000 
N1900 G1  Z-1.0000  
N1905  X26.8685   
N1910 G0  Z1.0000 
N1915  X34.5195 
N1920  Z0.1000 
N1925 G1  Z-1.5000  
N1930  X26.8685   
N1935 G0  Z1.0000 
N1940  X34.9896  Y41.0274 
N1945  Z0.1000 
N1950 G1  Z-1.0000  
N1955  X27.3484   
N1960 G0  Z1.0000 
N1965  X34.9896 
N1970  Z0.1000 
N1975 G1  Z-1.5000  
N1980  X27.3484   
N1985 G0  Z1.0000 
N1990  X35.4598  Y41.8741 
N1995  Z0.1000 
N2000 G1  Z-1.0000  
N2005  X27.8283   
N2010 G0  Z1.0000 
N2015  X35.4598 
N2020  Z0.1000 
N2025 G1  Z-1.5000  
N2030  X27.8283   
N2035 G0  Z1.0000 
N2040  X35.9299  Y42.7207 
N2045  Z0.1000 
N2050 G1  Z-1.0000  
N2055  X28.3083   
N2060 G0  Z1.0000 
N2065  X35.9299 
N2070  Z0.1000 
N2075 G1  Z-1.5000  
N2080  X28.3083   
N2085 G0  Z1.0000 
N2090  X36.4001  Y43.5674 
N2095  Z0.1000 
N2100 G1  Z-1.0000  
N2105  X28.7882   
N2110 G0  Z1.0000 
N2115  X36.4001 
N2120  Z0.1000 
N2125 G1  Z-1.5000  
N2130  X28.7882   
N2135 G0  Z1.0000 
N2140  X36.8702  Y44.4141 
N2145  Z0.1000 
N2150 G1  Z-1.0000  
N2155  X29.2681   
N2160 G0  Z1.0000 
N2165  X36.8702 
N2170  Z0.1000 
N2175 G1  Z-1.5000  
N2180  X29.2681   
N2185 G0  Z1.0000 
N2190  X37.8105  Y46.1074 
N2195  Z0.1000 
N2200 G1  Z-1.0000  
N2205  X30.2280   
N2210 G0  Z1.0000 
N2215  X37.8105 
N2220  Z0.1000 
N2225 G1  Z-1.5000  
N2230  X30.2280   
N2235 G0  Z1.0000 
N2240  X38.2807  Y46.9541 
N2245  Z0.1000 
N2250 G1  Z-1.0000  
N2255  X30.7079   
N2260 G0  Z1.0000 
N2265  X38.2807 
N2270  Z0.1000 
N2275 G1  Z-1.5000  
N2280  X30.7079   
N2285 G0  Z1.0000 
N2290  X38.7508  Y47.8007 
N2295  Z0.1000 
N2300 G1  Z-1.0000  
N2305  X31.1879   
N2310 G0  Z1.0000 
N2315  X38.7508 
N2320  Z0.1000 
N2325 G1  Z-1.5000  
N2330  X31.1879   
N2335 G0  Z1.0000 
N2340  X31.4498  Y34.6528 
N2345  Z0.1000 
N2350 G1  Z-1.0000  
N2355  Y48.2628   
N2360 G0  Z1.0000 
N2365  Y34.6528 
N2370  Z0.1000 
N2375 G1  Z-1.5000  
N2380  Y48.2628   
N2385 G0  Z1.0000 
N2390  X39.2210  Y48.6474 
N2395  Z0.1000 
N2400 G1  Z-1.0000  
N2405  X31.6678   
N2410 G0  Z1.0000 
N2415  X39.2210 
N2420  Z0.1000 
N2425 G1  Z-1.5000  
N2430  X31.6678   
N2435 G0  Z1.0000 
N2440  X39.6912  Y49.4941 
N2445  Z0.1000 
N2450 G1  Z-1.0000  
N2455  X32.1477   
N2460 G0  Z1.0000 
N2465  X39.6912 
N2470  Z0.1000 
N2475 G1  Z-1.5000  
N2480  X32.1477   
N2485 G0  Z1.0000 
N2490  X32.2965  Y36.1775 
N2495  Z0.1000 
N2500 G1  Z-1.0000  
N2505  Y49.7565   
N2510 G0  Z1.0000 
N2515  Y36.1775 
N2520  Z0.1000 
N2525 G1  Z-1.5000  
N2530  Y49.7565   
N2535 G0  Z1.0000 
N2540  X40.1603  Y50.3407 
N2545  Z0.1000 
N2550 G1  Z-1.0000  
N2555  X32.6277   
N2560 G0  Z1.0000 
N2565  X40.1603 
N2570  Z0.1000 
N2575 G1  Z-1.5000  
N2580  X32.6277   
N2585 G0  Z1.0000 
N2590  X41.0825  Y52.0341 
N2595  Z0.1000 
N2600 G1  Z-1.0000  
N2605  X33.5875   
N2610 G0  Z1.0000 
N2615  X41.0825 
N2620  Z0.1000 
N2625 G1  Z-1.5000  
N2630  X33.5875   
N2635 G0  Z1.0000 
N2640  X33.9898  Y39.2269 
N2645  Z0.1000 
N2650 G1  Z-1.0000  
N2655  Y52.7437   
N2660 G0  Z1.0000 
N2665  Y39.2269 
N2670  Z0.1000 
N2675 G1  Z-1.5000  
N2680  Y52.7437   
N2685 G0  Z1.0000 
N2690  X41.5328  Y52.8807 
N2695  Z0.1000 
N2700 G1  Z-1.0000  
N2705  X34.0674   
N2710 G0  Z1.0000 
N2715  X41.5328 
N2720  Z0.1000 
N2725 G1  Z-1.5000  
N2730  X34.0674   
N2735 G0  Z1.0000 
N2740  X41.9754  Y53.7274 
N2745  Z0.1000 
N2750 G1  Z-1.0000  
N2755  X34.5474   
N2760 G0  Z1.0000 
N2765  X41.9754 
N2770  Z0.1000 
N2775 G1  Z-1.5000  
N2780  X34.5474   
N2785 G0  Z1.0000 
N2790  X34.8365  Y40.7516 
N2795  Z0.1000 
N2800 G1  Z-1.0000  
N2805  Y54.2374   
N2810 G0  Z1.0000 
N2815  Y40.7516 
N2820  Z0.1000 
N2825 G1  Z-1.5000  
N2830  Y54.2374   
N2835 G0  Z1.0000 
N2840  X41.8815  Y55.1491 
N2845  Z0.1000 
N2850 G1  Z-1.0000  
N2855  Y54.5741   
N2860  X35.0273   
N2865 G0  Z1.0000 
N2870  X41.8815  Y55.1491 
N2875  Z0.1000 
N2880 G1  Z-1.5000  
N2885  Y54.5741   
N2890  X35.0273   
N2895 G0  Z1.0000 
N2900  X42.8352  Y55.4207 
N2905  Z0.1000 
N2910 G1  Z-1.0000  
N2915  X35.5072   
N2920 G0  Z1.0000 
N2925  X42.8352 
N2930  Z0.1000 
N2935 G1  Z-1.5000  
N2940  X35.5072   
N2945 G0  Z1.0000 
N2950  X35.6831  Y42.2763 
N2955  Z0.1000 
N2960 G1  Z-1.0000  
N2965  Y55.7310   
N2970 G0  Z1.0000 
N2975  Y42.2763 
N2980  Z0.1000 
N2985 G1  Z-1.5000  
N2990  Y55.7310   
N2995 G0  Z1.0000 
N3000  X43.2506  Y56.2674 
N3005  Z0.1000 
N3010 G1  Z-1.0000  
N3015  X35.9872   
N3020 G0  Z1.0000 
N3025  X43.2506 
N3030  Z0.1000 
N3035 G1  Z-1.5000  
N3040  X35.9872   
N3045 G0  Z1.0000 
N3050  X43.6560  Y57.1141 
N3055  Z0.1000 
N3060 G1  Z-1.0000  
N3065  X36.4671   
N3070 G0  Z1.0000 
N3075  X43.6560 
N3080  Z0.1000 
N3085 G1  Z-1.5000  
N3090  X36.4671   
N3095 G0  Z1.0000 
N3100  X36.5298  Y43.8010 
N3105  Z0.1000 
N3110 G1  Z-1.0000  
N3115  Y57.2247   
N3120 G0  Z1.0000 
N3125  Y43.8010 
N3130  Z0.1000 
N3135 G1  Z-1.5000  
N3140  Y57.2247   
N3145 G0  Z1.0000 
N3150  X44.0510  Y57.9607 
N3155  Z0.1000 
N3160 G1  Z-1.0000  
N3165  X36.9470   
N3170 G0  Z1.0000 
N3175  X44.0510 
N3180  Z0.1000 
N3185 G1  Z-1.5000  
N3190  X36.9470   
N3195 G0  Z1.0000 
N3200  X44.8029  Y59.6541 
N3205  Z0.1000 
N3210 G1  Z-1.0000  
N3215  X37.9069   
N3220 G0  Z1.0000 
N3225  X44.8029 
N3230  Z0.1000 
N3235 G1  Z-1.5000  
N3240  X37.9069   
N3245 G0  Z1.0000 
N3250  X38.2231  Y46.8504 
N3255  Z0.1000 
N3260 G1  Z-1.0000  
N3265  Y60.2119   
N3270 G0  Z1.0000 
N3275  Y46.8504 
N3280  Z0.1000 
N3285 G1  Z-1.5000  
N3290  Y60.2119   
N3295 G0  Z1.0000 
N3300  X45.1591  Y60.5007 
N3305  Z0.1000 
N3310 G1  Z-1.0000  
N3315  X38.3868   
N3320 G0  Z1.0000 
N3325  X45.1591 
N3330  Z0.1000 
N3335 G1  Z-1.5000  
N3340  X38.3868   
N3345 G0  Z1.0000 
N3350  X51.5588  Y61.3474 
N3355  Z0.1000 
N3360 G1  Z-1.0000  
N3365  X38.8668   
N3370 G0  Z1.0000 
N3375  X51.5588 
N3380  Z0.1000 
N3385 G1  Z-1.5000  
N3390  X38.8668   
N3395 G0  Z1.0000 
N3400  X39.0698  Y48.3751 
N3405  Z0.1000 
N3410 G1  Z-1.0000  
N3415  Y61.7056   
N3420 G0  Z1.0000 
N3425  Y48.3751 
N3430  Z0.1000 
N3435 G1  Z-1.5000  
N3440  Y61.7056   
N3445 G0  Z1.0000 
N3450  X51.4190  Y62.1941 
N3455  Z0.1000 
N3460 G1  Z-1.0000  
N3465  X39.3467   
N3470 G0  Z1.0000 
N3475  X51.4190 
N3480  Z0.1000 
N3485 G1  Z-1.5000  
N3490  X39.3467   
N3495 G0  Z1.0000 
N3500  X51.2792  Y63.0407 
N3505  Z0.1000 
N3510 G1  Z-1.0000  
N3515  X39.8266   
N3520 G0  Z1.0000 
N3525  X51.2792 
N3530  Z0.1000 
N3535 G1  Z-1.5000  
N3540  X39.8266   
N3545 G0  Z1.0000 
N3550  X39.9165  Y49.8998 
N3555  Z0.1000 
N3560 G1  Z-1.0000  
N3565  Y63.1992   
N3570 G0  Z1.0000 
N3575  Y49.8998 
N3580  Z0.1000 
N3585 G1  Z-1.5000  
N3590  Y63.1992   
N3595 G0  Z1.0000 
N3600  X51.1395  Y63.8874 
N3605  Z0.1000 
N3610 G1  Z-1.0000  
N3615  X40.3066   
N3620 G0  Z1.0000 
N3625  X51.1395 
N3630  Z0.1000 
N3635 G1  Z-1.5000  
N3640  X40.3066   
N3645 G0  Z1.0000 
N3650  X50.8599  Y65.5807 
N3655  Z0.1000 
N3660 G1  Z-1.0000  
N3665  X41.2664   
N3670 G0  Z1.0000 
N3675  X50.8599 
N3680  Z0.1000 
N3685 G1  Z-1.5000  
N3690  X41.2664   
N3695 G0  Z1.0000 
N3700  X41.6098  Y53.0265 
N3705  Z0.1000 
N3710 G1  Z-1.0000  
N3715  Y66.1865   
N3720 G0  Z1.0000 
N3725  Y53.0265 
N3730  Z0.1000 
N3735 G1  Z-1.5000  
N3740  Y66.1865   
N3745 G0  Z1.0000 
N3750  X50.7202  Y66.4274 
N3755  Z0.1000 
N3760 G1  Z-1.0000  
N3765  X41.7464   
N3770 G0  Z1.0000 
N3775  X50.7202 
N3780  Z0.1000 
N3785 G1  Z-1.5000  
N3790  X41.7464   
N3795 G0  Z1.0000 
N3800  X43.3031  Y56.3761 
N3805  Z0.1000 
N3810 G1  Z-1.0000  
N3815  Y67.0389   
N3820 G0  Z1.0000 
N3825  Y56.3761 
N3830  Z0.1000 
N3835 G1  Z-1.5000  
N3840  Y67.0389   
N3845 G0  Z1.0000 
N3850  X44.1498  Y58.1769 
N3855  Z0.1000 
N3860 G1  Z-1.0000  
N3865  Y67.0389   
N3870 G0  Z1.0000 
N3875  Y58.1769 
N3880  Z0.1000 
N3885 G1  Z-1.5000  
N3890  Y67.0389   
N3895 G0  Z1.0000 
N3900  X44.9965  Y60.1103 
N3905  Z0.1000 
N3910 G1  Z-1.0000  
N3915  Y67.0389   
N3920 G0  Z1.0000 
N3925  Y60.1103 
N3930  Z0.1000 
N3935 G1  Z-1.5000  
N3940  Y67.0389   
N3945 G0  Z1.0000 
N3950  X45.8431  Y55.9674 
N3955  Z0.1000 
N3960 G1  Z-1.0000  
N3965  Y67.0389   
N3970 G0  Z1.0000 
N3975  Y55.9674 
N3980  Z0.1000 
N3985 G1  Z-1.5000  
N3990  Y67.0389   
N3995 G0  Z1.0000 
N4000  X46.6898  Y49.2873 
N4005  Z0.1000 
N4010 G1  Z-1.0000  
N4015  Y67.0389   
N4020 G0  Z1.0000 
N4025  Y49.2873 
N4030  Z0.1000 
N4035 G1  Z-1.5000  
N4040  Y67.0389   
N4045 G0  Z1.0000 
N4050  X47.5365  Y43.7341 
N4055  Z0.1000 
N4060 G1  Z-1.0000  
N4065  Y67.0389   
N4070 G0  Z1.0000 
N4075  Y43.7341 
N4080  Z0.1000 
N4085 G1  Z-1.5000  
N4090  Y67.0389   
N4095 G0  Z1.0000 
N4100  X48.3831  Y38.2679 
N4105  Z0.1000 
N4110 G1  Z-1.0000  
N4115  Y67.0389   
N4120 G0  Z1.0000 
N4125  Y38.2679 
N4130  Z0.1000 
N4135 G1  Z-1.5000  
N4140  Y67.0389   
N4145 G0  Z1.0000 
N4150  X49.2298  Y28.5046 
N4155  Z0.1000 
N4160 G1  Z-1.0000  
N4165  Y67.0389   
N4170 G0  Z1.0000 
N4175  Y28.5046 
N4180  Z0.1000 
N4185 G1  Z-1.5000  
N4190  Y67.0389   
N4195 G0  Z1.0000 
N4200  X57.1493  Y27.4807 
N4205  Z0.1000 
N4210 G1  Z-1.0000  
N4215  X50.0902   
N4220  X50.0765  Y67.0389   
N4225 G0  Z1.0000 
N4230  X57.1493  Y27.4807 
N4235  Z0.1000 
N4240 G1  Z-1.5000  
N4245  X50.0902   
N4250  X50.0765  Y67.0389   
N4255 G0  Z1.0000 
N4260  X50.9231  Y22.5302 
N4265  Z0.1000 
N4270 G1  Z-1.0000  
N4275  Y65.1980   
N4280 G0  Z1.0000 
N4285  Y22.5302 
N4290  Z0.1000 
N4295 G1  Z-1.5000  
N4300  Y65.1980   
N4305 G0  Z1.0000 
N4310  X40.7631  Y51.4417 
N4315  Z0.1000 
N4320 G1  Z-1.0000  
N4325  Y64.6928   
N4330  X50.9997  Y64.7341   
N4335 G0  Z1.0000 
N4340  X40.7631  Y51.4417 
N4345  Z0.1000 
N4350 G1  Z-1.5000  
N4355  Y64.6928   
N4360  X50.9997  Y64.7341   
N4365 G0  Z1.0000 
N4370  X51.6985  Y60.5007 
N4375  Z0.1000 
N4380 G1  Z-1.0000  
N4385  X45.4523   
N4390 G0  Z1.0000 
N4395  X51.6985 
N4400  Z0.1000 
N4405 G1  Z-1.5000  
N4410  X45.4523   
N4415 G0  Z1.0000 
N4420  X51.8383  Y59.6541 
N4425  Z0.1000 
N4430 G1  Z-1.0000  
N4435  X45.5099   
N4440 G0  Z1.0000 
N4445  X51.8383 
N4450  Z0.1000 
N4455 G1  Z-1.5000  
N4460  X45.5099   
N4465 G0  Z1.0000 
N4470  X51.9781  Y58.8074 
N4475  Z0.1000 
N4480 G1  Z-1.0000  
N4485  X45.5755   
N4490 G0  Z1.0000 
N4495  X51.9781 
N4500  Z0.1000 
N4505 G1  Z-1.5000  
N4510  X45.5755   
N4515 G0  Z1.0000 
N4520  X52.1178  Y57.9607 
N4525  Z0.1000 
N4530 G1  Z-1.0000  
N4535  X45.6481   
N4540 G0  Z1.0000 
N4545  X52.1178 
N4550  Z0.1000 
N4555 G1  Z-1.5000  
N4560  X45.6481   
N4565 G0  Z1.0000 
N4570  X52.2576  Y57.1141 
N4575  Z0.1000 
N4580 G1  Z-1.0000  
N4585  X45.7272   
N4590 G0  Z1.0000 
N4595  X52.2576 
N4600  Z0.1000 
N4605 G1  Z-1.5000  
N4610  X45.7272   
N4615 G0  Z1.0000 
N4620  X52.3973  Y56.2674 
N4625  Z0.1000 
N4630 G1  Z-1.0000  
N4635  X45.8121   
N4640 G0  Z1.0000 
N4645  X52.3973 
N4650  Z0.1000 
N4655 G1  Z-1.5000  
N4660  X45.8121   
N4665 G0  Z1.0000 
N4670  X52.5371  Y55.4207 
N4675  Z0.1000 
N4680 G1  Z-1.0000  
N4685  X45.9025   
N4690 G0  Z1.0000 
N4695  X52.5371 
N4700  Z0.1000 
N4705 G1  Z-1.5000  
N4710  X45.9025   
N4715 G0  Z1.0000 
N4720  X52.6769  Y54.5741 
N4725  Z0.1000 
N4730 G1  Z-1.0000  
N4735  X45.9980   
N4740 G0  Z1.0000 
N4745  X52.6769 
N4750  Z0.1000 
N4755 G1  Z-1.5000  
N4760  X45.9980   
N4765 G0  Z1.0000 
N4770  X52.8166  Y53.7274 
N4775  Z0.1000 
N4780 G1  Z-1.0000  
N4785  X46.0982   
N4790 G0  Z1.0000 
N4795  X52.8166 
N4800  Z0.1000 
N4805 G1  Z-1.5000  
N4810  X46.0982   
N4815 G0  Z1.0000 
N4820  X52.9564  Y52.8807 
N4825  Z0.1000 
N4830 G1  Z-1.0000  
N4835  X46.2028   
N4840 G0  Z1.0000 
N4845  X52.9564 
N4850  Z0.1000 
N4855 G1  Z-1.5000  
N4860  X46.2028   
N4865 G0  Z1.0000 
N4870  X53.0962  Y52.0341 
N4875  Z0.1000 
N4880 G1  Z-1.0000  
N4885  X46.3114   
N4890 G0  Z1.0000 
N4895  X53.0962 
N4900  Z0.1000 
N4905 G1  Z-1.5000  
N4910  X46.3114   
N4915 G0  Z1.0000 
N4920  X53.2359  Y51.1874 
N4925  Z0.1000 
N4930 G1  Z-1.0000  
N4935  X46.4239   
N4940 G0  Z1.0000 
N4945  X53.2359 
N4950  Z0.1000 
N4955 G1  Z-1.5000  
N4960  X46.4239   
N4965 G0  Z1.0000 
N4970  X53.3757  Y50.3407 
N4975  Z0.1000 
N4980 G1  Z-1.0000  
N4985  X46.5399   
N4990 G0  Z1.0000 
N4995  X53.3757 
N5000  Z0.1000 
N5005 G1  Z-1.5000  
N5010  X46.5399   
N5015 G0  Z1.0000 
N5020  X53.5154  Y49.4941 
N5025  Z0.1000 
N5030 G1  Z-1.0000  
N5035  X46.6595   
N5040 G0  Z1.0000 
N5045  X53.5154 
N5050  Z0.1000 
N5055 G1  Z-1.5000  
N5060  X46.6595   
N5065 G0  Z1.0000 
N5070  X53.6552  Y48.6474 
N5075  Z0.1000 
N5080 G1  Z-1.0000  
N5085  X46.7836   
N5090 G0  Z1.0000 
N5095  X53.6552 
N5100  Z0.1000 
N5105 G1  Z-1.5000  
N5110  X46.7836   
N5115 G0  Z1.0000 
N5120  X53.7950  Y47.8007 
N5125  Z0.1000 
N5130 G1  Z-1.0000  
N5135  X46.9077   
N5140 G0  Z1.0000 
N5145  X53.7950 
N5150  Z0.1000 
N5155 G1  Z-1.5000  
N5160  X46.9077   
N5165 G0  Z1.0000 
N5170  X53.9347  Y46.9541 
N5175  Z0.1000 
N5180 G1  Z-1.0000  
N5185  X47.0377   
N5190 G0  Z1.0000 
N5195  X53.9347 
N5200  Z0.1000 
N5205 G1  Z-1.5000  
N5210  X47.0377   
N5215 G0  Z1.0000 
N5220  X54.0745  Y46.1074 
N5225  Z0.1000 
N5230 G1  Z-1.0000  
N5235  X47.1688   
N5240 G0  Z1.0000 
N5245  X54.0745 
N5250  Z0.1000 
N5255 G1  Z-1.5000  
N5260  X47.1688   
N5265 G0  Z1.0000 
N5270  X54.2143  Y45.2607 
N5275  Z0.1000 
N5280 G1  Z-1.0000  
N5285  X47.3000   
N5290 G0  Z1.0000 
N5295  X54.2143 
N5300  Z0.1000 
N5305 G1  Z-1.5000  
N5310  X47.3000   
N5315 G0  Z1.0000 
N5320  X54.3540  Y44.4141 
N5325  Z0.1000 
N5330 G1  Z-1.0000  
N5335  X47.4311   
N5340 G0  Z1.0000 
N5345  X54.3540 
N5350  Z0.1000 
N5355 G1  Z-1.5000  
N5360  X47.4311   
N5365 G0  Z1.0000 
N5370  X54.4938  Y43.5674 
N5375  Z0.1000 
N5380 G1  Z-1.0000  
N5385  X47.5623   
N5390 G0  Z1.0000 
N5395  X54.4938 
N5400  Z0.1000 
N5405 G1  Z-1.5000  
N5410  X47.5623   
N5415 G0  Z1.0000 
N5420  X54.6336  Y42.7207 
N5425  Z0.1000 
N5430 G1  Z-1.0000  
N5435  X47.6934   
N5440 G0  Z1.0000 
N5445  X54.6336 
N5450  Z0.1000 
N5455 G1  Z-1.5000  
N5460  X47.6934   
N5465 G0  Z1.0000 
N5470  X54.7733  Y41.8741 
N5475  Z0.1000 
N5480 G1  Z-1.0000  
N5485  X47.8246   
N5490 G0  Z1.0000 
N5495  X54.7733 
N5500  Z0.1000 
N5505 G1  Z-1.5000  
N5510  X47.8246   
N5515 G0  Z1.0000 
N5520  X54.9131  Y41.0274 
N5525  Z0.1000 
N5530 G1  Z-1.0000  
N5535  X47.9557   
N5540 G0  Z1.0000 
N5545  X54.9131 
N5550  Z0.1000 
N5555 G1  Z-1.5000  
N5560  X47.9557   
N5565 G0  Z1.0000 
N5570  X55.0528  Y40.1807 
N5575  Z0.1000 
N5580 G1  Z-1.0000  
N5585  X48.0868   
N5590 G0  Z1.0000 
N5595  X55.0528 
N5600  Z0.1000 
N5605 G1  Z-1.5000  
N5610  X48.0868   
N5615 G0  Z1.0000 
N5620  X55.1926  Y39.3341 
N5625  Z0.1000 
N5630 G1  Z-1.0000  
N5635  X48.2180   
N5640 G0  Z1.0000 
N5645  X55.1926 
N5650  Z0.1000 
N5655 G1  Z-1.5000  
N5660  X48.2180   
N5665 G0  Z1.0000 
N5670  X55.3324  Y38.4874 
N5675  Z0.1000 
N5680 G1  Z-1.0000  
N5685  X48.3491   
N5690 G0  Z1.0000 
N5695  X55.3324 
N5700  Z0.1000 
N5705 G1  Z-1.5000  
N5710  X48.3491   
N5715 G0  Z1.0000 
N5720  X55.4721  Y37.6407 
N5725  Z0.1000 
N5730 G1  Z-1.0000  
N5735  X48.4803   
N5740 G0  Z1.0000 
N5745  X55.4721 
N5750  Z0.1000 
N5755 G1  Z-1.5000  
N5760  X48.4803   
N5765 G0  Z1.0000 
N5770  X55.6119  Y36.7941 
N5775  Z0.1000 
N5780 G1  Z-1.0000  
N5785  X48.6114   
N5790 G0  Z1.0000 
N5795  X55.6119 
N5800  Z0.1000 
N5805 G1  Z-1.5000  
N5810  X48.6114   
N5815 G0  Z1.0000 
N5820  X55.7517  Y35.9474 
N5825  Z0.1000 
N5830 G1  Z-1.0000  
N5835  X48.7425   
N5840 G0  Z1.0000 
N5845  X55.7517 
N5850  Z0.1000 
N5855 G1  Z-1.5000  
N5860  X48.7425   
N5865 G0  Z1.0000 
N5870  X55.8914  Y35.1007 
N5875  Z0.1000 
N5880 G1  Z-1.0000  
N5885  X48.8737   
N5890 G0  Z1.0000 
N5895  X55.8914 
N5900  Z0.1000 
N5905 G1  Z-1.5000  
N5910  X48.8737   
N5915 G0  Z1.0000 
N5920  X56.0312  Y34.2541 
N5925  Z0.1000 
N5930 G1  Z-1.0000  
N5935  X49.0048   
N5940 G0  Z1.0000 
N5945  X56.0312 
N5950  Z0.1000 
N5955 G1  Z-1.5000  
N5960  X49.0048   
N5965 G0  Z1.0000 
N5970  X48.3831  Y34.0780 
N5975  Z0.1000 
N5980 G1  Z-1.0000  
N5985  Y28.5046   
N5990 G0  Z1.0000 
N5995  Y34.0780 
N6000  Z0.1000 
N6005 G1  Z-1.5000  
N6010  Y28.5046   
N6015 G0  Z1.0000 
N6020  X47.5365  Y34.0780 
N6025  Z0.1000 
N6030 G1  Z-1.0000  
N6035  Y28.5046   
N6040 G0  Z1.0000 
N6045  Y34.0780 
N6050  Z0.1000 
N6055 G1  Z-1.5000  
N6060  Y28.5046   
N6065 G0  Z1.0000 
N6070  X46.6898  Y34.0780 
N6075  Z0.1000 
N6080 G1  Z-1.0000  
N6085  Y28.5046   
N6090 G0  Z1.0000 
N6095  Y34.0780 
N6100  Z0.1000 
N6105 G1  Z-1.5000  
N6110  Y28.5046   
N6115 G0  Z1.0000 
N6120  X45.8431  Y34.0780 
N6125  Z0.1000 
N6130 G1  Z-1.0000  
N6135  Y28.5046   
N6140 G0  Z1.0000 
N6145  Y34.0780 
N6150  Z0.1000 
N6155 G1  Z-1.5000  
N6160  Y28.5046   
N6165 G0  Z1.0000 
N6170  X44.9965  Y34.0780 
N6175  Z0.1000 
N6180 G1  Z-1.0000  
N6185  Y28.5046   
N6190 G0  Z1.0000 
N6195  Y34.0780 
N6200  Z0.1000 
N6205 G1  Z-1.5000  
N6210  Y28.5046   
N6215 G0  Z1.0000 
N6220  X44.1498  Y34.0780 
N6225  Z0.1000 
N6230 G1  Z-1.0000  
N6235  Y28.5046   
N6240 G0  Z1.0000 
N6245  Y34.0780 
N6250  Z0.1000 
N6255 G1  Z-1.5000  
N6260  Y28.5046   
N6265 G0  Z1.0000 
N6270  X43.3031  Y34.0780 
N6275  Z0.1000 
N6280 G1  Z-1.0000  
N6285  Y28.5046   
N6290 G0  Z1.0000 
N6295  Y34.0780 
N6300  Z0.1000 
N6305 G1  Z-1.5000  
N6310  Y28.5046   
N6315 G0  Z1.0000 
N6320  X42.4565  Y34.0780 
N6325  Z0.1000 
N6330 G1  Z-1.0000  
N6335  Y28.5046   
N6340 G0  Z1.0000 
N6345  Y34.0780 
N6350  Z0.1000 
N6355 G1  Z-1.5000  
N6360  Y28.5046   
N6365 G0  Z1.0000 
N6370  X41.6098  Y34.0780 
N6375  Z0.1000 
N6380 G1  Z-1.0000  
N6385  Y28.5046   
N6390 G0  Z1.0000 
N6395  Y34.0780 
N6400  Z0.1000 
N6405 G1  Z-1.5000  
N6410  Y28.5046   
N6415 G0  Z1.0000 
N6420  X40.7631  Y34.0780 
N6425  Z0.1000 
N6430 G1  Z-1.0000  
N6435  Y28.5046   
N6440 G0  Z1.0000 
N6445  Y34.0780 
N6450  Z0.1000 
N6455 G1  Z-1.5000  
N6460  Y28.5046   
N6465 G0  Z1.0000 
N6470  X39.9165  Y34.0780 
N6475  Z0.1000 
N6480 G1  Z-1.0000  
N6485  Y28.5046   
N6490 G0  Z1.0000 
N6495  Y34.0780 
N6500  Z0.1000 
N6505 G1  Z-1.5000  
N6510  Y28.5046   
N6515 G0  Z1.0000 
N6520  X39.0698  Y34.0780 
N6525  Z0.1000 
N6530 G1  Z-1.0000  
N6535  Y28.5046   
N6540 G0  Z1.0000 
N6545  Y34.0780 
N6550  Z0.1000 
N6555 G1  Z-1.5000  
N6560  Y28.5046   
N6565 G0  Z1.0000 
N6570  X38.2231  Y34.0780 
N6575  Z0.1000 
N6580 G1  Z-1.0000  
N6585  Y28.5046   
N6590 G0  Z1.0000 
N6595  Y34.0780 
N6600  Z0.1000 
N6605 G1  Z-1.5000  
N6610  Y28.5046   
N6615 G0  Z1.0000 
N6620  X37.3765  Y34.0780 
N6625  Z0.1000 
N6630 G1  Z-1.0000  
N6635  Y28.5046   
N6640 G0  Z1.0000 
N6645  Y34.0780 
N6650  Z0.1000 
N6655 G1  Z-1.5000  
N6660  Y28.5046   
N6665 G0  Z1.0000 
N6670  X36.5298  Y34.0780 
N6675  Z0.1000 
N6680 G1  Z-1.0000  
N6685  Y28.5046   
N6690 G0  Z1.0000 
N6695  Y34.0780 
N6700  Z0.1000 
N6705 G1  Z-1.5000  
N6710  Y28.5046   
N6715 G0  Z1.0000 
N6720  X35.6831  Y34.0780 
N6725  Z0.1000 
N6730 G1  Z-1.0000  
N6735  Y28.5046   
N6740 G0  Z1.0000 
N6745  Y34.0780 
N6750  Z0.1000 
N6755 G1  Z-1.5000  
N6760  Y28.5046   
N6765 G0  Z1.0000 
N6770  X34.8365  Y34.0780 
N6775  Z0.1000 
N6780 G1  Z-1.0000  
N6785  Y28.5046   
N6790 G0  Z1.0000 
N6795  Y34.0780 
N6800  Z0.1000 
N6805 G1  Z-1.5000  
N6810  Y28.5046   
N6815 G0  Z1.0000 
N6820  X33.9898  Y34.0780 
N6825  Z0.1000 
N6830 G1  Z-1.0000  
N6835  Y28.5046   
N6840 G0  Z1.0000 
N6845  Y34.0780 
N6850  Z0.1000 
N6855 G1  Z-1.5000  
N6860  Y28.5046   
N6865 G0  Z1.0000 
N6870  X33.1431  Y34.0780 
N6875  Z0.1000 
N6880 G1  Z-1.0000  
N6885  Y28.5046   
N6890 G0  Z1.0000 
N6895  Y34.0780 
N6900  Z0.1000 
N6905 G1  Z-1.5000  
N6910  Y28.5046   
N6915 G0  Z1.0000 
N6920  X32.2965  Y34.0780 
N6925  Z0.1000 
N6930 G1  Z-1.0000  
N6935  Y28.5046   
N6940 G0  Z1.0000 
N6945  Y34.0780 
N6950  Z0.1000 
N6955 G1  Z-1.5000  
N6960  Y28.5046   
N6965 G0  Z1.0000 
N6970  X31.4498  Y34.0780 
N6975  Z0.1000 
N6980 G1  Z-1.0000  
N6985  Y28.5046   
N6990 G0  Z1.0000 
N6995  Y34.0780 
N7000  Z0.1000 
N7005 G1  Z-1.5000  
N7010  Y28.5046   
N7015 G0  Z1.0000 
N7020  X30.6031  Y46.7692 
N7025  Z0.1000 
N7030 G1  Z-1.0000  
N7035  Y28.5046   
N7040 G0  Z1.0000 
N7045  Y46.7692 
N7050  Z0.1000 
N7055 G1  Z-1.5000  
N7060  Y28.5046   
N7065 G0  Z1.0000 
N7070  X37.3765  Y58.7183 
N7075  Z0.1000 
N7080 G1  Z-1.0000  
N7085  Y45.3257   
N7090  X29.7481  Y45.2607   
N7095  X29.7565  Y28.5046   
N7100 G0  Z1.0000 
N7105  X37.3765  Y58.7183 
N7110  Z0.1000 
N7115 G1  Z-1.5000  
N7120  Y45.3257   
N7125  X29.7481  Y45.2607   
N7130  X29.7565  Y28.5046   
N7135 G0  Z1.0000 
N7140  X28.9098  Y43.7819 
N7145  Z0.1000 
N7150 G1  Z-1.0000  
N7155  Y28.5046   
N7160 G0  Z1.0000 
N7165  Y43.7819 
N7170  Z0.1000 
N7175 G1  Z-1.5000  
N7180  Y28.5046   
N7185 G0  Z1.0000 
N7190  X28.0631  Y42.2883 
N7195  Z0.1000 
N7200 G1  Z-1.0000  
N7205  Y28.5046   
N7210 G0  Z1.0000 
N7215  Y42.2883 
N7220  Z0.1000 
N7225 G1  Z-1.5000  
N7230  Y28.5046   
N7235 G0  Z1.0000 
N7240  X27.2165  Y40.7946 
N7245  Z0.1000 
N7250 G1  Z-1.0000  
N7255  Y27.0434   
N7260 G0  Z1.0000 
N7265  Y40.7946 
N7270  Z0.1000 
N7275 G1  Z-1.5000  
N7280  Y27.0434   
N7285 G0  Z1.0000 
N7290  X18.7498  Y12.9284 
N7295  Z0.1000 
N7300 G1  Z-1.0000  
N7305  Y25.8583   
N7310  X26.5170  Y25.7874   
N7315 G0  Z1.0000 
N7320  X18.7498  Y12.9284 
N7325  Z0.1000 
N7330 G1  Z-1.5000  
N7335  Y25.8583   
N7340  X26.5170  Y25.7874   
N7345 G0  Z1.0000 
N7350  X34.0493  Y39.3341 
N7355  Z0.1000 
N7360 G1  Z-1.0000  
N7365  X26.3885   
N7370  X26.3698  Y25.5230   
N7375 G0  Z1.0000 
N7380  X34.0493  Y39.3341 
N7385  Z0.1000 
N7390 G1  Z-1.5000  
N7395  X26.3885   
N7400  X26.3698  Y25.5230   
N7405 G0  Z1.0000 
N7410  X17.7498  Y24.0941 
N7415  Z0.1000 
N7420 G1  Z-1.0000  
N7425  X25.5741   
N7430 G0  Z1.0000 
N7435  X17.7498 
N7440  Z0.1000 
N7445 G1  Z-1.5000  
N7450  X25.5741   
N7455 G0  Z1.0000 
N7460  X25.5231  Y37.8074 
N7465  Z0.1000 
N7470 G1  Z-1.0000  
N7475  Y24.0026   
N7480 G0  Z1.0000 
N7485  Y37.8074 
N7490  Z0.1000 
N7495 G1  Z-1.5000  
N7500  Y24.0026   
N7505 G0  Z1.0000 
N7510  X23.8298  Y34.8201 
N7515  Z0.1000 
N7520 G1  Z-1.0000  
N7525  Y20.9618   
N7530 G0  Z1.0000 
N7535  Y34.8201 
N7540  Z0.1000 
N7545 G1  Z-1.5000  
N7550  Y20.9618   
N7555 G0  Z1.0000 
N7560  X15.3631  Y12.9284 
N7565  Z0.1000 
N7570 G1  Z-1.0000  
N7575  Y19.8837   
N7580  X23.2167  Y19.8607   
N7585 G0  Z1.0000 
N7590  X15.3631  Y12.9284 
N7595  Z0.1000 
N7600 G1  Z-1.5000  
N7605  Y19.8837   
N7610  X23.2167  Y19.8607   
N7615 G0  Z1.0000 
N7620  X56.1710  Y33.4074 
N7625  Z0.1000 
N7630 G1  Z-1.0000  
N7635  X23.0290   
N7640  X22.9831  Y19.4414   
N7645 G0  Z1.0000 
N7650  X56.1710  Y33.4074 
N7655  Z0.1000 
N7660 G1  Z-1.5000  
N7665  X23.0290   
N7670  X22.9831  Y19.4414   
N7675 G0  Z1.0000 
N7680  X22.1365  Y31.8328 
N7685  Z0.1000 
N7690 G1  Z-1.0000  
N7695  Y17.9210   
N7700 G0  Z1.0000 
N7705  Y31.8328 
N7710  Z0.1000 
N7715 G1  Z-1.5000  
N7720  Y17.9210   
N7725 G0  Z1.0000 
N7730  X20.7148  Y17.0491 
N7735  Z0.1000 
N7740 G1  Z-1.0000  
N7745  Y16.4741   
N7750  Y17.0491   
N7755 G0  Z0.1000 
N7760 G1  Z-1.5000  
N7765  Y16.4741   
N7770  Y17.0491   
N7775 G0  Z1.0000 
N7780  X20.4431  Y28.8455 
N7785  Z0.1000 
N7790 G1  Z-1.0000  
N7795  Y14.8802   
N7800 G0  Z1.0000 
N7805  Y28.8455 
N7810  Z0.1000 
N7815 G1  Z-1.5000  
N7820  Y14.8802   
N7825 G0  Z1.0000 
N7830  X12.4705  Y14.7807 
N7835  Z0.1000 
N7840 G1  Z-1.0000  
N7845  X20.3877   
N7850 G0  Z1.0000 
N7855  X12.4705 
N7860  Z0.1000 
N7865 G1  Z-1.5000  
N7870  X20.3877   
N7875 G0  Z1.0000 
N7880  X11.9765  Y12.9284 
N7885  Z0.1000 
N7890 G1  Z-1.0000  
N7895  Y13.9091   
N7900  X19.9163  Y13.9341   
N7905 G0  Z1.0000 
N7910  X11.9765  Y12.9284 
N7915  Z0.1000 
N7920 G1  Z-1.5000  
N7925  Y13.9091   
N7930  X19.9163  Y13.9341   
N7935 G0  Z1.0000 
N7940  X17.0565  Y22.8710 
N7945  Z0.1000 
N7950 G1  Z-1.0000  
N7955  Y12.9284   
N7960 G0  Z1.0000 
N7965  Y22.8710 
N7970  Z0.1000 
N7975 G1  Z-1.5000  
N7980  Y12.9284   
N7985 G0  Z1.0000 
N7990  X13.6698  Y16.8964 
N7995  Z0.1000 
N8000 G1  Z-1.0000  
N8005  Y12.9284   
N8010 G0  Z1.0000 
N8015  Y16.8964 
N8020  Z0.1000 
N8025 G1  Z-1.5000  
N8030  Y12.9284   
N8035 G0  Z1.0000 
N8040  X31.8773  Y34.2383 
N8045  Z0.1000 
N8050 G1  Z-1.0000  
N8055  X31.3746  Y34.5175   
N8060  X31.1306  Y34.0780   
N8065  X49.0321   
N8070  X46.9282  Y47.6610   
N8075  X46.1162  Y53.0499   
N8080  X45.6117  Y57.5406   
N8085  X45.4149  Y61.1332   
N8090  X44.1845  Y58.0327   
N8095  X42.3882  Y54.3540   
N8100  X40.0260  Y50.0971   
N8105  X31.3746  Y34.5175   
N8110  X31.8773  Y34.2383   
N8115 G0  Z0.1000 
N8120 G1  Z-1.5000  
N8125  X31.3746  Y34.5175   
N8130  X31.1306  Y34.0780   
N8135  X49.0321   
N8140  X46.9282  Y47.6610   
N8145  X46.1162  Y53.0499   
N8150  X45.6117  Y57.5406   
N8155  X45.4149  Y61.1332   
N8160  X44.1845  Y58.0327   
N8165  X42.3882  Y54.3540   
N8170  X40.0260  Y50.0971   
N8175  X31.3746  Y34.5175   
N8180  X31.8773  Y34.2383   
N8185 G0  Z1.0000 
N8190  X57.0095  Y28.3274 
N8195  Z0.1000 
N8200 G1  Z-1.0000  
N8205  X49.9478   
N8210 G0  Z1.0000 
N8215  X57.0095 
N8220  Z0.1000 
N8225 G1  Z-1.5000  
N8230  X49.9478   
N8235 G0  Z1.0000 
N8240  X57.2891  Y26.6341 
N8245  Z0.1000 
N8250 G1  Z-1.0000  
N8255  X50.2326   
N8260 G0  Z1.0000 
N8265  X57.2891 
N8270  Z0.1000 
N8275 G1  Z-1.5000  
N8280  X50.2326   
N8285 G0  Z1.0000 
N8290  X57.4288  Y25.7874 
N8295  Z0.1000 
N8300 G1  Z-1.0000  
N8305  X50.3751   
N8310 G0  Z1.0000 
N8315  X57.4288 
N8320  Z0.1000 
N8325 G1  Z-1.5000  
N8330  X50.3751   
N8335 G0  Z1.0000 
N8340  X57.5686  Y24.9407 
N8345  Z0.1000 
N8350 G1  Z-1.0000  
N8355  X50.5175   
N8360 G0  Z1.0000 
N8365  X57.5686 
N8370  Z0.1000 
N8375 G1  Z-1.5000  
N8380  X50.5175   
N8385 G0  Z1.0000 
N8390  X57.8481  Y23.2474 
N8395  Z0.1000 
N8400 G1  Z-1.0000  
N8405  X50.8024   
N8410 G0  Z1.0000 
N8415  X57.8481 
N8420  Z0.1000 
N8425 G1  Z-1.5000  
N8430  X50.8024   
N8435 G0  Z1.0000 
N8440  X57.9879  Y22.4007 
N8445  Z0.1000 
N8450 G1  Z-1.0000  
N8455  X50.9449   
N8460 G0  Z1.0000 
N8465  X57.9879 
N8470  Z0.1000 
N8475 G1  Z-1.5000  
N8480  X50.9449   
N8485 G0  Z1.0000 
N8490  X58.1276  Y21.5541 
N8495  Z0.1000 
N8500 G1  Z-1.0000  
N8505  X51.0873   
N8510 G0  Z1.0000 
N8515  X58.1276 
N8520  Z0.1000 
N8525 G1  Z-1.5000  
N8530  X51.0873   
N8535 G0  Z1.0000 
N8540  X58.2674  Y20.7074 
N8545  Z0.1000 
N8550 G1  Z-1.0000  
N8555  X51.2298   
N8560 G0  Z1.0000 
N8565  X58.2674 
N8570  Z0.1000 
N8575 G1  Z-1.5000  
N8580  X51.2298   
N8585 G0  Z1.0000 
N8590  X58.4072  Y19.8607 
N8595  Z0.1000 
N8600 G1  Z-1.0000  
N8605  X51.3722   
N8610 G0  Z1.0000 
N8615  X58.4072 
N8620  Z0.1000 
N8625 G1  Z-1.5000  
N8630  X51.3722   
N8635 G0  Z1.0000 
N8640  X58.6867  Y18.1674 
N8645  Z0.1000 
N8650 G1  Z-1.0000  
N8655  X51.6571   
N8660 G0  Z1.0000 
N8665  X58.6867 
N8670  Z0.1000 
N8675 G1  Z-1.5000  
N8680  X51.6571   
N8685 G0  Z1.0000 
N8690  X51.7698  Y60.0691 
N8695  Z0.1000 
N8700 G1  Z-1.0000  
N8705  Y17.4979   
N8710 G0  Z1.0000 
N8715  Y60.0691 
N8720  Z0.1000 
N8725 G1  Z-1.5000  
N8730  Y17.4979   
N8735 G0  Z1.0000 
N8740  X58.8265  Y17.3207 
N8745  Z0.1000 
N8750 G1  Z-1.0000  
N8755  X51.7996   
N8760 G0  Z1.0000 
N8765  X58.8265 
N8770  Z0.1000 
N8775 G1  Z-1.5000  
N8780  X51.7996   
N8785 G0  Z1.0000 
N8790  X58.9662  Y16.4741 
N8795  Z0.1000 
N8800 G1  Z-1.0000  
N8805  X51.9420   
N8810 G0  Z1.0000 
N8815  X58.9662 
N8820  Z0.1000 
N8825 G1  Z-1.5000  
N8830  X51.9420   
N8835 G0  Z1.0000 
N8840  X59.1060  Y15.6274 
N8845  Z0.1000 
N8850 G1  Z-1.0000  
N8855  X52.0845   
N8860 G0  Z1.0000 
N8865  X59.1060 
N8870  Z0.1000 
N8875 G1  Z-1.5000  
N8880  X52.0845   
N8885 G0  Z1.0000 
N8890  X59.2458  Y14.7807 
N8895  Z0.1000 
N8900 G1  Z-1.0000  
N8905  X52.2269   
N8910 G0  Z1.0000 
N8915  X59.2458 
N8920  Z0.1000 
N8925 G1  Z-1.5000  
N8930  X52.2269   
N8935 G0  Z1.0000 
N8940  X59.5253  Y13.0874 
N8945  Z0.1000 
N8950 G1  Z-1.0000  
N8955  X52.5118   
N8960 G0  Z1.0000 
N8965  X59.5253 
N8970  Z0.1000 
N8975 G1  Z-1.5000  
N8980  X52.5118   
N8985 G0  Z1.0000 
N8990  X52.6165  Y54.9401 
N8995  Z0.1000 
N9000 G1  Z-1.0000  
N9005  Y12.9284   
N9010 G0  Z1.0000 
N9015  Y54.9401 
N9020  Z0.1000 
N9025 G1  Z-1.5000  
N9030  Y12.9284   
N9035 G0  Z1.0000 
N9040  X53.4631  Y49.8111 
N9045  Z0.1000 
N9050 G1  Z-1.0000  
N9055  Y12.9284   
N9060 G0  Z1.0000 
N9065  Y49.8111 
N9070  Z0.1000 
N9075 G1  Z-1.5000  
N9080  Y12.9284   
N9085 G0  Z1.0000 
N9090  X55.1565  Y39.5531 
N9095  Z0.1000 
N9100 G1  Z-1.0000  
N9105  Y12.9284   
N9110 G0  Z1.0000 
N9115  Y39.5531 
N9120  Z0.1000 
N9125 G1  Z-1.5000  
N9130  Y12.9284   
N9135 G0  Z1.0000 
N9140  X56.8498  Y29.2952 
N9145  Z0.1000 
N9150 G1  Z-1.0000  
N9155  Y12.9284   
N9160 G0  Z1.0000 
N9165  Y29.2952 
N9170  Z0.1000 
N9175 G1  Z-1.5000  
N9180  Y12.9284   
N9185 G0  Z1.0000 
N9190  X50.6600  Y24.0941 
N9195  Z0.1000 
N9200 G1  Z-1.0000  
N9205  X57.7084   
N9210  X57.6965  Y12.9284   
N9215 G0  Z1.0000 
N9220  X50.6600  Y24.0941 
N9225  Z0.1000 
N9230 G1  Z-1.5000  
N9235  X57.7084   
N9240  X57.6965  Y12.9284   
N9245 G0  Z1.0000 
N9250  X51.5147  Y19.0141 
N9255  Z0.1000 
N9260 G1  Z-1.0000  
N9265  X58.5469   
N9270  X58.5431  Y12.9284   
N9275 G0  Z1.0000 
N9280  X51.5147  Y19.0141 
N9285  Z0.1000 
N9290 G1  Z-1.5000  
N9295  X58.5469   
N9300  X58.5431  Y12.9284   
N9305 G0  Z1.0000 
N9310  X52.3694  Y13.9341 
N9315  Z0.1000 
N9320 G1  Z-1.0000  
N9325  X59.3855   
N9330  X59.3898  Y12.9284   
N9335 G0  Z1.0000 
N9340  X52.3694  Y13.9341 
N9345  Z0.1000 
N9350 G1  Z-1.5000  
N9355  X59.3855   
N9360  X59.3898  Y12.9284   
N9365 G0  Z1.0000 
N9370  X59.6583  Y32.3179 
N9375  Z0.1000 
N9380 G1  Z-1.0000  
N9385  X65.4648   
N9390  X65.4594  Y23.5415   
N9395 G0  Z1.0000 
N9400  X59.6583  Y32.3179 
N9405  Z0.1000 
N9410 G1  Z-1.5000  
N9415  X65.4648   
N9420  X65.4594  Y23.5415   
N9425 G0  Z1.0000 
N9430  X87.2776  Y23.8512 
N9435  Z0.1000 
N9440 G1  Z-1.0000  
N9445  X64.9239   
N9450 G0  Z1.0000 
N9455  X87.2776 
N9460  Z0.1000 
N9465 G1  Z-1.5000  
N9470  X64.9239   
N9475 G0  Z1.0000 
N9480  X64.6128  Y36.5851 
N9485  Z0.1000 
N9490 G1  Z-1.0000  
N9495  Y24.0441   
N9500 G0  Z1.0000 
N9505  Y36.5851 
N9510  Z0.1000 
N9515 G1  Z-1.5000  
N9520  Y24.0441   
N9525 G0  Z1.0000 
N9530  X63.7661  Y36.5058 
N9535  Z0.1000 
N9540 G1  Z-1.0000  
N9545  Y24.6282   
N9550  X63.1911   
N9555 G0  Z1.0000 
N9560  X63.7661  Y36.5058 
N9565  Z0.1000 
N9570 G1  Z-1.5000  
N9575  Y24.6282   
N9580  X63.1911   
N9585 G0  Z1.0000 
N9590  X62.9194  Y36.4264 
N9595  Z0.1000 
N9600 G1  Z-1.0000  
N9605  Y25.3589   
N9610 G0  Z1.0000 
N9615  Y36.4264 
N9620  Z0.1000 
N9625 G1  Z-1.5000  
N9630  Y25.3589   
N9635 G0  Z1.0000 
N9640  X89.5128  Y25.5445 
N9645  Z0.1000 
N9650 G1  Z-1.0000  
N9655  X62.7330   
N9660 G0  Z1.0000 
N9665  X89.5128 
N9670  Z0.1000 
N9675 G1  Z-1.5000  
N9680  X62.7330   
N9685 G0  Z1.0000 
N9690  X72.5660  Y26.3912 
N9695  Z0.1000 
N9700 G1  Z-1.0000  
N9705  X62.0045   
N9710  X61.4295   
N9715 G0  Z1.0000 
N9720  X72.5660 
N9725  Z0.1000 
N9730 G1  Z-1.5000  
N9735  X62.0045   
N9740  X61.4295   
N9745 G0  Z1.0000 
N9750  X69.9414  Y27.2379 
N9755  Z0.1000 
N9760 G1  Z-1.0000  
N9765  X61.4232   
N9770 G0  Z1.0000 
N9775  X69.9414 
N9780  Z0.1000 
N9785 G1  Z-1.5000  
N9790  X61.4232   
N9795 G0  Z1.0000 
N9800  X61.2261  Y36.2676 
N9805  Z0.1000 
N9810 G1  Z-1.0000  
N9815  Y27.5730   
N9820 G0  Z1.0000 
N9825  Y36.2676 
N9830  Z0.1000 
N9835 G1  Z-1.5000  
N9840  Y27.5730   
N9845 G0  Z1.0000 
N9850  X68.4215  Y28.0845 
N9855  Z0.1000 
N9860 G1  Z-1.0000  
N9865  X60.9557   
N9870 G0  Z1.0000 
N9875  X68.4215 
N9880  Z0.1000 
N9885 G1  Z-1.5000  
N9890  X60.9557   
N9895 G0  Z1.0000 
N9900  X67.3924  Y28.9312 
N9905  Z0.1000 
N9910 G1  Z-1.0000  
N9915  X60.5733   
N9920 G0  Z1.0000 
N9925  X67.3924 
N9930  Z0.1000 
N9935 G1  Z-1.5000  
N9940  X60.5733   
N9945 G0  Z1.0000 
N9950  X66.6666  Y29.7779 
N9955  Z0.1000 
N9960 G1  Z-1.0000  
N9965  X60.2646   
N9970 G0  Z1.0000 
N9975  X66.6666 
N9980  Z0.1000 
N9985 G1  Z-1.5000  
N9990  X60.2646   
N9995 G0  Z1.0000 
N10000  X66.1475  Y30.6245 
N10005  Z0.1000 
N10010 G1  Z-1.0000  
N10015  X60.0145   
N10020 G0  Z1.0000 
N10025  X66.1475 
N10030  Z0.1000 
N10035 G1  Z-1.5000  
N10040  X60.0145   
N10045 G0  Z1.0000 
N10050  X65.7570  Y31.4712 
N10055  Z0.1000 
N10060 G1  Z-1.0000  
N10065  X59.8147   
N10070 G0  Z1.0000 
N10075  X65.7570 
N10080  Z0.1000 
N10085 G1  Z-1.5000  
N10090  X59.8147   
N10095 G0  Z1.0000 
N10100  X65.1359  Y34.0112 
N10105  Z0.1000 
N10110 G1  Z-1.0000  
N10115  X59.4555   
N10120 G0  Z1.0000 
N10125  X65.1359 
N10130  Z0.1000 
N10135 G1  Z-1.5000  
N10140  X59.4555   
N10145 G0  Z1.0000 
N10150  X65.0828  Y34.8579 
N10155  Z0.1000 
N10160 G1  Z-1.0000  
N10165  X59.4023   
N10170 G0  Z1.0000 
N10175  X65.0828 
N10180  Z0.1000 
N10185 G1  Z-1.5000  
N10190  X59.4023   
N10195 G0  Z1.0000 
N10200  X65.1029  Y35.7045 
N10205  Z0.1000 
N10210 G1  Z-1.0000  
N10215  X59.3753   
N10220 G0  Z1.0000 
N10225  X65.1029 
N10230  Z0.1000 
N10235 G1  Z-1.5000  
N10240  X59.3753   
N10245 G0  Z1.0000 
N10250  X65.2607  Y33.1645 
N10255  Z0.1000 
N10260 G1  Z-1.0000  
N10265  X59.5399   
N10270  X59.5328  Y36.1089   
N10275 G0  Z1.0000 
N10280  X65.2607  Y33.1645 
N10285  Z0.1000 
N10290 G1  Z-1.5000  
N10295  X59.5399   
N10300  X59.5328  Y36.1089   
N10305 G0  Z1.0000 
N10310  X60.3794  Y29.4439 
N10315  Z0.1000 
N10320 G1  Z-1.0000  
N10325  Y36.1883   
N10330 G0  Z1.0000 
N10335  Y29.4439 
N10340  Z0.1000 
N10345 G1  Z-1.5000  
N10350  Y36.1883   
N10355 G0  Z1.0000 
N10360  X61.4978  Y26.3014 
N10365  Z0.1000 
N10370 G1  Z-1.0000  
N10375  X62.0728   
N10380  Y36.3470   
N10385 G0  Z1.0000 
N10390  X61.4978  Y26.3014 
N10395  Z0.1000 
N10400 G1  Z-1.5000  
N10405  X62.0728   
N10410  Y36.3470   
N10415 G0  Z1.0000 
N10420  X64.2507  Y36.5512 
N10425  Z0.1000 
N10430 G1  Z-1.0000  
N10435  X65.1361   
N10440 G0  Z1.0000 
N10445  X64.2507 
N10450  Z0.1000 
N10455 G1  Z-1.5000  
N10460  X65.1361   
N10465 G0  Z1.0000 
N10470  X56.0031  Y12.9284 
N10475  Z0.1000 
N10480 G1  Z-1.0000  
N10485  Y34.4242   
N10490 G0  Z1.0000 
N10495  Y12.9284 
N10500  Z0.1000 
N10505 G1  Z-1.5000  
N10510  Y34.4242   
N10515 G0  Z1.0000 
N10520  X54.3098  Y12.9284 
N10525  Z0.1000 
N10530 G1  Z-1.0000  
N10535  Y44.6821   
N10540 G0  Z1.0000 
N10545  Y12.9284 
N10550  Z0.1000 
N10555 G1  Z-1.5000  
N10560  Y44.6821   
N10565 G0  Z1.0000 
N10570  X72.6543  Y50.9445 
N10575  Z0.1000 
N10580 G1  Z-1.0000  
N10585  X65.5942   
N10590 G0  Z1.0000 
N10595  X72.6543 
N10600  Z0.1000 
N10605 G1  Z-1.5000  
N10610  X65.5942   
N10615 G0  Z1.0000 
N10620  X71.7534  Y51.7912 
N10625  Z0.1000 
N10630 G1  Z-1.0000  
N10635  X65.2867   
N10640 G0  Z1.0000 
N10645  X71.7534 
N10650  Z0.1000 
N10655 G1  Z-1.5000  
N10660  X65.2867   
N10665 G0  Z1.0000 
N10670  X71.1565  Y52.6379 
N10675  Z0.1000 
N10680 G1  Z-1.0000  
N10685  X65.0689   
N10690 G0  Z1.0000 
N10695  X71.1565 
N10700  Z0.1000 
N10705 G1  Z-1.5000  
N10710  X65.0689   
N10715 G0  Z1.0000 
N10720  X70.7846  Y53.4845 
N10725  Z0.1000 
N10730 G1  Z-1.0000  
N10735  X64.9256   
N10740 G0  Z1.0000 
N10745  X70.7846 
N10750  Z0.1000 
N10755 G1  Z-1.5000  
N10760  X64.9256   
N10765 G0  Z1.0000 
N10770  X70.5829  Y54.3312 
N10775  Z0.1000 
N10780 G1  Z-1.0000  
N10785  X64.8538   
N10790 G0  Z1.0000 
N10795  X70.5829 
N10800  Z0.1000 
N10805 G1  Z-1.5000  
N10810  X64.8538   
N10815 G0  Z1.0000 
N10820  X70.5688  Y56.0245 
N10825  Z0.1000 
N10830 G1  Z-1.0000  
N10835  X64.8930   
N10840 G0  Z1.0000 
N10845  X70.5688 
N10850  Z0.1000 
N10855 G1  Z-1.5000  
N10860  X64.8930   
N10865 G0  Z1.0000 
N10870  X70.7354  Y56.8712 
N10875  Z0.1000 
N10880 G1  Z-1.0000  
N10885  X65.0063   
N10890 G0  Z1.0000 
N10895  X70.7354 
N10900  Z0.1000 
N10905 G1  Z-1.5000  
N10910  X65.0063   
N10915 G0  Z1.0000 
N10920  X71.0531  Y57.7179 
N10925  Z0.1000 
N10930 G1  Z-1.0000  
N10935  X65.1884   
N10940 G0  Z1.0000 
N10945  X71.0531 
N10950  Z0.1000 
N10955 G1  Z-1.5000  
N10960  X65.1884   
N10965 G0  Z1.0000 
N10970  X72.3512  Y59.4112 
N10975  Z0.1000 
N10980 G1  Z-1.0000  
N10985  X65.7894   
N10990 G0  Z1.0000 
N10995  X72.3512 
N11000  Z0.1000 
N11005 G1  Z-1.5000  
N11010  X65.7894   
N11015 G0  Z1.0000 
N11020  X73.5247  Y60.2579 
N11025  Z0.1000 
N11030 G1  Z-1.0000  
N11035  X66.2207   
N11040 G0  Z1.0000 
N11045  X73.5247 
N11050  Z0.1000 
N11055 G1  Z-1.5000  
N11060  X66.2207   
N11065 G0  Z1.0000 
N11070  X75.4196  Y61.1045 
N11075  Z0.1000 
N11080 G1  Z-1.0000  
N11085  X66.7534   
N11090 G0  Z1.0000 
N11095  X75.4196 
N11100  Z0.1000 
N11105 G1  Z-1.5000  
N11110  X66.7534   
N11115 G0  Z1.0000 
N11120  X79.0061  Y41.3915 
N11125  Z0.1000 
N11130 G1  Z-1.0000  
N11135  Y47.5914   
N11140  X67.9429  Y47.5579   
N11145  X68.5179   
N11150  X67.9994  Y47.5015   
N11155  Y62.5790   
N11160 G0  Z1.0000 
N11165  X79.0061  Y41.3915 
N11170  Z0.1000 
N11175 G1  Z-1.5000  
N11180  Y47.5914   
N11185  X67.9429  Y47.5579   
N11190  X68.5179   
N11195  X67.9994  Y47.5015   
N11200  Y62.5790   
N11205 G0  Z1.0000 
N11210  X92.4544  Y62.7979 
N11215  Z0.1000 
N11220 G1  Z-1.0000  
N11225  X68.2313   
N11230 G0  Z1.0000 
N11235  X92.4544 
N11240  Z0.1000 
N11245 G1  Z-1.5000  
N11250  X68.2313   
N11255 G0  Z1.0000 
N11260  X91.3786  Y63.6445 
N11265  Z0.1000 
N11270 G1  Z-1.0000  
N11275  X69.2700   
N11280 G0  Z1.0000 
N11285  X91.3786 
N11290  Z0.1000 
N11295 G1  Z-1.5000  
N11300  X69.2700   
N11305 G0  Z1.0000 
N11310  X69.6928  Y46.0676 
N11315  Z0.1000 
N11320 G1  Z-1.0000  
N11325  Y63.9366   
N11330 G0  Z1.0000 
N11335  Y46.0676 
N11340  Z0.1000 
N11345 G1  Z-1.5000  
N11350  Y63.9366   
N11355 G0  Z1.0000 
N11360  X72.2328  Y59.3047 
N11365  Z0.1000 
N11370 G1  Z-1.0000  
N11375  Y65.2384   
N11380 G0  Z1.0000 
N11385  Y59.3047 
N11390  Z0.1000 
N11395 G1  Z-1.5000  
N11400  Y65.2384   
N11405 G0  Z1.0000 
N11410  X88.2048  Y65.3379 
N11415  Z0.1000 
N11420 G1  Z-1.0000  
N11425  X72.4906   
N11430 G0  Z1.0000 
N11435  X88.2048 
N11440  Z0.1000 
N11445 G1  Z-1.5000  
N11450  X72.4906   
N11455 G0  Z1.0000 
N11460  X73.9261  Y60.4814 
N11465  Z0.1000 
N11470 G1  Z-1.0000  
N11475  Y65.8151   
N11480 G0  Z1.0000 
N11485  Y60.4814 
N11490  Z0.1000 
N11495 G1  Z-1.5000  
N11500  Y65.8151   
N11505 G0  Z1.0000 
N11510  X85.2819  Y66.1845 
N11515  Z0.1000 
N11520 G1  Z-1.0000  
N11525  X75.4273   
N11530 G0  Z1.0000 
N11535  X85.2819 
N11540  Z0.1000 
N11545 G1  Z-1.5000  
N11550  X75.4273   
N11555 G0  Z1.0000 
N11560  X75.6194  Y61.1675 
N11565  Z0.1000 
N11570 G1  Z-1.0000  
N11575  Y66.2223   
N11580 G0  Z1.0000 
N11585  Y61.1675 
N11590  Z0.1000 
N11595 G1  Z-1.5000  
N11600  Y66.2223   
N11605 G0  Z1.0000 
N11610  X77.3128  Y61.5521 
N11615  Z0.1000 
N11620 G1  Z-1.0000  
N11625  Y66.4846   
N11630 G0  Z1.0000 
N11635  Y61.5521 
N11640  Z0.1000 
N11645 G1  Z-1.5000  
N11650  Y66.4846   
N11655 G0  Z1.0000 
N11660  X79.0061  Y61.7261 
N11665  Z0.1000 
N11670 G1  Z-1.0000  
N11675  Y66.6211   
N11680 G0  Z1.0000 
N11685  Y61.7261 
N11690  Z0.1000 
N11695 G1  Z-1.5000  
N11700  Y66.6211   
N11705 G0  Z1.0000 
N11710  X80.6994  Y61.7416 
N11715  Z0.1000 
N11720 G1  Z-1.0000  
N11725  Y66.6459   
N11730 G0  Z1.0000 
N11735  Y61.7416 
N11740  Z0.1000 
N11745 G1  Z-1.5000  
N11750  Y66.6459   
N11755 G0  Z1.0000 
N11760  X82.3928  Y61.5979 
N11765  Z0.1000 
N11770 G1  Z-1.0000  
N11775  Y66.5728   
N11780 G0  Z1.0000 
N11785  Y61.5979 
N11790  Z0.1000 
N11795 G1  Z-1.5000  
N11800  Y66.5728   
N11805 G0  Z1.0000 
N11810  X84.0861  Y61.2607 
N11815  Z0.1000 
N11820 G1  Z-1.0000  
N11825  Y66.3913   
N11830 G0  Z1.0000 
N11835  Y61.2607 
N11840  Z0.1000 
N11845 G1  Z-1.5000  
N11850  Y66.3913   
N11855 G0  Z1.0000 
N11860  X85.7794  Y60.6822 
N11865  Z0.1000 
N11870 G1  Z-1.0000  
N11875  Y66.0780   
N11880 G0  Z1.0000 
N11885  Y60.6822 
N11890  Z0.1000 
N11895 G1  Z-1.5000  
N11900  Y66.0780   
N11905 G0  Z1.0000 
N11910  X94.5651  Y60.2579 
N11915  Z0.1000 
N11920 G1  Z-1.0000  
N11925  X86.6675   
N11930  X86.6261  Y65.8630   
N11935 G0  Z1.0000 
N11940  X94.5651  Y60.2579 
N11945  Z0.1000 
N11950 G1  Z-1.5000  
N11955  X86.6675   
N11960  X86.6261  Y65.8630   
N11965 G0  Z1.0000 
N11970  X87.4728  Y59.7686 
N11975  Z0.1000 
N11980 G1  Z-1.0000  
N11985  Y65.6030   
N11990 G0  Z1.0000 
N11995  Y59.7686 
N12000  Z0.1000 
N12005 G1  Z-1.5000  
N12010  Y65.6030   
N12015 G0  Z1.0000 
N12020  X88.3194  Y59.0897 
N12025  Z0.1000 
N12030 G1  Z-1.0000  
N12035  Y65.2927   
N12040 G0  Z1.0000 
N12045  Y59.0897 
N12050  Z0.1000 
N12055 G1  Z-1.5000  
N12060  Y65.2927   
N12065 G0  Z1.0000 
N12070  X89.1661  Y58.1317 
N12075  Z0.1000 
N12080 G1  Z-1.0000  
N12085  Y64.9243   
N12090 G0  Z1.0000 
N12095  Y58.1317 
N12100  Z0.1000 
N12105 G1  Z-1.5000  
N12110  Y64.9243   
N12115 G0  Z1.0000 
N12120  X90.8594  Y52.9663 
N12125  Z0.1000 
N12130 G1  Z-1.0000  
N12135  Y63.9908   
N12140 G0  Z1.0000 
N12145  Y52.9663 
N12150  Z0.1000 
N12155 G1  Z-1.5000  
N12160  Y63.9908   
N12165 G0  Z1.0000 
N12170  X91.7061  Y53.0335 
N12175  Z0.1000 
N12180 G1  Z-1.0000  
N12185  Y63.4072   
N12190 G0  Z1.0000 
N12195  Y53.0335 
N12200  Z0.1000 
N12205 G1  Z-1.5000  
N12210  Y63.4072   
N12215 G0  Z1.0000 
N12220  X92.5528  Y53.1007 
N12225  Z0.1000 
N12230 G1  Z-1.0000  
N12235  Y62.7101   
N12240 G0  Z1.0000 
N12245  Y53.1007 
N12250  Z0.1000 
N12255 G1  Z-1.5000  
N12260  Y62.7101   
N12265 G0  Z1.0000 
N12270  X67.4100  Y61.9512 
N12275  Z0.1000 
N12280 G1  Z-1.0000  
N12285  X93.3151   
N12290 G0  Z1.0000 
N12295  X67.4100 
N12300  Z0.1000 
N12305 G1  Z-1.5000  
N12310  X93.3151   
N12315 G0  Z1.0000 
N12320  X93.3994  Y53.1679 
N12325  Z0.1000 
N12330 G1  Z-1.0000  
N12335  Y61.8568   
N12340 G0  Z1.0000 
N12345  Y53.1679 
N12350  Z0.1000 
N12355 G1  Z-1.5000  
N12360  Y61.8568   
N12365 G0  Z1.0000 
N12370  X95.0928  Y53.3023 
N12375  Z0.1000 
N12380 G1  Z-1.0000  
N12385  Y59.2677   
N12390 G0  Z1.0000 
N12395  Y53.3023 
N12400  Z0.1000 
N12405 G1  Z-1.5000  
N12410  Y59.2677   
N12415 G0  Z1.0000 
N12420  X90.5925  Y54.3312 
N12425  Z0.1000 
N12430 G1  Z-1.0000  
N12435  X96.3567   
N12440 G0  Z1.0000 
N12445  X90.5925 
N12450  Z0.1000 
N12455 G1  Z-1.5000  
N12460  X96.3567   
N12465 G0  Z1.0000 
N12470  X90.6403  Y53.4845 
N12475  Z0.1000 
N12480 G1  Z-1.0000  
N12485  X96.3307   
N12490 G0  Z1.0000 
N12495  X90.6403 
N12500  Z0.1000 
N12505 G1  Z-1.5000  
N12510  X96.3307   
N12515 G0  Z1.0000 
N12520  X95.9394  Y57.1063 
N12525  Z0.1000 
N12530 G1  Z-1.0000  
N12535  Y53.3695   
N12540 G0  Z1.0000 
N12545  Y57.1063 
N12550  Z0.1000 
N12555 G1  Z-1.5000  
N12560  Y53.3695   
N12565 G0  Z1.0000 
N12570  X94.2461  Y60.7652 
N12575  Z0.1000 
N12580 G1  Z-1.0000  
N12585  Y53.2351   
N12590 G0  Z1.0000 
N12595  Y60.7652 
N12600  Z0.1000 
N12605 G1  Z-1.5000  
N12610  Y53.2351   
N12615 G0  Z1.0000 
N12620  X96.3135  Y55.1779 
N12625  Z0.1000 
N12630 G1  Z-1.0000  
N12635  X90.4816   
N12640 G0  Z1.0000 
N12645  X96.3135 
N12650  Z0.1000 
N12655 G1  Z-1.5000  
N12660  X90.4816   
N12665 G0  Z1.0000 
N12670  X96.1964  Y56.0245 
N12675  Z0.1000 
N12680 G1  Z-1.0000  
N12685  X90.2630   
N12690 G0  Z1.0000 
N12695  X96.1964 
N12700  Z0.1000 
N12705 G1  Z-1.5000  
N12710  X90.2630   
N12715 G0  Z1.0000 
N12720  X96.0038  Y56.8712 
N12725  Z0.1000 
N12730 G1  Z-1.0000  
N12735  X89.9167   
N12740 G0  Z1.0000 
N12745  X96.0038 
N12750  Z0.1000 
N12755 G1  Z-1.5000  
N12760  X89.9167   
N12765 G0  Z1.0000 
N12770  X95.7425  Y57.7179 
N12775  Z0.1000 
N12780 G1  Z-1.0000  
N12785  X89.4498   
N12790 G0  Z1.0000 
N12795  X95.7425 
N12800  Z0.1000 
N12805 G1  Z-1.5000  
N12810  X89.4498   
N12815 G0  Z1.0000 
N12820  X95.4150  Y58.5645 
N12825  Z0.1000 
N12830 G1  Z-1.0000  
N12835  X88.8201   
N12840 G0  Z1.0000 
N12845  X95.4150 
N12850  Z0.1000 
N12855 G1  Z-1.5000  
N12860  X88.8201   
N12865 G0  Z1.0000 
N12870  X95.0208  Y59.4112 
N12875  Z0.1000 
N12880 G1  Z-1.0000  
N12885  X87.9526   
N12890 G0  Z1.0000 
N12895  X95.0208 
N12900  Z0.1000 
N12905 G1  Z-1.5000  
N12910  X87.9526   
N12915 G0  Z1.0000 
N12920  X84.9328  Y66.2509 
N12925  Z0.1000 
N12930 G1  Z-1.0000  
N12935  Y61.0042   
N12940 G0  Z1.0000 
N12945  Y66.2509 
N12950  Z0.1000 
N12955 G1  Z-1.5000  
N12960  Y61.0042   
N12965 G0  Z1.0000 
N12970  X94.0077  Y61.1045 
N12975  Z0.1000 
N12980 G1  Z-1.0000  
N12985  X84.6258   
N12990 G0  Z1.0000 
N12995  X94.0077 
N13000  Z0.1000 
N13005 G1  Z-1.5000  
N13010  X84.6258   
N13015 G0  Z1.0000 
N13020  X83.2394  Y66.4962 
N13025  Z0.1000 
N13030 G1  Z-1.0000  
N13035  Y61.4566   
N13040 G0  Z1.0000 
N13045  Y66.4962 
N13050  Z0.1000 
N13055 G1  Z-1.5000  
N13060  Y61.4566   
N13065 G0  Z1.0000 
N13070  X81.5461  Y66.6232 
N13075  Z0.1000 
N13080 G1  Z-1.0000  
N13085  Y61.6910   
N13090 G0  Z1.0000 
N13095  Y66.6232 
N13100  Z0.1000 
N13105 G1  Z-1.5000  
N13110  Y61.6910   
N13115 G0  Z1.0000 
N13120  X79.8528  Y66.6466 
N13125  Z0.1000 
N13130 G1  Z-1.0000  
N13135  Y61.7517   
N13140 G0  Z1.0000 
N13145  Y66.6466 
N13150  Z0.1000 
N13155 G1  Z-1.5000  
N13160  Y61.7517   
N13165 G0  Z1.0000 
N13170  X78.1594  Y66.5680 
N13175  Z0.1000 
N13180 G1  Z-1.0000  
N13185  Y61.6614   
N13190 G0  Z1.0000 
N13195  Y66.5680 
N13200  Z0.1000 
N13205 G1  Z-1.5000  
N13210  Y61.6614   
N13215 G0  Z1.0000 
N13220  X76.4661  Y66.3715 
N13225  Z0.1000 
N13230 G1  Z-1.0000  
N13235  Y61.3908   
N13240 G0  Z1.0000 
N13245  Y66.3715 
N13250  Z0.1000 
N13255 G1  Z-1.5000  
N13260  Y61.3908   
N13265 G0  Z1.0000 
N13270  X74.7728  Y66.0377 
N13275  Z0.1000 
N13280 G1  Z-1.0000  
N13285  Y60.8703   
N13290 G0  Z1.0000 
N13295  Y66.0377 
N13300  Z0.1000 
N13305 G1  Z-1.5000  
N13310  Y60.8703   
N13315 G0  Z1.0000 
N13320  X73.0794  Y65.5504 
N13325  Z0.1000 
N13330 G1  Z-1.0000  
N13335  Y59.9754   
N13340 G0  Z1.0000 
N13345  Y65.5504 
N13350  Z0.1000 
N13355 G1  Z-1.5000  
N13360  Y59.9754   
N13365 G0  Z1.0000 
N13370  X65.4594  Y51.2867 
N13375  Z0.1000 
N13380 G1  Z-1.0000  
N13385  Y58.5976   
N13390  X71.5657  Y58.5645   
N13395 G0  Z1.0000 
N13400  X65.4594  Y51.2867 
N13405  Z0.1000 
N13410 G1  Z-1.5000  
N13415  Y58.5976   
N13420  X71.5657  Y58.5645   
N13425 G0  Z1.0000 
N13430  X71.3861  Y64.8740 
N13435  Z0.1000 
N13440 G1  Z-1.0000  
N13445  Y58.3081   
N13450 G0  Z1.0000 
N13455  Y64.8740 
N13460  Z0.1000 
N13465 G1  Z-1.5000  
N13470  Y58.3081   
N13475 G0  Z1.0000 
N13480  X90.0128  Y56.6609 
N13485  Z0.1000 
N13490 G1  Z-1.0000  
N13495  Y64.4908   
N13500  X70.6256  Y64.4912   
N13505  X70.5394  Y55.7313   
N13510 G0  Z1.0000 
N13515  X90.0128  Y56.6609 
N13520  Z0.1000 
N13525 G1  Z-1.5000  
N13530  Y64.4908   
N13535  X70.6256  Y64.4912   
N13540  X70.5394  Y55.7313   
N13545 G0  Z1.0000 
N13550  X64.8436  Y55.1779 
N13555  Z0.1000 
N13560 G1  Z-1.0000  
N13565  X70.5180   
N13570 G0  Z1.0000 
N13575  X64.8436 
N13580  Z0.1000 
N13585 G1  Z-1.5000  
N13590  X70.5180   
N13595 G0  Z1.0000 
N13600  X71.3861  Y44.9644 
N13605  Z0.1000 
N13610 G1  Z-1.0000  
N13615  Y52.2643   
N13620 G0  Z1.0000 
N13625  Y44.9644 
N13630  Z0.1000 
N13635 G1  Z-1.5000  
N13640  Y52.2643   
N13645 G0  Z1.0000 
N13650  X73.0794  Y44.0813 
N13655  Z0.1000 
N13660 G1  Z-1.0000  
N13665  Y50.6233   
N13670 G0  Z1.0000 
N13675  Y44.0813 
N13680  Z0.1000 
N13685 G1  Z-1.5000  
N13690  Y50.6233   
N13695 G0  Z1.0000 
N13700  X65.9995  Y50.0979 
N13705  Z0.1000 
N13710 G1  Z-1.0000  
N13715  X73.8755   
N13720  X74.4505   
N13725 G0  Z1.0000 
N13730  X65.9995 
N13735  Z0.1000 
N13740 G1  Z-1.5000  
N13745  X73.8755   
N13750  X74.4505   
N13755 G0  Z1.0000 
N13760  X74.7728  Y43.2741 
N13765  Z0.1000 
N13770 G1  Z-1.0000  
N13775  Y49.5921   
N13780 G0  Z1.0000 
N13785  Y43.2741 
N13790  Z0.1000 
N13795 G1  Z-1.5000  
N13800  Y49.5921   
N13805 G0  Z1.0000 
N13810  X66.5178  Y49.2512 
N13815  Z0.1000 
N13820 G1  Z-1.0000  
N13825  X75.4449   
N13830 G0  Z1.0000 
N13835  X66.5178 
N13840  Z0.1000 
N13845 G1  Z-1.5000  
N13850  X75.4449   
N13855 G0  Z1.0000 
N13860  X89.1661  Y25.2322 
N13865  Z0.1000 
N13870 G1  Z-1.0000  
N13875  Y42.4600   
N13880  X76.5304  Y42.4779   
N13885  X77.1054   
N13890  X76.4661  Y42.5062   
N13895  Y48.7607   
N13900 G0  Z1.0000 
N13905  X89.1661  Y25.2322 
N13910  Z0.1000 
N13915 G1  Z-1.5000  
N13920  Y42.4600   
N13925  X76.5304  Y42.4779   
N13930  X77.1054   
N13935  X76.4661  Y42.5062   
N13940  Y48.7607   
N13945 G0  Z1.0000 
N13950  X78.1594  Y41.7651 
N13955  Z0.1000 
N13960 G1  Z-1.0000  
N13965  Y47.9755   
N13970 G0  Z1.0000 
N13975  Y41.7651 
N13980  Z0.1000 
N13985 G1  Z-1.5000  
N13990  Y47.9755   
N13995 G0  Z1.0000 
N14000  X79.8528  Y41.0075 
N14005  Z0.1000 
N14010 G1  Z-1.0000  
N14015  Y47.2114   
N14020 G0  Z1.0000 
N14025  Y41.0075 
N14030  Z0.1000 
N14035 G1  Z-1.5000  
N14040  Y47.2114   
N14045 G0  Z1.0000 
N14050  X68.8461  Y63.3234 
N14055  Z0.1000 
N14060 G1  Z-1.0000  
N14065  Y46.7347   
N14070  X80.9758  Y46.7112   
N14075 G0  Z1.0000 
N14080  X68.8461  Y63.3234 
N14085  Z0.1000 
N14090 G1  Z-1.5000  
N14095  Y46.7347   
N14100  X80.9758  Y46.7112   
N14105 G0  Z1.0000 
N14110  X81.5461  Y40.1982 
N14115  Z0.1000 
N14120 G1  Z-1.0000  
N14125  Y46.4585   
N14130 G0  Z1.0000 
N14135  Y40.1982 
N14140  Z0.1000 
N14145 G1  Z-1.5000  
N14150  Y46.4585   
N14155 G0  Z1.0000 
N14160  X83.2394  Y39.3060 
N14165  Z0.1000 
N14170 G1  Z-1.0000  
N14175  Y45.6969   
N14180 G0  Z1.0000 
N14185  Y39.3060 
N14190  Z0.1000 
N14195 G1  Z-1.5000  
N14200  Y45.6969   
N14205 G0  Z1.0000 
N14210  X92.5528  Y29.8928 
N14215  Z0.1000 
N14220 G1  Z-1.0000  
N14225  Y38.1747   
N14230  X84.9333  Y38.2445   
N14235  X84.9328  Y44.9023   
N14240  X81.8038  Y46.3204   
N14245  X77.8978  Y48.0430   
N14250  X75.4240  Y49.1948   
N14255  X74.3824  Y49.7757   
N14260  X72.9202  Y50.5969   
N14265  X71.9086  Y51.4332   
N14270  X71.3478  Y52.2846   
N14275  X70.7869  Y53.1358   
N14280  X70.5065  Y54.1023   
N14285  X70.5065  Y55.1840   
N14290  X70.5065  Y57.0068   
N14295  X71.1875  Y58.4690   
N14300  X72.5496  Y59.5707   
N14305  X74.3323  Y61.0129   
N14310  X76.8262  Y61.7340   
N14315  X80.0311  Y61.7341   
N14320  X81.8539  Y61.7340   
N14325  X83.5014  Y61.4786   
N14330  X84.9737  Y60.9679   
N14335  X86.4459  Y60.4571   
N14340  X87.6027  Y59.7810   
N14345  X88.4440  Y58.9398   
N14350  X89.2853  Y58.0984   
N14355  X89.9062  Y57.0669   
N14360  X90.3069  Y55.8450   
N14365  X90.5272  Y55.1439   
N14370  X90.6373  Y54.1724   
N14375  X90.6374  Y52.9305   
N14380  X96.3161  Y53.3812   
N14385  X96.3361  Y53.8019   
N14390  X96.3461  Y54.1023   
N14395  X96.3461  Y54.2826   
N14400  X96.3461  Y56.1054   
N14405  X95.7902  Y58.0183   
N14410  X94.6786  Y60.0214   
N14415  X93.5668  Y62.0245   
N14420  X91.7791  Y63.6269   
N14425  X89.3153  Y64.8288   
N14430  X86.8515  Y66.0306   
N14435  X83.8269  Y66.6315   
N14440  X80.2414  Y66.6316   
N14445  X77.2368  Y66.6315   
N14450  X74.5376  Y66.1508   
N14455  X72.1440  Y65.1894   
N14460  X69.7503  Y64.2278   
N14465  X67.9325  Y62.8357   
N14470  X66.6906  Y61.0130   
N14475  X65.4487  Y59.1901   
N14480  X64.8277  Y57.1470   
N14485  X64.8278  Y54.8835   
N14490  X64.8277  Y52.9205   
N14495  X65.2985  Y51.1728   
N14500  X66.2399  Y49.6405   
N14505  X67.1814  Y48.1081   
N14510  X68.6436  Y46.6909   
N14515  X70.6267  Y45.3890   
N14520  X71.8886  Y44.5877   
N14525  X74.2522  Y43.4359   
N14530  X77.7175  Y41.9337   
N14535  X82.1844  Y40.0107   
N14540  X84.9186  Y38.4884   
N14545  X85.9201  Y37.3667   
N14550  X86.9016  Y36.2249   
N14555  X87.3924  Y34.9629   
N14560  X87.3924  Y33.5808   
N14565  X87.3924  Y31.5978   
N14570  X86.4659  Y29.8351   
N14575  X84.6131  Y28.2927   
N14580  X82.7603  Y26.7504   
N14585  X80.0711  Y25.9792   
N14590  X76.5457  Y25.9792   
N14595  X74.0619  Y25.9792   
N14600  X71.9186  Y26.3648   
N14605  X70.1159  Y27.1360   
N14610  X68.3131  Y27.9071   
N14615  X67.0211  Y28.9988   
N14620  X66.2399  Y30.4110   
N14625  X65.4587  Y31.8231   
N14630  X65.0681  Y33.3805   
N14635  X65.0681  Y35.0831   
N14640  X65.1282  Y36.6155   
N14645  X59.3594  Y36.0747   
N14650  X59.3614  Y35.5020   
N14655  X59.9364  Y35.5040   
N14660  X59.3614  Y35.5020   
N14665  X59.3794  Y30.4260   
N14670  X60.9668  Y26.5150   
N14675  X64.1217  Y24.3417   
N14680  X67.2765  Y22.1683   
N14685  X71.3477  Y21.0817   
N14690  X76.3354   
N14695  X79.6405   
N14700  X82.5750  Y21.6325   
N14705  X85.1389  Y22.7342   
N14710  X87.7028  Y23.8359   
N14715  X89.7109  Y25.3933   
N14720  X91.1632  Y27.4064   
N14725  X92.6154  Y29.4194   
N14730  X93.3415  Y31.6178   
N14735  X93.3415  Y34.0015   
N14740  X93.3415  Y35.9244   
N14745  X92.9108  Y37.6421   
N14750  X92.0495  Y39.1544   
N14755  X91.1882  Y40.6667   
N14760  X89.9563  Y41.9537   
N14765  X88.3539  Y43.0153   
N14770  X87.1520  Y43.8165   
N14775  X84.9686  Y44.9182   
N14780  X81.8149  Y46.3394   
N14785  X77.9089  Y48.0620   
N14790  X75.4351  Y49.2138   
N14795  X74.3935  Y49.7947   
N14800  X72.9313  Y50.6159   
N14805  X71.9197  Y51.4522   
N14810  X71.3589  Y52.3036   
N14815  X70.7980  Y53.1548   
N14820  X70.5176  Y54.1213   
N14825  X70.5176  Y55.2030   
N14830  X70.5176  Y57.0258   
N14835  X71.1986  Y58.4880   
N14840  X72.5607  Y59.5898   
N14845  X74.3434  Y61.0319   
N14850  X76.8373  Y61.7530   
N14855  X80.0422  Y61.7531   
N14860  X81.8650  Y61.7530   
N14865  X83.5125  Y61.4976   
N14870  X84.9848  Y60.9869   
N14875  X86.4570  Y60.4761   
N14880  X87.6138  Y59.8000   
N14885  X88.4551  Y58.9588   
N14890  X89.2964  Y58.1175   
N14895  X89.9173  Y57.0859   
N14900  X90.3180  Y55.8640   
N14905  X90.5383  Y55.1629   
N14910  X90.6485  Y54.1914   
N14915  X90.6485  Y52.9496   
N14920  X96.3272  Y53.4002   
N14925  X96.3472  Y53.8209   
N14930  X96.3572  Y54.1213   
N14935  X96.3573  Y54.3016   
N14940  X96.3572  Y56.1244   
N14945  X95.8014  Y58.0373   
N14950  X94.6897  Y60.0404   
N14955  X93.5780  Y62.0435   
N14960  X91.7902  Y63.6459   
N14965  X89.3265  Y64.8478   
N14970  X86.8627  Y66.0496   
N14975  X83.8380  Y66.6505   
N14980  X80.2525  Y66.6506   
N14985  X77.2479  Y66.6505   
N14990  X74.5488  Y66.1698   
N14995  X72.1551  Y65.2084   
N15000  X69.7614  Y64.2469   
N15005  X67.9436  Y62.8547   
N15010  X66.7017  Y61.0320   
N15015  X65.4598  Y59.2091   
N15020  X64.8389  Y57.1660   
N15025  X64.8389  Y54.9026   
N15030  X64.8389  Y52.9395   
N15035  X65.3096  Y51.1918   
N15040  X66.2510  Y49.6595   
N15045  X67.1925  Y48.1271   
N15050  X68.6547  Y46.7100   
N15055  X70.6378  Y45.4080   
N15060  X71.8997  Y44.6067   
N15065  X74.2633  Y43.4550   
N15070  X77.7287  Y41.9527   
N15075  X82.1955  Y40.0297   
N15080  X84.9297  Y38.5074   
N15085  X85.9313  Y37.3857   
N15090  X86.9127  Y36.2439   
N15095  X87.4035  Y34.9820   
N15100  X87.4035  Y33.5999   
N15105  X87.4035  Y31.6168   
N15110  X86.4771  Y29.8541   
N15115  X84.6242  Y28.3117   
N15120  X82.7714  Y26.7694   
N15125  X80.0823  Y25.9982   
N15130  X76.5569  Y25.9982   
N15135  X74.0730  Y25.9982   
N15140  X71.9297  Y26.3838   
N15145  X70.1270  Y27.1550   
N15150  X68.3242  Y27.9261   
N15155  X67.0322  Y29.0178   
N15160  X66.2510  Y30.4300   
N15165  X65.4698  Y31.8421   
N15170  X65.0792  Y33.3995   
N15175  X65.0792  Y35.1022   
N15180  X65.1393  Y36.6345   
N15185  X59.3705  Y36.0937   
N15190  X59.4242  Y35.5212   
N15195  X59.3705  Y36.0937   
N15200  X59.3905  Y30.4450   
N15205  X60.9779  Y26.5340   
N15210  X64.1328  Y24.3607   
N15215  X67.2876  Y22.1873   
N15220  X71.3589  Y21.1007   
N15225  X76.3465   
N15230  X79.6516   
N15235  X82.5861  Y21.6515   
N15240  X85.1501  Y22.7532   
N15245  X87.7140  Y23.8549   
N15250  X89.7220  Y25.4123   
N15255  X91.1743  Y27.4254   
N15260  X92.6265  Y29.4385   
N15265  X93.3526  Y31.6368   
N15270  X93.3526  Y34.0205   
N15275  X93.3526  Y35.9434   
N15280  X92.9219  Y37.6611   
N15285  X92.0607  Y39.1734   
N15290  X91.1993  Y40.6857   
N15295  X89.9674  Y41.9727   
N15300  X88.3650  Y43.0343   
N15305  X87.1631  Y43.8355   
N15310  X84.9798  Y44.9372   
N15315 G0  Z1.0000 
N15320  X92.5528  Y29.8928 
N15325  Z0.1000 
N15330 G1  Z-1.5000  
N15335  Y38.1747   
N15340  X84.9333  Y38.2445   
N15345  X84.9328  Y44.9023   
N15350  X81.8038  Y46.3204   
N15355  X77.8978  Y48.0430   
N15360  X75.4240  Y49.1948   
N15365  X74.3824  Y49.7757   
N15370  X72.9202  Y50.5969   
N15375  X71.9086  Y51.4332   
N15380  X71.3478  Y52.2846   
N15385  X70.7869  Y53.1358   
N15390  X70.5065  Y54.1023   
N15395  X70.5065  Y55.1840   
N15400  X70.5065  Y57.0068   
N15405  X71.1875  Y58.4690   
N15410  X72.5496  Y59.5707   
N15415  X74.3323  Y61.0129   
N15420  X76.8262  Y61.7340   
N15425  X80.0311  Y61.7341   
N15430  X81.8539  Y61.7340   
N15435  X83.5014  Y61.4786   
N15440  X84.9737  Y60.9679   
N15445  X86.4459  Y60.4571   
N15450  X87.6027  Y59.7810   
N15455  X88.4440  Y58.9398   
N15460  X89.2853  Y58.0984   
N15465  X89.9062  Y57.0669   
N15470  X90.3069  Y55.8450   
N15475  X90.5272  Y55.1439   
N15480  X90.6373  Y54.1724   
N15485  X90.6374  Y52.9305   
N15490  X96.3161  Y53.3812   
N15495  X96.3361  Y53.8019   
N15500  X96.3461  Y54.1023   
N15505  X96.3461  Y54.2826   
N15510  X96.3461  Y56.1054   
N15515  X95.7902  Y58.0183   
N15520  X94.6786  Y60.0214   
N15525  X93.5668  Y62.0245   
N15530  X91.7791  Y63.6269   
N15535  X89.3153  Y64.8288   
N15540  X86.8515  Y66.0306   
N15545  X83.8269  Y66.6315   
N15550  X80.2414  Y66.6316   
N15555  X77.2368  Y66.6315   
N15560  X74.5376  Y66.1508   
N15565  X72.1440  Y65.1894   
N15570  X69.7503  Y64.2278   
N15575  X67.9325  Y62.8357   
N15580  X66.6906  Y61.0130   
N15585  X65.4487  Y59.1901   
N15590  X64.8277  Y57.1470   
N15595  X64.8278  Y54.8835   
N15600  X64.8277  Y52.9205   
N15605  X65.2985  Y51.1728   
N15610  X66.2399  Y49.6405   
N15615  X67.1814  Y48.1081   
N15620  X68.6436  Y46.6909   
N15625  X70.6267  Y45.3890   
N15630  X71.8886  Y44.5877   
N15635  X74.2522  Y43.4359   
N15640  X77.7175  Y41.9337   
N15645  X82.1844  Y40.0107   
N15650  X84.9186  Y38.4884   
N15655  X85.9201  Y37.3667   
N15660  X86.9016  Y36.2249   
N15665  X87.3924  Y34.9629   
N15670  X87.3924  Y33.5808   
N15675  X87.3924  Y31.5978   
N15680  X86.4659  Y29.8351   
N15685  X84.6131  Y28.2927   
N15690  X82.7603  Y26.7504   
N15695  X80.0711  Y25.9792   
N15700  X76.5457  Y25.9792   
N15705  X74.0619  Y25.9792   
N15710  X71.9186  Y26.3648   
N15715  X70.1159  Y27.1360   
N15720  X68.3131  Y27.9071   
N15725  X67.0211  Y28.9988   
N15730  X66.2399  Y30.4110   
N15735  X65.4587  Y31.8231   
N15740  X65.0681  Y33.3805   
N15745  X65.0681  Y35.0831   
N15750  X65.1282  Y36.6155   
N15755  X59.3594  Y36.0747   
N15760  X59.3614  Y35.5020   
N15765  X59.9364  Y35.5040   
N15770  X59.3614  Y35.5020   
N15775  X59.3794  Y30.4260   
N15780  X60.9668  Y26.5150   
N15785  X64.1217  Y24.3417   
N15790  X67.2765  Y22.1683   
N15795  X71.3477  Y21.0817   
N15800  X76.3354   
N15805  X79.6405   
N15810  X82.5750  Y21.6325   
N15815  X85.1389  Y22.7342   
N15820  X87.7028  Y23.8359   
N15825  X89.7109  Y25.3933   
N15830  X91.1632  Y27.4064   
N15835  X92.6154  Y29.4194   
N15840  X93.3415  Y31.6178   
N15845  X93.3415  Y34.0015   
N15850  X93.3415  Y35.9244   
N15855  X92.9108  Y37.6421   
N15860  X92.0495  Y39.1544   
N15865  X91.1882  Y40.6667   
N15870  X89.9563  Y41.9537   
N15875  X88.3539  Y43.0153   
N15880  X87.1520  Y43.8165   
N15885  X84.9686  Y44.9182   
N15890  X81.8149  Y46.3394   
N15895  X77.9089  Y48.0620   
N15900  X75.4351  Y49.2138   
N15905  X74.3935  Y49.7947   
N15910  X72.9313  Y50.6159   
N15915  X71.9197  Y51.4522   
N15920  X71.3589  Y52.3036   
N15925  X70.7980  Y53.1548   
N15930  X70.5176  Y54.1213   
N15935  X70.5176  Y55.2030   
N15940  X70.5176  Y57.0258   
N15945  X71.1986  Y58.4880   
N15950  X72.5607  Y59.5898   
N15955  X74.3434  Y61.0319   
N15960  X76.8373  Y61.7530   
N15965  X80.0422  Y61.7531   
N15970  X81.8650  Y61.7530   
N15975  X83.5125  Y61.4976   
N15980  X84.9848  Y60.9869   
N15985  X86.4570  Y60.4761   
N15990  X87.6138  Y59.8000   
N15995  X88.4551  Y58.9588   
N16000  X89.2964  Y58.1175   
N16005  X89.9173  Y57.0859   
N16010  X90.3180  Y55.8640   
N16015  X90.5383  Y55.1629   
N16020  X90.6485  Y54.1914   
N16025  X90.6485  Y52.9496   
N16030  X96.3272  Y53.4002   
N16035  X96.3472  Y53.8209   
N16040  X96.3572  Y54.1213   
N16045  X96.3573  Y54.3016   
N16050  X96.3572  Y56.1244   
N16055  X95.8014  Y58.0373   
N16060  X94.6897  Y60.0404   
N16065  X93.5780  Y62.0435   
N16070  X91.7902  Y63.6459   
N16075  X89.3265  Y64.8478   
N16080  X86.8627  Y66.0496   
N16085  X83.8380  Y66.6505   
N16090  X80.2525  Y66.6506   
N16095  X77.2479  Y66.6505   
N16100  X74.5488  Y66.1698   
N16105  X72.1551  Y65.2084   
N16110  X69.7614  Y64.2469   
N16115  X67.9436  Y62.8547   
N16120  X66.7017  Y61.0320   
N16125  X65.4598  Y59.2091   
N16130  X64.8389  Y57.1660   
N16135  X64.8389  Y54.9026   
N16140  X64.8389  Y52.9395   
N16145  X65.3096  Y51.1918   
N16150  X66.2510  Y49.6595   
N16155  X67.1925  Y48.1271   
N16160  X68.6547  Y46.7100   
N16165  X70.6378  Y45.4080   
N16170  X71.8997  Y44.6067   
N16175  X74.2633  Y43.4550   
N16180  X77.7287  Y41.9527   
N16185  X82.1955  Y40.0297   
N16190  X84.9297  Y38.5074   
N16195  X85.9313  Y37.3857   
N16200  X86.9127  Y36.2439   
N16205  X87.4035  Y34.9820   
N16210  X87.4035  Y33.5999   
N16215  X87.4035  Y31.6168   
N16220  X86.4771  Y29.8541   
N16225  X84.6242  Y28.3117   
N16230  X82.7714  Y26.7694   
N16235  X80.0823  Y25.9982   
N16240  X76.5569  Y25.9982   
N16245  X74.0730  Y25.9982   
N16250  X71.9297  Y26.3838   
N16255  X70.1270  Y27.1550   
N16260  X68.3242  Y27.9261   
N16265  X67.0322  Y29.0178   
N16270  X66.2510  Y30.4300   
N16275  X65.4698  Y31.8421   
N16280  X65.0792  Y33.3995   
N16285  X65.0792  Y35.1022   
N16290  X65.1393  Y36.6345   
N16295  X59.3705  Y36.0937   
N16300  X59.4242  Y35.5212   
N16305  X59.3705  Y36.0937   
N16310  X59.3905  Y30.4450   
N16315  X60.9779  Y26.5340   
N16320  X64.1328  Y24.3607   
N16325  X67.2876  Y22.1873   
N16330  X71.3589  Y21.1007   
N16335  X76.3465   
N16340  X79.6516   
N16345  X82.5861  Y21.6515   
N16350  X85.1501  Y22.7532   
N16355  X87.7140  Y23.8549   
N16360  X89.7220  Y25.4123   
N16365  X91.1743  Y27.4254   
N16370  X92.6265  Y29.4385   
N16375  X93.3526  Y31.6368   
N16380  X93.3526  Y34.0205   
N16385  X93.3526  Y35.9434   
N16390  X92.9219  Y37.6611   
N16395  X92.0607  Y39.1734   
N16400  X91.1993  Y40.6857   
N16405  X89.9674  Y41.9727   
N16410  X88.3650  Y43.0343   
N16415  X87.1631  Y43.8355   
N16420  X84.9798  Y44.9372   
N16425 G0  Z1.0000 
N16430  X86.6261  Y36.4198 
N16435  Z0.1000 
N16440 G1  Z-1.0000  
N16445  Y44.0478   
N16450 G0  Z1.0000 
N16455  Y36.4198 
N16460  Z0.1000 
N16465 G1  Z-1.5000  
N16470  Y44.0478   
N16475 G0  Z1.0000 
N16480  X88.3194  Y24.5532 
N16485  Z0.1000 
N16490 G1  Z-1.0000  
N16495  Y43.0639   
N16500 G0  Z1.0000 
N16505  Y24.5532 
N16510  Z0.1000 
N16515 G1  Z-1.5000  
N16520  Y43.0639   
N16525 G0  Z1.0000 
N16530  X83.6161  Y39.0912 
N16535  Z0.1000 
N16540 G1  Z-1.0000  
N16545  X92.1056   
N16550 G0  Z1.0000 
N16555  X83.6161 
N16560  Z0.1000 
N16565 G1  Z-1.5000  
N16570  X92.1056   
N16575 G0  Z1.0000 
N16580  X101.7883  Y39.4020 
N16585  Z0.1000 
N16590 G1  Z-1.0000  
N16595  X97.0522   
N16600 G0  Z1.0000 
N16605  X101.7883 
N16610  Z0.1000 
N16615 G1  Z-1.5000  
N16620  X97.0522   
N16625 G0  Z1.0000 
N16630  X101.7290  Y40.2487 
N16635  Z0.1000 
N16640 G1  Z-1.0000  
N16645  X96.9953   
N16650 G0  Z1.0000 
N16655  X101.7290 
N16660  Z0.1000 
N16665 G1  Z-1.5000  
N16670  X96.9953   
N16675 G0  Z1.0000 
N16680  X101.7513  Y41.0953 
N16685  Z0.1000 
N16690 G1  Z-1.0000  
N16695  X96.9710   
N16700 G0  Z1.0000 
N16705  X101.7513 
N16710  Z0.1000 
N16715 G1  Z-1.5000  
N16720  X96.9710   
N16725 G0  Z1.0000 
N16730  X98.0918  Y35.0248 
N16735  Z0.1000 
N16740 G1  Z-1.0000  
N16745  Y41.3838   
N16750 G0  Z1.0000 
N16755  Y35.0248 
N16760  Z0.1000 
N16765 G1  Z-1.5000  
N16770  Y41.3838   
N16775 G0  Z1.0000 
N16780  X106.8938  Y33.4753 
N16785  Z0.1000 
N16790 G1  Z-1.0000  
N16795  X98.9579   
N16800  X98.9384  Y41.4632   
N16805 G0  Z1.0000 
N16810  X106.8938  Y33.4753 
N16815  Z0.1000 
N16820 G1  Z-1.5000  
N16825  X98.9579   
N16830  X98.9384  Y41.4632   
N16835 G0  Z1.0000 
N16840  X99.7851  Y32.4725 
N16845  Z0.1000 
N16850 G1  Z-1.0000  
N16855  Y41.5425   
N16860 G0  Z1.0000 
N16865  Y32.4725 
N16870  Z0.1000 
N16875 G1  Z-1.5000  
N16880  Y41.5425   
N16885 G0  Z1.0000 
N16890  X121.2539  Y31.7820 
N16895  Z0.1000 
N16900 G1  Z-1.0000  
N16905  X100.5570   
N16910  X100.6318  Y41.6219   
N16915 G0  Z1.0000 
N16920  X121.2539  Y31.7820 
N16925  Z0.1000 
N16930 G1  Z-1.5000  
N16935  X100.5570   
N16940  X100.6318  Y41.6219   
N16945 G0  Z1.0000 
N16950  X101.4784  Y31.1482 
N16955  Z0.1000 
N16960 G1  Z-1.0000  
N16965  Y41.7013   
N16970 G0  Z1.0000 
N16975  Y31.1482 
N16980  Z0.1000 
N16985 G1  Z-1.5000  
N16990  Y41.7013   
N16995 G0  Z1.0000 
N17000  X102.3251  Y30.6668 
N17005  Z0.1000 
N17010 G1  Z-1.0000  
N17015  Y37.3437   
N17020 G0  Z1.0000 
N17025  Y30.6668 
N17030  Z0.1000 
N17035 G1  Z-1.5000  
N17040  Y37.3437   
N17045 G0  Z1.0000 
N17050  X103.1718  Y30.2601 
N17055  Z0.1000 
N17060 G1  Z-1.0000  
N17065  Y35.8514   
N17070 G0  Z1.0000 
N17075  Y30.2601 
N17080  Z0.1000 
N17085 G1  Z-1.5000  
N17090  Y35.8514   
N17095 G0  Z1.0000 
N17100  X104.0184  Y29.9181 
N17105  Z0.1000 
N17110 G1  Z-1.0000  
N17115  Y34.9775   
N17120 G0  Z1.0000 
N17125  Y29.9181 
N17130  Z0.1000 
N17135 G1  Z-1.5000  
N17140  Y34.9775   
N17145 G0  Z1.0000 
N17150  X104.8651  Y29.6324 
N17155  Z0.1000 
N17160 G1  Z-1.0000  
N17165  Y34.3745   
N17170 G0  Z1.0000 
N17175  Y29.6324 
N17180  Z0.1000 
N17185 G1  Z-1.5000  
N17190  Y34.3745   
N17195 G0  Z1.0000 
N17200  X105.7118  Y29.3972 
N17205  Z0.1000 
N17210 G1  Z-1.0000  
N17215  Y33.9282   
N17220 G0  Z1.0000 
N17225  Y29.3972 
N17230  Z0.1000 
N17235 G1  Z-1.5000  
N17240  Y33.9282   
N17245 G0  Z1.0000 
N17250  X107.4051  Y29.0557 
N17255  Z0.1000 
N17260 G1  Z-1.0000  
N17265  Y33.3265   
N17270 G0  Z1.0000 
N17275  Y29.0557 
N17280  Z0.1000 
N17285 G1  Z-1.5000  
N17290  Y33.3265   
N17295 G0  Z1.0000 
N17300  X109.0984  Y28.8606 
N17305  Z0.1000 
N17310 G1  Z-1.0000  
N17315  Y32.9992   
N17320 G0  Z1.0000 
N17325  Y28.8606 
N17330  Z0.1000 
N17335 G1  Z-1.5000  
N17340  Y32.9992   
N17345 G0  Z1.0000 
N17350  X110.7918  Y28.7865 
N17355  Z0.1000 
N17360 G1  Z-1.0000  
N17365  Y32.8728   
N17370 G0  Z1.0000 
N17375  Y28.7865 
N17380  Z0.1000 
N17385 G1  Z-1.5000  
N17390  Y32.8728   
N17395 G0  Z1.0000 
N17400  X112.4851  Y28.8248 
N17405  Z0.1000 
N17410 G1  Z-1.0000  
N17415  Y32.9050   
N17420 G0  Z1.0000 
N17425  Y28.8248 
N17430  Z0.1000 
N17435 G1  Z-1.5000  
N17440  Y32.9050   
N17445 G0  Z1.0000 
N17450  X114.1784  Y28.9921 
N17455  Z0.1000 
N17460 G1  Z-1.0000  
N17465  Y33.1133   
N17470 G0  Z1.0000 
N17475  Y28.9921 
N17480  Z0.1000 
N17485 G1  Z-1.5000  
N17490  Y33.1133   
N17495 G0  Z1.0000 
N17500  X123.0220  Y33.4753 
N17505  Z0.1000 
N17510 G1  Z-1.0000  
N17515  X115.5859   
N17520 G0  Z1.0000 
N17525  X123.0220 
N17530  Z0.1000 
N17535 G1  Z-1.5000  
N17540  X115.5859   
N17545 G0  Z1.0000 
N17550  X115.8718  Y29.3118 
N17555  Z0.1000 
N17560 G1  Z-1.0000  
N17565  Y33.5772   
N17570 G0  Z1.0000 
N17575  Y29.3118 
N17580  Z0.1000 
N17585 G1  Z-1.5000  
N17590  Y33.5772   
N17595 G0  Z1.0000 
N17600  X123.6575  Y34.3220 
N17605  Z0.1000 
N17610 G1  Z-1.0000  
N17615  X117.3708   
N17620 G0  Z1.0000 
N17625  X123.6575 
N17630  Z0.1000 
N17635 G1  Z-1.5000  
N17640  X117.3708   
N17645 G0  Z1.0000 
N17650  X117.5651  Y29.8141 
N17655  Z0.1000 
N17660 G1  Z-1.0000  
N17665  Y34.4520   
N17670 G0  Z1.0000 
N17675  Y29.8141 
N17680  Z0.1000 
N17685 G1  Z-1.5000  
N17690  Y34.4520   
N17695 G0  Z1.0000 
N17700  X124.8873  Y36.8620 
N17705  Z0.1000 
N17710 G1  Z-1.0000  
N17715  X119.7520   
N17720 G0  Z1.0000 
N17725  X124.8873 
N17730  Z0.1000 
N17735 G1  Z-1.5000  
N17740  X119.7520   
N17745 G0  Z1.0000 
N17750  X125.2337  Y38.5553 
N17755  Z0.1000 
N17760 G1  Z-1.0000  
N17765  X120.2888   
N17770 G0  Z1.0000 
N17775  X125.2337 
N17780  Z0.1000 
N17785 G1  Z-1.5000  
N17790  X120.2888   
N17795 G0  Z1.0000 
N17800  X125.2844  Y39.4020 
N17805  Z0.1000 
N17810 G1  Z-1.0000  
N17815  X120.3251   
N17820 G0  Z1.0000 
N17825  X125.2844 
N17830  Z0.1000 
N17835 G1  Z-1.5000  
N17840  X120.3251   
N17845 G0  Z1.0000 
N17850  X125.2628  Y40.2487 
N17855  Z0.1000 
N17860 G1  Z-1.0000  
N17865  X120.2102   
N17870 G0  Z1.0000 
N17875  X125.2628 
N17880  Z0.1000 
N17885 G1  Z-1.5000  
N17890  X120.2102   
N17895 G0  Z1.0000 
N17900  X125.1667  Y41.0953 
N17905  Z0.1000 
N17910 G1  Z-1.0000  
N17915  X119.9195   
N17920 G0  Z1.0000 
N17925  X125.1667 
N17930  Z0.1000 
N17935 G1  Z-1.5000  
N17940  X119.9195   
N17945 G0  Z1.0000 
N17950  X124.9870  Y41.9420 
N17955  Z0.1000 
N17960 G1  Z-1.0000  
N17965  X119.4266   
N17970 G0  Z1.0000 
N17975  X124.9870 
N17980  Z0.1000 
N17985 G1  Z-1.5000  
N17990  X119.4266   
N17995 G0  Z1.0000 
N18000  X119.2584  Y48.1260 
N18005  Z0.1000 
N18010 G1  Z-1.0000  
N18015  Y42.1662   
N18020 G0  Z1.0000 
N18025  Y48.1260 
N18030  Z0.1000 
N18035 G1  Z-1.5000  
N18040  Y42.1662   
N18045 G0  Z1.0000 
N18050  X124.7116  Y42.7887 
N18055  Z0.1000 
N18060 G1  Z-1.0000  
N18065  X118.6387   
N18070 G0  Z1.0000 
N18075  X124.7116 
N18080  Z0.1000 
N18085 G1  Z-1.5000  
N18090  X118.6387   
N18095 G0  Z1.0000 
N18100  X117.5651  Y48.9548 
N18105  Z0.1000 
N18110 G1  Z-1.0000  
N18115  Y43.5409   
N18120 G0  Z1.0000 
N18125  Y48.9548 
N18130  Z0.1000 
N18135 G1  Z-1.5000  
N18140  Y43.5409   
N18145 G0  Z1.0000 
N18150  X120.1051  Y40.6212 
N18155  Z0.1000 
N18160 G1  Z-1.0000  
N18165  Y47.6761   
N18170 G0  Z1.0000 
N18175  Y40.6212 
N18180  Z0.1000 
N18185 G1  Z-1.5000  
N18190  Y47.6761   
N18195 G0  Z1.0000 
N18200  X110.3251  Y47.0220 
N18205  Z0.1000 
N18210 G1  Z-1.0000  
N18215  X121.1901   
N18220 G0  Z1.0000 
N18225  X110.3251 
N18230  Z0.1000 
N18235 G1  Z-1.5000  
N18240  X121.1901   
N18245 G0  Z1.0000 
N18250  X118.4118  Y42.9672 
N18255  Z0.1000 
N18260 G1  Z-1.0000  
N18265  Y48.5497   
N18270 G0  Z1.0000 
N18275  Y42.9672 
N18280  Z0.1000 
N18285 G1  Z-1.5000  
N18290  Y48.5497   
N18295 G0  Z1.0000 
N18300  X116.7184  Y44.0346 
N18305  Z0.1000 
N18310 G1  Z-1.0000  
N18315  Y49.3462   
N18320 G0  Z1.0000 
N18325  Y44.0346 
N18330  Z0.1000 
N18335 G1  Z-1.5000  
N18340  Y49.3462   
N18345 G0  Z1.0000 
N18350  X115.0251  Y44.9066 
N18355  Z0.1000 
N18360 G1  Z-1.0000  
N18365  Y50.1034   
N18370 G0  Z1.0000 
N18375  Y44.9066 
N18380  Z0.1000 
N18385 G1  Z-1.5000  
N18390  Y50.1034   
N18395 G0  Z1.0000 
N18400  X123.1458  Y45.3287 
N18405  Z0.1000 
N18410 G1  Z-1.0000  
N18415  X114.1349   
N18420  X114.1784  Y50.4801   
N18425 G0  Z1.0000 
N18430  X123.1458  Y45.3287 
N18435  Z0.1000 
N18440 G1  Z-1.5000  
N18445  X114.1349   
N18450  X114.1784  Y50.4801   
N18455 G0  Z1.0000 
N18460  X113.3318  Y45.6933 
N18465  Z0.1000 
N18470 G1  Z-1.0000  
N18475  Y50.8599   
N18480 G0  Z1.0000 
N18485  Y45.6933 
N18490  Z0.1000 
N18495 G1  Z-1.5000  
N18500  Y50.8599   
N18505 G0  Z1.0000 
N18510  X103.7074  Y51.2553 
N18515  Z0.1000 
N18520 G1  Z-1.0000  
N18525  X112.4611   
N18530  X113.0361   
N18535 G0  Z1.0000 
N18540  X103.7074 
N18545  Z0.1000 
N18550 G1  Z-1.5000  
N18555  X112.4611   
N18560  X113.0361   
N18565 G0  Z1.0000 
N18570  X111.6384  Y46.4366 
N18575  Z0.1000 
N18580 G1  Z-1.0000  
N18585  Y51.6351   
N18590 G0  Z1.0000 
N18595  Y46.4366 
N18600  Z0.1000 
N18605 G1  Z-1.5000  
N18610  Y51.6351   
N18615 G0  Z1.0000 
N18620  X109.9451  Y47.1969 
N18625  Z0.1000 
N18630 G1  Z-1.0000  
N18635  Y52.4541   
N18640 G0  Z1.0000 
N18645  Y47.1969 
N18650  Z0.1000 
N18655 G1  Z-1.5000  
N18660  Y52.4541   
N18665 G0  Z1.0000 
N18670  X102.4929  Y52.9487 
N18675  Z0.1000 
N18680 G1  Z-1.0000  
N18685  X109.0563   
N18690  X109.6313   
N18695 G0  Z1.0000 
N18700  X102.4929 
N18705  Z0.1000 
N18710 G1  Z-1.5000  
N18715  X109.0563   
N18720  X109.6313   
N18725 G0  Z1.0000 
N18730  X108.2518  Y48.0051 
N18735  Z0.1000 
N18740 G1  Z-1.0000  
N18745  Y53.4893   
N18750 G0  Z1.0000 
N18755  Y48.0051 
N18760  Z0.1000 
N18765 G1  Z-1.5000  
N18770  Y53.4893   
N18775 G0  Z1.0000 
N18780  X101.5451  Y56.3353 
N18785  Z0.1000 
N18790 G1  Z-1.0000  
N18795  X106.3362   
N18800 G0  Z1.0000 
N18805  X101.5451 
N18810  Z0.1000 
N18815 G1  Z-1.5000  
N18820  X106.3362   
N18825 G0  Z1.0000 
N18830  X101.5297  Y57.1820 
N18835  Z0.1000 
N18840 G1  Z-1.0000  
N18845  X106.2584   
N18850 G0  Z1.0000 
N18855  X101.5297 
N18860  Z0.1000 
N18865 G1  Z-1.5000  
N18870  X106.2584   
N18875 G0  Z1.0000 
N18880  X108.2518  Y65.7759 
N18885  Z0.1000 
N18890 G1  Z-1.0000  
N18895  Y61.0808   
N18900 G0  Z1.0000 
N18905  Y65.7759 
N18910  Z0.1000 
N18915 G1  Z-1.5000  
N18920  Y61.0808   
N18925 G0  Z1.0000 
N18930  X109.9451  Y66.2661 
N18935  Z0.1000 
N18940 G1  Z-1.0000  
N18945  Y61.9808   
N18950 G0  Z1.0000 
N18955  Y66.2661 
N18960  Z0.1000 
N18965 G1  Z-1.5000  
N18970  Y61.9808   
N18975 G0  Z1.0000 
N18980  X111.6384  Y66.5704 
N18985  Z0.1000 
N18990 G1  Z-1.0000  
N18995  Y62.4439   
N19000 G0  Z1.0000 
N19005  Y66.5704 
N19010  Z0.1000 
N19015 G1  Z-1.5000  
N19020  Y62.4439   
N19025 G0  Z1.0000 
N19030  X113.3318  Y66.7180 
N19035  Z0.1000 
N19040 G1  Z-1.0000  
N19045  Y62.6380   
N19050 G0  Z1.0000 
N19055  Y66.7180 
N19060  Z0.1000 
N19065 G1  Z-1.5000  
N19070  Y62.6380   
N19075 G0  Z1.0000 
N19080  X114.1784  Y66.7407 
N19085  Z0.1000 
N19090 G1  Z-1.0000  
N19095  Y62.6611   
N19100 G0  Z1.0000 
N19105  Y66.7407 
N19110  Z0.1000 
N19115 G1  Z-1.5000  
N19120  Y62.6611   
N19125 G0  Z1.0000 
N19130  X115.0251  Y66.7335 
N19135  Z0.1000 
N19140 G1  Z-1.0000  
N19145  Y62.6393   
N19150 G0  Z1.0000 
N19155  Y66.7335 
N19160  Z0.1000 
N19165 G1  Z-1.5000  
N19170  Y62.6393   
N19175 G0  Z1.0000 
N19180  X116.7184  Y66.6286 
N19185  Z0.1000 
N19190 G1  Z-1.0000  
N19195  Y62.4408   
N19200 G0  Z1.0000 
N19205  Y66.6286 
N19210  Z0.1000 
N19215 G1  Z-1.5000  
N19220  Y62.4408   
N19225 G0  Z1.0000 
N19230  X118.4118  Y66.3836 
N19235  Z0.1000 
N19240 G1  Z-1.0000  
N19245  Y61.9878   
N19250 G0  Z1.0000 
N19255  Y66.3836 
N19260  Z0.1000 
N19265 G1  Z-1.5000  
N19270  Y61.9878   
N19275 G0  Z1.0000 
N19280  X126.2957  Y61.4153 
N19285  Z0.1000 
N19290 G1  Z-1.0000  
N19295  X119.7163   
N19300 G0  Z1.0000 
N19305  X126.2957 
N19310  Z0.1000 
N19315 G1  Z-1.5000  
N19320  X119.7163   
N19325 G0  Z1.0000 
N19330  X120.1051  Y65.9595 
N19335  Z0.1000 
N19340 G1  Z-1.0000  
N19345  Y61.1917   
N19350 G0  Z1.0000 
N19355  Y65.9595 
N19360  Z0.1000 
N19365 G1  Z-1.5000  
N19370  Y61.1917   
N19375 G0  Z1.0000 
N19380  X127.4163  Y58.8753 
N19385  Z0.1000 
N19390 G1  Z-1.0000  
N19395  X122.2820   
N19400 G0  Z1.0000 
N19405  X127.4163 
N19410  Z0.1000 
N19415 G1  Z-1.5000  
N19420  X122.2820   
N19425 G0  Z1.0000 
N19430  X127.7546  Y57.1820 
N19435  Z0.1000 
N19440 G1  Z-1.0000  
N19445  X122.8947   
N19450 G0  Z1.0000 
N19455  X127.7546 
N19460  Z0.1000 
N19465 G1  Z-1.5000  
N19470  X122.8947   
N19475 G0  Z1.0000 
N19480  X125.1851  Y62.9015 
N19485  Z0.1000 
N19490 G1  Z-1.0000  
N19495  Y55.4958   
N19500  X124.6101  Y55.4887   
N19505  Y56.0637   
N19510  Y55.4887   
N19515  X123.0319   
N19520 G0  Z1.0000 
N19525  X125.1851  Y62.9015 
N19530  Z0.1000 
N19535 G1  Z-1.5000  
N19540  Y55.4958   
N19545  X124.6101  Y55.4887   
N19550  Y56.0637   
N19555  Y55.4887   
N19560  X123.0319   
N19565 G0  Z1.0000 
N19570  X126.8784  Y60.2923 
N19575  Z0.1000 
N19580 G1  Z-1.0000  
N19585  Y55.6302   
N19590 G0  Z1.0000 
N19595  Y60.2923 
N19600  Z0.1000 
N19605 G1  Z-1.5000  
N19610  Y55.6302   
N19615 G0  Z1.0000 
N19620  X127.7251  Y57.4450 
N19625  Z0.1000 
N19630 G1  Z-1.0000  
N19635  Y55.6974   
N19640 G0  Z1.0000 
N19645  Y57.4450 
N19650  Z0.1000 
N19655 G1  Z-1.5000  
N19660  Y55.6974   
N19665 G0  Z1.0000 
N19670  X122.9988  Y56.3353 
N19675  Z0.1000 
N19680 G1  Z-1.0000  
N19685  X127.7886   
N19690 G0  Z1.0000 
N19695  X122.9988 
N19700  Z0.1000 
N19705 G1  Z-1.5000  
N19710  X127.7886   
N19715 G0  Z1.0000 
N19720  X122.6451  Y64.8657 
N19725  Z0.1000 
N19730 G1  Z-1.0000  
N19735  Y58.0730   
N19740  X127.6288  Y58.0287   
N19745 G0  Z1.0000 
N19750  X122.6451  Y64.8657 
N19755  Z0.1000 
N19760 G1  Z-1.5000  
N19765  Y58.0730   
N19770  X127.6288  Y58.0287   
N19775 G0  Z1.0000 
N19780  X121.7984  Y65.3025 
N19785  Z0.1000 
N19790 G1  Z-1.0000  
N19795  Y59.6435   
N19800  X127.1216  Y59.7220   
N19805 G0  Z1.0000 
N19810  X121.7984  Y65.3025 
N19815  Z0.1000 
N19820 G1  Z-1.5000  
N19825  Y59.6435   
N19830  X127.1216  Y59.7220   
N19835 G0  Z1.0000 
N19840  X126.0318  Y55.5630 
N19845  Z0.1000 
N19850 G1  Z-1.0000  
N19855  Y61.8379   
N19860 G0  Z1.0000 
N19865  Y55.5630 
N19870  Z0.1000 
N19875 G1  Z-1.5000  
N19880  Y61.8379   
N19885 G0  Z1.0000 
N19890  X117.5651  Y66.5266 
N19895  Z0.1000 
N19900 G1  Z-1.0000  
N19905  Y62.2510   
N19910  X125.7253  Y62.2620   
N19915 G0  Z1.0000 
N19920  X117.5651  Y66.5266 
N19925  Z0.1000 
N19930 G1  Z-1.5000  
N19935  Y62.2510   
N19940  X125.7253  Y62.2620   
N19945 G0  Z1.0000 
N19950  X124.3384  Y55.4286 
N19955  Z0.1000 
N19960 G1  Z-1.0000  
N19965  Y63.7038   
N19970 G0  Z1.0000 
N19975  Y55.4286 
N19980  Z0.1000 
N19985 G1  Z-1.5000  
N19990  Y63.7038   
N19995 G0  Z1.0000 
N20000  X104.8651  Y50.1460 
N20005  Z0.1000 
N20010 G1  Z-1.0000  
N20015  Y63.9699   
N20020  X124.0259  Y63.9553   
N20025 G0  Z1.0000 
N20030  X104.8651  Y50.1460 
N20035  Z0.1000 
N20040 G1  Z-1.5000  
N20045  Y63.9699   
N20050  X124.0259  Y63.9553   
N20055 G0  Z1.0000 
N20060  X123.4918  Y55.3614 
N20065  Z0.1000 
N20070 G1  Z-1.0000  
N20075  Y64.3406   
N20080 G0  Z1.0000 
N20085  Y55.3614 
N20090  Z0.1000 
N20095 G1  Z-1.5000  
N20100  Y64.3406   
N20105 G0  Z1.0000 
N20110  X119.2584  Y61.6435 
N20115  Z0.1000 
N20120 G1  Z-1.0000  
N20125  Y66.1965   
N20130 G0  Z1.0000 
N20135  Y61.6435 
N20140  Z0.1000 
N20145 G1  Z-1.5000  
N20150  Y66.1965   
N20155 G0  Z1.0000 
N20160  X115.8718  Y62.5679 
N20165  Z0.1000 
N20170 G1  Z-1.0000  
N20175  Y66.6969   
N20180 G0  Z1.0000 
N20185  Y62.5679 
N20190  Z0.1000 
N20195 G1  Z-1.5000  
N20200  Y66.6969   
N20205 G0  Z1.0000 
N20210  X112.4851  Y62.5685 
N20215  Z0.1000 
N20220 G1  Z-1.0000  
N20225  Y66.6622   
N20230 G0  Z1.0000 
N20235  Y62.5685 
N20240  Z0.1000 
N20245 G1  Z-1.5000  
N20250  Y66.6622   
N20255 G0  Z1.0000 
N20260  X117.7653  Y66.4953 
N20265  Z0.1000 
N20270 G1  Z-1.0000  
N20275  X111.1266   
N20280 G0  Z1.0000 
N20285  X117.7653 
N20290  Z0.1000 
N20295 G1  Z-1.5000  
N20300  X111.1266   
N20305 G0  Z1.0000 
N20310  X109.0984  Y61.6016 
N20315  Z0.1000 
N20320 G1  Z-1.0000  
N20325  Y66.0463   
N20330 G0  Z1.0000 
N20335  Y61.6016 
N20340  Z0.1000 
N20345 G1  Z-1.5000  
N20350  Y66.0463   
N20355 G0  Z1.0000 
N20360  X126.7476  Y60.5687 
N20365  Z0.1000 
N20370 G1  Z-1.0000  
N20375  X120.9535   
N20380  X120.9518  Y65.6648   
N20385  X107.9021  Y65.6487   
N20390 G0  Z1.0000 
N20395  X126.7476  Y60.5687 
N20400  Z0.1000 
N20405 G1  Z-1.5000  
N20410  X120.9535   
N20415  X120.9518  Y65.6648   
N20420  X107.9021  Y65.6487   
N20425 G0  Z1.0000 
N20430  X107.4051  Y60.3349 
N20435  Z0.1000 
N20440 G1  Z-1.0000  
N20445  Y65.4496   
N20450 G0  Z1.0000 
N20455  Y60.3349 
N20460  Z0.1000 
N20465 G1  Z-1.5000  
N20470  Y65.4496   
N20475 G0  Z1.0000 
N20480  X101.7194  Y58.8753 
N20485  Z0.1000 
N20490 G1  Z-1.0000  
N20495  X106.5301   
N20500  X106.5584  Y65.0558   
N20505 G0  Z1.0000 
N20510  X101.7194  Y58.8753 
N20515  Z0.1000 
N20520 G1  Z-1.5000  
N20525  X106.5301   
N20530  X106.5584  Y65.0558   
N20535 G0  Z1.0000 
N20540  X122.7555  Y64.8020 
N20545  Z0.1000 
N20550 G1  Z-1.0000  
N20555  X106.0953   
N20560 G0  Z1.0000 
N20565  X122.7555 
N20570  Z0.1000 
N20575 G1  Z-1.5000  
N20580  X106.0953   
N20585 G0  Z1.0000 
N20590  X104.0184  Y50.9256 
N20595  Z0.1000 
N20600 G1  Z-1.0000  
N20605  Y63.2072   
N20610 G0  Z1.0000 
N20615  Y50.9256 
N20620  Z0.1000 
N20625 G1  Z-1.5000  
N20630  Y63.2072   
N20635 G0  Z1.0000 
N20640  X104.5934  Y62.5337 
N20645  Z0.1000 
N20650 G1  Z-1.0000  
N20655  Y63.1087   
N20660  X103.9226   
N20665 G0  Z1.0000 
N20670  X104.5934  Y62.5337 
N20675  Z0.1000 
N20680 G1  Z-1.5000  
N20685  Y63.1087   
N20690  X103.9226   
N20695 G0  Z1.0000 
N20700  X124.9854 
N20705  Z0.1000 
N20710 G1  Z-1.0000  
N20715  X104.5934   
N20720  Y62.5337   
N20725 G0  Z1.0000 
N20730  X124.9854  Y63.1087 
N20735  Z0.1000 
N20740 G1  Z-1.5000  
N20745  X104.5934   
N20750  Y62.5337   
N20755 G0  Z1.0000 
N20760  X108.7639  Y61.4153 
N20765  Z0.1000 
N20770 G1  Z-1.0000  
N20775  X102.6773   
N20780 G0  Z1.0000 
N20785  X108.7639 
N20790  Z0.1000 
N20795 G1  Z-1.5000  
N20800  X102.6773   
N20805 G0  Z1.0000 
N20810  X107.6339  Y60.5687 
N20815  Z0.1000 
N20820 G1  Z-1.0000  
N20825  X102.2538   
N20830 G0  Z1.0000 
N20835  X107.6339 
N20840  Z0.1000 
N20845 G1  Z-1.5000  
N20850  X102.2538   
N20855 G0  Z1.0000 
N20860  X106.9383  Y59.7220 
N20865  Z0.1000 
N20870 G1  Z-1.0000  
N20875  X101.9391   
N20880 G0  Z1.0000 
N20885  X106.9383 
N20890  Z0.1000 
N20895 G1  Z-1.5000  
N20900  X101.9391   
N20905 G0  Z1.0000 
N20910  X106.3184  Y58.0287 
N20915  Z0.1000 
N20920 G1  Z-1.0000  
N20925  X101.5846   
N20930 G0  Z1.0000 
N20935  X106.3184 
N20940  Z0.1000 
N20945 G1  Z-1.5000  
N20950  X101.5846   
N20955 G0  Z1.0000 
N20960  X107.0602  Y54.6420 
N20965  Z0.1000 
N20970 G1  Z-1.0000  
N20975  X101.8178   
N20980 G0  Z1.0000 
N20985  X107.0602 
N20990  Z0.1000 
N20995 G1  Z-1.5000  
N21000  X101.8178   
N21005 G0  Z1.0000 
N21010  X107.8674  Y53.7953 
N21015  Z0.1000 
N21020 G1  Z-1.0000  
N21025  X102.0974   
N21030 G0  Z1.0000 
N21035  X107.8674 
N21040  Z0.1000 
N21045 G1  Z-1.5000  
N21050  X102.0974   
N21055 G0  Z1.0000 
N21060  X102.3251  Y60.7257 
N21065  Z0.1000 
N21070 G1  Z-1.0000  
N21075  Y53.2753   
N21080 G0  Z1.0000 
N21085  Y60.7257 
N21090  Z0.1000 
N21095 G1  Z-1.5000  
N21100  Y53.2753   
N21105 G0  Z1.0000 
N21110  X110.6555  Y52.1020 
N21115  Z0.1000 
N21120 G1  Z-1.0000  
N21125  X103.0223   
N21130 G0  Z1.0000 
N21135  X110.6555 
N21140  Z0.1000 
N21145 G1  Z-1.5000  
N21150  X103.0223   
N21155 G0  Z1.0000 
N21160  X110.7918  Y66.4395 
N21165  Z0.1000 
N21170 G1  Z-1.0000  
N21175  Y62.2546   
N21180  X103.7966  Y62.2620   
N21185  Y62.8370   
N21190  Y62.2620   
N21195  X103.2216   
N21200  X103.1718  Y51.8994   
N21205 G0  Z1.0000 
N21210  X110.7918  Y66.4395 
N21215  Z0.1000 
N21220 G1  Z-1.5000  
N21225  Y62.2546   
N21230  X103.7966  Y62.2620   
N21235  Y62.8370   
N21240  Y62.2620   
N21245  X103.2216   
N21250  X103.1718  Y51.8994   
N21255 G0  Z1.0000 
N21260  X114.3380  Y50.4087 
N21265  Z0.1000 
N21270 G1  Z-1.0000  
N21275  X104.5624   
N21280 G0  Z1.0000 
N21285  X114.3380 
N21290  Z0.1000 
N21295 G1  Z-1.5000  
N21300  X104.5624   
N21305 G0  Z1.0000 
N21310  X116.2401  Y49.5620 
N21315  Z0.1000 
N21320 G1  Z-1.0000  
N21325  X105.6089   
N21330 G0  Z1.0000 
N21335  X116.2401 
N21340  Z0.1000 
N21345 G1  Z-1.5000  
N21350  X105.6089   
N21355 G0  Z1.0000 
N21360  X105.7118  Y64.5703 
N21365  Z0.1000 
N21370 G1  Z-1.0000  
N21375  Y49.4864   
N21380 G0  Z1.0000 
N21385  Y64.5703 
N21390  Z0.1000 
N21395 G1  Z-1.5000  
N21400  Y49.4864   
N21405 G0  Z1.0000 
N21410  X101.6382  Y55.4887 
N21415  Z0.1000 
N21420 G1  Z-1.0000  
N21425  X106.5859   
N21430  X106.5584  Y48.9165   
N21435 G0  Z1.0000 
N21440  X101.6382  Y55.4887 
N21445  Z0.1000 
N21450 G1  Z-1.5000  
N21455  X106.5859   
N21460  X106.5584  Y48.9165   
N21465 G0  Z1.0000 
N21470  X118.0683  Y48.7153 
N21475  Z0.1000 
N21480 G1  Z-1.0000  
N21485  X106.9031   
N21490 G0  Z1.0000 
N21495  X118.0683 
N21500  Z0.1000 
N21505 G1  Z-1.5000  
N21510  X106.9031   
N21515 G0  Z1.0000 
N21520  X107.4051  Y54.2311 
N21525  Z0.1000 
N21530 G1  Z-1.0000  
N21535  Y48.4398   
N21540 G0  Z1.0000 
N21545  Y54.2311 
N21550  Z0.1000 
N21555 G1  Z-1.5000  
N21560  Y48.4398   
N21565 G0  Z1.0000 
N21570  X119.7517  Y47.8687 
N21575  Z0.1000 
N21580 G1  Z-1.0000  
N21585  X108.5259   
N21590 G0  Z1.0000 
N21595  X119.7517 
N21600  Z0.1000 
N21605 G1  Z-1.5000  
N21610  X108.5259   
N21615 G0  Z1.0000 
N21620  X109.6734  Y52.9235 
N21625  Z0.1000 
N21630 G1  Z-1.0000  
N21635  X109.0984   
N21640  Y47.5931   
N21645 G0  Z1.0000 
N21650  X109.6734  Y52.9235 
N21655  Z0.1000 
N21660 G1  Z-1.5000  
N21665  X109.0984   
N21670  Y47.5931   
N21675 G0  Z1.0000 
N21680  X110.7918  Y52.0360 
N21685  Z0.1000 
N21690 G1  Z-1.0000  
N21695  Y46.8124   
N21700 G0  Z1.0000 
N21705  Y52.0360 
N21710  Z0.1000 
N21715 G1  Z-1.5000  
N21720  Y46.8124   
N21725 G0  Z1.0000 
N21730  X122.2952  Y46.1753 
N21735  Z0.1000 
N21740 G1  Z-1.0000  
N21745  X112.2345   
N21750 G0  Z1.0000 
N21755  X122.2952 
N21760  Z0.1000 
N21765 G1  Z-1.5000  
N21770  X112.2345   
N21775 G0  Z1.0000 
N21780  X113.0601  Y51.2442 
N21785  Z0.1000 
N21790 G1  Z-1.0000  
N21795  X112.4851   
N21800  Y46.0661   
N21805 G0  Z1.0000 
N21810  X113.0601  Y51.2442 
N21815  Z0.1000 
N21820 G1  Z-1.5000  
N21825  X112.4851   
N21830  Y46.0661   
N21835 G0  Z1.0000 
N21840  X115.8718  Y49.7272 
N21845  Z0.1000 
N21850 G1  Z-1.0000  
N21855  Y44.4855   
N21860  X123.8095  Y44.4820   
N21865 G0  Z1.0000 
N21870  X115.8718  Y49.7272 
N21875  Z0.1000 
N21880 G1  Z-1.5000  
N21885  Y44.4855   
N21890  X123.8095  Y44.4820   
N21895 G0  Z1.0000 
N21900  X128.4349  Y48.6903 
N21905  Z0.1000 
N21910 G1  Z-1.0000  
N21915  X128.9968  Y48.5681   
N21920  X128.4349  Y48.6903   
N21925  X129.0079  Y48.5871   
N21930  X142.3531   
N21935  X143.2460  Y52.8038   
N21940  X129.9250   
N21945  X129.0079  Y48.5871   
N21950  X128.4460  Y48.7093   
N21955 G0  Z0.1000 
N21960 G1  Z-1.5000  
N21965  X128.9968  Y48.5681   
N21970  X128.4349  Y48.6903   
N21975  X129.0079  Y48.5871   
N21980  X142.3531   
N21985  X143.2460  Y52.8038   
N21990  X129.9250   
N21995  X129.0079  Y48.5871   
N22000  X128.4460  Y48.7093   
N22005 G0  Z1.0000 
N22010  X142.4824  Y49.1974 
N22015  Z0.1000 
N22020 G1  Z-1.0000  
N22025  X129.1407   
N22030 G0  Z1.0000 
N22035  X142.4824 
N22040  Z0.1000 
N22045 G1  Z-1.5000  
N22050  X129.1407   
N22055 G0  Z1.0000 
N22060  X129.5490  Y51.0748 
N22065  Z0.1000 
N22070 G1  Z-1.0000  
N22075  Y48.5871   
N22080 G0  Z1.0000 
N22085  Y51.0748 
N22090  Z0.1000 
N22095 G1  Z-1.5000  
N22100  Y48.5871   
N22105 G0  Z1.0000 
N22110  X142.6617  Y50.0441 
N22115  Z0.1000 
N22120 G1  Z-1.0000  
N22125  X129.3248   
N22130 G0  Z1.0000 
N22135  X142.6617 
N22140  Z0.1000 
N22145 G1  Z-1.5000  
N22150  X129.3248   
N22155 G0  Z1.0000 
N22160  X142.8409  Y50.8908 
N22165  Z0.1000 
N22170 G1  Z-1.0000  
N22175  X129.5089   
N22180 G0  Z1.0000 
N22185  X142.8409 
N22190  Z0.1000 
N22195 G1  Z-1.5000  
N22200  X129.5089   
N22205 G0  Z1.0000 
N22210  X143.0202  Y51.7374 
N22215  Z0.1000 
N22220 G1  Z-1.0000  
N22225  X129.6931   
N22230 G0  Z1.0000 
N22235  X143.0202 
N22240  Z0.1000 
N22245 G1  Z-1.5000  
N22250  X129.6931   
N22255 G0  Z1.0000 
N22260  X143.1995  Y52.5841 
N22265  Z0.1000 
N22270 G1  Z-1.0000  
N22275  X129.8772   
N22280 G0  Z1.0000 
N22285  X143.1995 
N22290  Z0.1000 
N22295 G1  Z-1.5000  
N22300  X129.8772   
N22305 G0  Z1.0000 
N22310  X130.3956  Y48.5871 
N22315  Z0.1000 
N22320 G1  Z-1.0000  
N22325  Y52.8038   
N22330 G0  Z1.0000 
N22335  Y48.5871 
N22340  Z0.1000 
N22345 G1  Z-1.5000  
N22350  Y52.8038   
N22355 G0  Z1.0000 
N22360  X132.0890  Y48.5871 
N22365  Z0.1000 
N22370 G1  Z-1.0000  
N22375  Y52.8038   
N22380 G0  Z1.0000 
N22385  Y48.5871 
N22390  Z0.1000 
N22395 G1  Z-1.5000  
N22400  Y52.8038   
N22405 G0  Z1.0000 
N22410  X133.7823  Y48.5871 
N22415  Z0.1000 
N22420 G1  Z-1.0000  
N22425  Y52.8038   
N22430 G0  Z1.0000 
N22435  Y48.5871 
N22440  Z0.1000 
N22445 G1  Z-1.5000  
N22450  Y52.8038   
N22455 G0  Z1.0000 
N22460  X135.4756  Y48.5871 
N22465  Z0.1000 
N22470 G1  Z-1.0000  
N22475  Y52.8038   
N22480 G0  Z1.0000 
N22485  Y48.5871 
N22490  Z0.1000 
N22495 G1  Z-1.5000  
N22500  Y52.8038   
N22505 G0  Z1.0000 
N22510  X137.1690  Y48.5871 
N22515  Z0.1000 
N22520 G1  Z-1.0000  
N22525  Y52.8038   
N22530 G0  Z1.0000 
N22535  Y48.5871 
N22540  Z0.1000 
N22545 G1  Z-1.5000  
N22550  Y52.8038   
N22555 G0  Z1.0000 
N22560  X138.8623  Y48.5871 
N22565  Z0.1000 
N22570 G1  Z-1.0000  
N22575  Y52.8038   
N22580 G0  Z1.0000 
N22585  Y48.5871 
N22590  Z0.1000 
N22595 G1  Z-1.5000  
N22600  Y52.8038   
N22605 G0  Z1.0000 
N22610  X140.5556  Y48.5871 
N22615  Z0.1000 
N22620 G1  Z-1.0000  
N22625  Y52.8038   
N22630 G0  Z1.0000 
N22635  Y48.5871 
N22640  Z0.1000 
N22645 G1  Z-1.5000  
N22650  Y52.8038   
N22655 G0  Z1.0000 
N22660  X143.0956 
N22665  Z0.1000 
N22670 G1  Z-1.0000  
N22675  Y52.0935   
N22680 G0  Z1.0000 
N22685  Y52.8038 
N22690  Z0.1000 
N22695 G1  Z-1.5000  
N22700  Y52.0935   
N22705 G0  Z1.0000 
N22710  X142.2490  Y52.8038 
N22715  Z0.1000 
N22720 G1  Z-1.0000  
N22725  Y48.5871   
N22730 G0  Z1.0000 
N22735  Y52.8038 
N22740  Z0.1000 
N22745 G1  Z-1.5000  
N22750  Y48.5871   
N22755 G0  Z1.0000 
N22760  X141.4023  Y52.8038 
N22765  Z0.1000 
N22770 G1  Z-1.0000  
N22775  Y48.5871   
N22780 G0  Z1.0000 
N22785  Y52.8038 
N22790  Z0.1000 
N22795 G1  Z-1.5000  
N22800  Y48.5871   
N22805 G0  Z1.0000 
N22810  X139.7090  Y52.8038 
N22815  Z0.1000 
N22820 G1  Z-1.0000  
N22825  Y48.5871   
N22830 G0  Z1.0000 
N22835  Y52.8038 
N22840  Z0.1000 
N22845 G1  Z-1.5000  
N22850  Y48.5871   
N22855 G0  Z1.0000 
N22860  X138.0156  Y52.8038 
N22865  Z0.1000 
N22870 G1  Z-1.0000  
N22875  Y48.5871   
N22880 G0  Z1.0000 
N22885  Y52.8038 
N22890  Z0.1000 
N22895 G1  Z-1.5000  
N22900  Y48.5871   
N22905 G0  Z1.0000 
N22910  X136.3223  Y52.8038 
N22915  Z0.1000 
N22920 G1  Z-1.0000  
N22925  Y48.5871   
N22930 G0  Z1.0000 
N22935  Y52.8038 
N22940  Z0.1000 
N22945 G1  Z-1.5000  
N22950  Y48.5871   
N22955 G0  Z1.0000 
N22960  X134.6290  Y52.8038 
N22965  Z0.1000 
N22970 G1  Z-1.0000  
N22975  Y48.5871   
N22980 G0  Z1.0000 
N22985  Y52.8038 
N22990  Z0.1000 
N22995 G1  Z-1.5000  
N23000  Y48.5871   
N23005 G0  Z1.0000 
N23010  X132.9356  Y52.8038 
N23015  Z0.1000 
N23020 G1  Z-1.0000  
N23025  Y48.5871   
N23030 G0  Z1.0000 
N23035  Y52.8038 
N23040  Z0.1000 
N23045 G1  Z-1.5000  
N23050  Y48.5871   
N23055 G0  Z1.0000 
N23060  X131.2423  Y52.8038 
N23065  Z0.1000 
N23070 G1  Z-1.0000  
N23075  Y48.5871   
N23080 G0  Z1.0000 
N23085  Y52.8038 
N23090  Z0.1000 
N23095 G1  Z-1.5000  
N23100  Y48.5871   
N23105 G0  Z1.0000 
N23110  X125.1851  Y40.9803 
N23115  Z0.1000 
N23120 G1  Z-1.0000  
N23125  Y38.1724   
N23130 G0  Z1.0000 
N23135  Y40.9803 
N23140  Z0.1000 
N23145 G1  Z-1.5000  
N23150  Y38.1724   
N23155 G0  Z1.0000 
N23160  X120.1051  Y31.0043 
N23165  Z0.1000 
N23170 G1  Z-1.0000  
N23175  Y37.7105   
N23180  X125.1044  Y37.7087   
N23185 G0  Z1.0000 
N23190  X120.1051  Y31.0043 
N23195  Z0.1000 
N23200 G1  Z-1.5000  
N23205  Y37.7105   
N23210  X125.1044  Y37.7087   
N23215 G0  Z1.0000 
N23220  X119.2584  Y30.5377 
N23225  Z0.1000 
N23230 G1  Z-1.0000  
N23235  Y36.0842   
N23240  X124.5813  Y36.0153   
N23245 G0  Z1.0000 
N23250  X119.2584  Y30.5377 
N23255  Z0.1000 
N23260 G1  Z-1.5000  
N23265  Y36.0842   
N23270  X124.5813  Y36.0153   
N23275 G0  Z1.0000 
N23280  X117.4086  Y43.6353 
N23285  Z0.1000 
N23290 G1  Z-1.0000  
N23295  X124.3252   
N23300  X124.3384  Y35.4888   
N23305 G0  Z1.0000 
N23310  X117.4086  Y43.6353 
N23315  Z0.1000 
N23320 G1  Z-1.5000  
N23325  X124.3252   
N23330  X124.3384  Y35.4888   
N23335 G0  Z1.0000 
N23340  X123.4918  Y44.9136 
N23345  Z0.1000 
N23350 G1  Z-1.0000  
N23355  Y34.0835   
N23360 G0  Z1.0000 
N23365  Y44.9136 
N23370  Z0.1000 
N23375 G1  Z-1.5000  
N23380  Y34.0835   
N23385 G0  Z1.0000 
N23390  X122.6451  Y45.8518 
N23395  Z0.1000 
N23400 G1  Z-1.0000  
N23405  Y33.0473   
N23410 G0  Z1.0000 
N23415  Y45.8518 
N23420  Z0.1000 
N23425 G1  Z-1.5000  
N23430  Y33.0473   
N23435 G0  Z1.0000 
N23440  X121.7984  Y46.5837 
N23445  Z0.1000 
N23450 G1  Z-1.0000  
N23455  Y32.2272   
N23460 G0  Z1.0000 
N23465  Y46.5837 
N23470  Z0.1000 
N23475 G1  Z-1.5000  
N23480  Y32.2272   
N23485 G0  Z1.0000 
N23490  X120.9518  Y47.1786 
