N5 (File Name = assbot_logo-milled on Monday, August 05, 2013)
N10 (Default Mill Post)
N15  G91.1
N20 M5 M9
N25 M6 T3(TOOL Change 1.3mm-dremel-straight)
N30 G43 H3
N35 G0  Z1.0000 
N40 M3 
N45  X11.2783  Y10.1949 
N50  Z0.1000 
N55 G1  Z-2.0000  F500.00 
N60  X15.2343  Y17.1737   
N65  X19.1902  Y24.1526   
N70  X23.1462  Y31.1315   
N75  X27.1021  Y38.1103   
N80  X31.0581  Y45.0892   
N85  X35.0141  Y52.0681   
N90  X38.9700  Y59.0469   
N95  X42.9260  Y66.0258   
N100  X44.0256   
N105  X45.1253   
N110  X46.2250   
N115  X47.3247   
N120  X48.4243   
N125  X49.5240   
N130  X50.6237   
N135  X51.7233   
N140  X52.8754  Y59.0469   
N145  X54.0274  Y52.0681   
N150  X55.1794  Y45.0892   
N155  X56.3315  Y38.1103   
N160  X57.4835  Y31.1315   
N165  X58.6356  Y24.1526   
N170  X59.7876  Y17.1737   
N175  X60.9396  Y10.1949   
N180  X60.0351   
N185  X59.1306   
N190  X58.2262   
N195  X57.3217   
N200  X56.4172   
N205  X55.5127   
N210  X54.6082   
N215  X53.7037   
N220  X53.3657  Y12.2038   
N225  X53.0277  Y14.2127   
N230  X52.6897  Y16.2216   
N235  X52.3517  Y18.2306   
N240  X52.0137  Y20.2395   
N245  X51.6757  Y22.2484   
N250  X51.3377  Y24.2573   
N255  X50.9997  Y26.2663   
N260  X48.1768   
N265  X45.3538   
N270  X42.5309   
N275  X39.7079   
N280  X36.8849   
N285  X34.0620   
N290  X31.2390   
N295  X28.4160   
N300  X27.2973  Y24.2573   
N305  X26.1786  Y22.2484   
N310  X25.0599  Y20.2395   
N315  X23.9412  Y18.2306   
N320  X22.8225  Y16.2216   
N325  X21.7038  Y14.2127   
N330  X20.5850  Y12.2038   
N335  X19.4663  Y10.1949   
N340  X18.4428   
N345  X17.4193   
N350  X16.3958   
N355  X15.3723   
N360  X14.3488   
N365  X13.3253   
N370  X12.3018   
N375  X11.2783   
N380 G0  Z1.0000 
N385  X40.7933  Y48.5453 
N390  Z0.1000 
N395 G1  Z-2.0000  
N400  X31.6151  Y32.0169   
N405 G0  Z1.0000 
N410  X43.2306  Y52.9376 
N415  Z0.1000 
N420 G1  Z-2.0000  
N425  X40.7933  Y48.5453   
N430 G0  Z1.0000 
N435  X16.9124  Y13.0013 
N440  Z0.1000 
N445 G1  Z-2.0000  
N450  X38.8704  Y52.1529   
N455 G0  Z1.0000 
N460  X47.9150  Y46.0318 
N465  Z0.1000 
N470 G1  Z-2.0000  
N475  X47.0771  Y51.5920   
N480  X46.5566  Y56.2255   
N485  X46.3535  Y59.9324   
N490  X45.0840  Y56.7333   
N495  X43.2306  Y52.9376   
N500 G0  Z1.0000 
N505  X39.4607  Y58.7703 
N510  Z0.1000 
N515 G1  Z-2.0000  
N520  X39.9352  Y59.6064   
N525  X40.4097  Y60.4425   
N530  X40.8842  Y61.2786   
N535  X41.3587  Y62.1147   
N540  X41.8331  Y62.9507   
N545  X42.3076  Y63.7868   
N550  X42.7821  Y64.6229   
N555  X43.2566  Y65.4590   
N560  X44.2550   
N565  X45.2533   
N570  X46.2517   
N575  X47.2500   
N580  X48.2484   
N585  X49.2468   
N590  X50.2451   
N595  X51.2435   
N600  X52.3731  Y58.6214   
N605  X53.5022  Y51.7837   
N610  X54.6310  Y44.9460   
N615  X55.7596  Y38.1083   
N620  X56.8881  Y31.2705   
N625  X58.0167  Y24.4327   
N630  X59.1454  Y17.5950   
N635  X60.2746  Y10.7573   
N640  X59.5135   
N645  X58.7523   
N650  X57.9912   
N655  X57.2301   
N660  X56.4690   
N665  X55.7079   
N670  X54.9468   
N675  X54.1856   
N680  X53.8460  Y12.7663   
N685  X53.5067  Y14.7752   
N690  X53.1675  Y16.7842   
N695  X52.8287  Y18.7932   
N700  X52.4901  Y20.8023   
N705  X52.1518  Y22.8115   
N710  X51.8139  Y24.8206   
N715  X51.4763  Y26.8299   
N720  X48.5527   
N725  X45.6290   
N730  X42.7054   
N735  X39.7817   
N740  X36.8581   
N745  X33.9345   
N750  X31.0108   
N755  X28.0872   
N760  X26.9654  Y24.8223   
N765  X25.8450  Y22.8139   
N770  X24.7257  Y20.8048   
N775  X23.6072  Y18.7954   
N780  X22.4891  Y16.7858   
N785  X21.3710  Y14.7761   
N790  X20.2527  Y12.7665   
N795  X19.1337  Y10.7573   
N800  X18.2729   
N805  X17.4121   
N810  X16.5514   
N815  X15.6906   
N820  X14.8298   
N825  X13.9690   
N830  X13.1083   
N835  X12.2475   
N840  X15.6483  Y16.7594   
N845  X19.0499  Y22.7611   
N850  X22.4519  Y28.7625   
N855  X25.8541  Y34.7638   
N860  X29.2564  Y40.7651   
N865  X32.6584  Y46.7665   
N870  X36.0599  Y52.7682   
N875  X39.4607  Y58.7703   
N880 G0  Z1.0000 
N885  X43.2778  Y64.3442 
N890  Z0.1000 
N895 G1  Z-2.0000  
N900  X43.3166  Y64.4130   
N905  X43.3554  Y64.4818   
N910  X43.3942  Y64.5506   
N915  X43.4330  Y64.6194   
N920  X43.4718  Y64.6882   
N925  X43.5106  Y64.7570   
N930  X43.5494  Y64.8258   
N935  X43.5882  Y64.8945   
N940  X44.4852   
N945  X45.3821   
N950  X46.2790   
N955  X47.1760   
N960  X48.0729   
N965  X48.9698   
N970  X49.8668   
N975  X50.7637   
N980  X51.8702  Y58.1980   
N985  X52.9759  Y51.5014   
N990  X54.0813  Y44.8047   
N995  X55.1864  Y38.1080   
N1000  X56.2918  Y31.4113   
N1005  X57.3975  Y24.7147   
N1010  X58.5039  Y18.0181   
N1015  X59.6114  Y11.3218   
N1020  X58.9931   
N1025  X58.3749   
N1030  X57.7566   
N1035  X57.1384   
N1040  X56.5201   
N1045  X55.9019   
N1050  X55.2837   
N1055  X54.6654   
N1060  X54.3256  Y13.3307   
N1065  X53.9861  Y15.3396   
N1070  X53.6469  Y17.3486   
N1075  X53.3080  Y19.3576   
N1080  X52.9695  Y21.3667   
N1085  X52.6313  Y23.3758   
N1090  X52.2935  Y25.3851   
N1095  X51.9561  Y27.3943   
N1100  X48.9310   
N1105  X45.9060   
N1110  X42.8809   
N1115  X39.8558   
N1120  X36.8308   
N1125  X33.8057   
N1130  X30.7806   
N1135  X27.7556   
N1140  X26.6338  Y25.3867   
N1145  X25.5134  Y23.3783   
N1150  X24.3941  Y21.3693   
N1155  X23.2756  Y19.3599   
N1160  X22.1575  Y17.3502   
N1165  X21.0394  Y15.3405   
N1170  X19.9211  Y13.3310   
N1175  X18.8021  Y11.3218   
N1180  X18.1036   
N1185  X17.4051   
N1190  X16.7066   
N1195  X16.0081   
N1200  X15.3096   
N1205  X14.6111   
N1210  X13.9126   
N1215  X13.2141   
N1220  X16.9735  Y17.9486   
N1225  X20.7332  Y24.5792   
N1230  X24.4927  Y31.2119   
N1235  X28.2518  Y37.8449   
N1240  X32.0101  Y44.4763   
N1245  X35.7675  Y51.1046   
N1250  X39.5234  Y57.7278   
N1255  X43.2778  Y64.3442   
N1260 G0  Z1.0000 
N1265  X43.8845  Y64.2737 
N1270  Z0.1000 
N1275 G1  Z-2.0000  
N1280  X44.6665  Y64.3124   
N1285  X45.4589  Y64.3328   
N1290  X46.2591  Y64.3395   
N1295  X47.0645  Y64.3373   
N1300  X47.8723  Y64.3304   
N1305  X48.6799  Y64.3239   
N1310  X49.4847  Y64.3222   
N1315  X50.2839  Y64.3301   
N1320  X51.3688  Y57.7749   
N1325  X52.4518  Y51.2194   
N1330  X53.5335  Y44.6637   
N1335  X54.6147  Y38.1079   
N1340  X55.6960  Y31.5522   
N1345  X56.7782  Y24.9966   
N1350  X57.8620  Y18.4412   
N1355  X58.9481  Y11.8862   
N1360  X58.4728   
N1365  X57.9974   
N1370  X57.5220   
N1375  X57.0467   
N1380  X56.5713   
N1385  X56.0959   
N1390  X55.6206   
N1395  X55.1452   
N1400  X54.8054  Y13.8951   
N1405  X54.4659  Y15.9040   
N1410  X54.1267  Y17.9130   
N1415  X53.7878  Y19.9221   
N1420  X53.4493  Y21.9311   
N1425  X53.1111  Y23.9403   
N1430  X52.7733  Y25.9495   
N1435  X52.4359  Y27.9588   
N1440  X49.3094   
N1445  X46.1829   
N1450  X43.0564   
N1455  X39.9299   
N1460  X36.8034   
N1465  X33.6769   
N1470  X30.5505   
N1475  X27.4240   
N1480  X26.3022  Y25.9512   
N1485  X25.1818  Y23.9428   
N1490  X24.0625  Y21.9337   
N1495  X22.9440  Y19.9243   
N1500  X21.8259  Y17.9146   
N1505  X20.7078  Y15.9049   
N1510  X19.5895  Y13.8954   
N1515  X18.4705  Y11.8862   
N1520  X17.9351   
N1525  X17.3998   
N1530  X16.8645   
N1535  X16.3291   
N1540  X15.7938   
N1545  X15.2584   
N1550  X14.7231   
N1555  X14.1878   
N1560  X17.9007  Y18.4342   
N1565  X21.6131  Y24.9828   
N1570  X25.3251  Y31.5318   
N1575  X29.0369  Y38.0810   
N1580  X32.7486  Y44.6301   
N1585  X36.4603  Y51.1787   
N1590  X40.1723  Y57.7267   
N1595  X43.8845  Y64.2737   
N1600 G0  Z1.0000 
N1605  X44.6959  Y63.7445 
N1610  Z0.1000 
N1615 G1  Z-2.0000  
N1620  Y63.7444   
N1625  X44.8141  Y63.7469   
N1630  X44.9323  Y63.7503   
N1635  X45.0504  Y63.7541   
N1640  X45.1686  Y63.7580   
N1645  X45.2868  Y63.7614   
N1650  X45.4050  Y63.7640   
N1655  X45.5232  Y63.7657   
N1660  X45.6414  Y63.7656   
N1665  X43.6956  Y59.3736   
N1670  X41.6073  Y55.0516   
N1675  X39.4072  Y50.7848   
N1680  X37.1258  Y46.5583   
N1685  X34.7936  Y42.3572   
N1690  X32.4412  Y38.1667   
N1695  X30.0991  Y33.9718   
N1700  X27.7979  Y29.7579   
N1705  X30.9120   
N1710  X34.0262   
N1715  X37.1403   
N1720  X40.2545   
N1725  X43.3686   
N1730  X46.4828   
N1735  X49.5969   
N1740  X52.7110   
N1745  X52.5462  Y30.8478   
N1750  X52.3814  Y31.9378   
N1755  X52.2163  Y33.0278   
N1760  X52.0505  Y34.1176   
N1765  X51.8839  Y35.2073   
N1770  X51.7160  Y36.2969   
N1775  X51.5466  Y37.3861   
N1780  X51.3753  Y38.4751   
N1785  X50.8702  Y41.3969   
N1790  X50.4156  Y44.3251   
N1795  X50.0041  Y47.2585   
N1800  X49.6287  Y50.1962   
N1805  X49.2821  Y53.1374   
N1810  X48.9572  Y56.0808   
N1815  X48.6467  Y59.0257   
N1820  X48.3434  Y61.9710   
N1825  X48.2032  Y62.4847   
N1830  X48.1495  Y62.9196   
N1835  X48.1853  Y63.2737   
N1840  X48.3132  Y63.5448   
N1845  X48.5363  Y63.7309   
N1850  X48.8573  Y63.8299   
N1855  X49.2789  Y63.8398   
N1860  X49.8042  Y63.7585   
N1865  X50.8589  Y57.4013   
N1870  X51.9099  Y51.0435   
N1875  X52.9585  Y44.6854   
N1880  X54.0060  Y38.3270   
N1885  X55.0537  Y31.9687   
N1890  X56.1028  Y25.6106   
N1895  X57.1548  Y19.2530   
N1900  X58.2109  Y12.8960   
N1905  X58.1571  Y12.6119   
N1910  X57.9521  Y12.4561   
N1915  X57.6329  Y12.3970   
N1920  X57.2368  Y12.4032   
N1925  X56.8007  Y12.4431   
N1930  X56.3620  Y12.4853   
N1935  X55.9577  Y12.4983   
N1940  X55.6250  Y12.4506   
N1945  X55.2852  Y14.4595   
N1950  X54.9457  Y16.4684   
N1955  X54.6065  Y18.4774   
N1960  X54.2676  Y20.4864   
N1965  X53.9291  Y22.4955   
N1970  X53.5909  Y24.5047   
N1975  X53.2531  Y26.5139   
N1980  X52.9156  Y28.5232   
N1985  X49.6877   
N1990  X46.4598   
N1995  X43.2319   
N2000  X40.0040   
N2005  X36.7761   
N2010  X33.5482   
N2015  X30.3203   
N2020  X27.0923   
N2025  X25.9981  Y26.5648   
N2030  X24.9051  Y24.6057   
N2035  X23.8133  Y22.6461   
N2040  X22.7222  Y20.6860   
N2045  X21.6315  Y18.7256   
N2050  X20.5409  Y16.7653   
N2055  X19.4501  Y14.8050   
N2060  X18.3587  Y12.8451   
N2065  X18.0769  Y12.5937   
N2070  X17.7283  Y12.4558   
N2075  X17.3295  Y12.4037   
N2080  X16.8967  Y12.4093   
N2085  X16.4464  Y12.4447   
N2090  X15.9950  Y12.4820   
N2095  X15.5588  Y12.4933   
N2100  X15.1544  Y12.4507   
N2105  X18.5820  Y18.4899   
N2110  X22.0080  Y24.5298   
N2115  X25.4327  Y30.5705   
N2120  X28.8567  Y36.6115   
N2125  X32.2803  Y42.6529   
N2130  X35.7039  Y48.6944   
N2135  X39.1280  Y54.7359   
N2140  X42.5530  Y60.7772   
N2145  X42.8226  Y61.1452   
N2150  X43.0534  Y61.5766   
N2155  X43.2645  Y62.0401   
N2160  X43.4751  Y62.5045   
N2165  X43.7043  Y62.9385   
N2170  X43.9714  Y63.3106   
N2175  X44.2956  Y63.5898   
N2180  X44.6959  Y63.7445   
N2185 G0  Z1.0000 
N2190  X47.5605  Y63.8644 
N2195  Z0.1000 
N2200 G1  Z-2.0000  
N2205  X47.8699  Y61.1639   
N2210  X48.1566  Y58.4596   
N2215  X48.4348  Y55.7536   
N2220  X48.7189  Y53.0478   
N2225  X49.0231  Y50.3440   
N2230  X49.3618  Y47.6443   
N2235  X49.7493  Y44.9504   
N2240  X50.1999  Y42.2645   
N2245  X50.4390  Y40.7729   
N2250  X50.6765  Y39.2811   
N2255  X50.9122  Y37.7889   
N2260  X51.1458  Y36.2964   
N2265  X51.3771  Y34.8035   
N2270  X51.6059  Y33.3102   
N2275  X51.8319  Y31.8165   
N2280  X52.0549  Y30.3224   
N2285  X49.1418   
N2290  X46.2288   
N2295  X43.3157   
N2300  X40.4026   
N2305  X37.4896   
N2310  X34.5765   
N2315  X31.6635   
N2320  X28.7504   
N2325  X30.9722  Y34.3764   
N2330  X33.2280  Y38.4138   
N2335  X35.4910  Y42.4478   
N2340  X37.7343  Y46.4920   
N2345  X39.9311  Y50.5599   
N2350  X42.0545  Y54.6649   
N2355  X44.0777  Y58.8205   
N2360  X45.9738  Y63.0403   
N2365  X46.0548  Y63.3307   
N2370  X46.2117  Y63.6417   
N2375  X46.4233  Y63.9361   
N2380  X46.6683  Y64.1770   
N2385  X46.9258  Y64.3273   
N2390  X47.1744  Y64.3499   
N2395  X47.3930  Y64.2080   
N2400  X47.5605  Y63.8644   
N2405 G0  Z1.0000 
N2410  X48.9575  Y63.2647 
N2415  Z0.1000 
N2420 G1  Z-2.0000  
N2425  X49.0463  Y63.2719   
N2430  X49.1351  Y63.2792   
N2435  X49.2227  Y63.2719   
N2440  X49.3103  Y63.2647   
N2445  X51.3161  Y51.1355   
N2450  X53.3219  Y39.0062   
N2455  X55.3272  Y26.8768   
N2460  X57.3325  Y14.7475   
N2465  X57.4118  Y13.9735   
N2470  X57.4911  Y13.1995   
N2475  X56.7944  Y13.1285   
N2480  X56.0977  Y13.0575   
N2485  X55.4207  Y17.0648   
N2490  X54.7438  Y21.0721   
N2495  X54.0696  Y25.0799   
N2500  X53.3954  Y29.0877   
N2505  X46.7368   
N2510  X40.0781   
N2515  X33.4194   
N2520  X26.7607   
N2525  X24.7379  Y25.4614   
N2530  X22.7150  Y21.8351   
N2535  X20.6956  Y18.2069   
N2540  X18.6762  Y14.5787   
N2545  X18.2137  Y13.8837   
N2550  X17.7513  Y13.1887   
N2555  X16.9432  Y13.1125   
N2560  X16.1351  Y13.0363   
N2565  X22.7730  Y24.7389   
N2570  X29.4110  Y36.4416   
N2575  X36.0435  Y48.1473   
N2580  X42.6760  Y59.8530   
N2585  X43.1597  Y60.7215   
N2590  X43.6433  Y61.5900   
N2595  X44.2014  Y62.3745   
N2600  X44.7594  Y63.1589   
N2605  X40.4628  Y54.5749   
N2610  X36.1662  Y45.9909   
N2615  X31.5058  Y37.5922   
N2620  X26.8454  Y29.1935   
N2625  X33.4759   
N2630  X40.1063   
N2635  X46.7368   
N2640  X53.3672   
N2645  X53.1531  Y30.6059   
N2650  X52.9391  Y32.0183   
N2655  X52.7244  Y33.4306   
N2660  X52.5096  Y34.8429   
N2665  X51.5267  Y41.2315   
N2670  X50.5437  Y47.6201   
N2675  X49.8068  Y54.0390   
N2680  X49.0698  Y60.4579   
N2685  X48.9705  Y61.2047   
N2690  X48.8713  Y61.9516   
N2695  X48.9144  Y62.6081   
N2700  X48.9575  Y63.2647   
N2705 G0  Z1.0000 
N2710  X47.2430  Y62.0018 
N2715  Z0.1000 
N2720 G1  Z-2.0000  
N2725  X47.4691  Y59.6291   
N2730  X47.6989  Y57.2574   
N2735  X47.9384  Y54.8872   
N2740  X48.1940  Y52.5189   
N2745  X48.4720  Y50.1531   
N2750  X48.7785  Y47.7902   
N2755  X49.1199  Y45.4306   
N2760  X49.5023  Y43.0748   
N2765  X49.7438  Y41.5521   
N2770  X49.9855  Y40.0293   
N2775  X50.2266  Y38.5065   
N2780  X50.4664  Y36.9834   
N2785  X50.7042  Y35.4600   
N2790  X50.9394  Y33.9362   
N2795  X51.1711  Y32.4118   
N2800  X51.3987  Y30.8868   
N2805  X48.6867   
N2810  X45.9748   
N2815  X43.2628   
N2820  X40.5508   
N2825  X37.8388   
N2830  X35.1269   
N2835  X32.4149   
N2840  X29.7029   
N2845  X31.8099  Y34.7430   
N2850  X33.9571  Y38.5801   
N2855  X36.1158  Y42.4120   
N2860  X38.2575  Y46.2528   
N2865  X40.3533  Y50.1164   
N2870  X42.3747  Y54.0168   
N2875  X44.2929  Y57.9681   
N2880  X46.0794  Y61.9842   
N2885  X46.3813  Y62.5788   
N2890  X46.6138  Y63.0917   
N2895  X46.7894  Y63.4793   
N2900  X46.9203  Y63.6976   
N2905  X47.0189  Y63.7028   
N2910  X47.0973  Y63.4511   
N2915  X47.1679  Y62.8987   
N2920  X47.2430  Y62.0018   
N2925 G0  Z1.0000 
N2930  X46.9184  Y59.9698 
N2935  Z0.1000 
N2940 G1  Z-2.0000  
N2945  X47.1943  Y56.3826   
N2950  X47.5690  Y52.8064   
N2955  X48.0220  Y49.2389   
N2960  X48.5328  Y45.6778   
N2965  X49.0808  Y42.1209   
N2970  X49.6455  Y38.5656   
N2975  X50.2062  Y35.0099   
N2980  X50.7425  Y31.4513   
N2985  X48.2316   
N2990  X45.7208   
N2995  X43.2099   
N3000  X40.6990   
N3005  X38.1881   
N3010  X35.6772   
N3015  X33.1663   
N3020  X30.6554   
N3025  X32.3965  Y34.6371   
N3030  X34.1665  Y37.8080   
N3035  X35.9492  Y40.9724   
N3040  X37.7280  Y44.1387   
N3045  X39.4866  Y47.3155   
N3050  X41.2086  Y50.5110   
N3055  X42.8776  Y53.7338   
N3060  X44.4772  Y56.9923   
N3065  X44.7580  Y57.6087   
N3070  X45.0293  Y58.2291   
N3075  X45.2952  Y58.8518   
N3080  X45.5598  Y59.4750   
N3085  X45.8271  Y60.0971   
N3090  X46.1011  Y60.7161   
N3095  X46.3859  Y61.3304   
N3100  X46.6856  Y61.9383   
N3105  X46.7147  Y61.6922   
N3110  X46.7438  Y61.4461   
N3115  X46.7729  Y61.2001   
N3120  X46.8020  Y60.9540   
N3125  X46.8311  Y60.7080   
N3130  X46.8602  Y60.4619   
N3135  X46.8893  Y60.2158   
N3140  X46.9184  Y59.9698   
N3145 G0  Z1.0000 
N3150  X56.9961  Y12.3798 
N3155  Z0.1000 
N3160 G1  Z-2.0000  
N3165  X49.9530  Y56.6066   
N3170 G0  Z1.0000 
N3175  X31.6151  Y32.0169 
N3180  Z0.1000 
N3185 G1  Z-2.0000  
N3190  X50.0857   
N3195  X47.9150  Y46.0318   
N3200 G0  Z1.0000 
N3205  X61.3173  Y34.0967 
N3210  Z0.1000 
N3215 G1  Z-2.0000  
N3220  Y34.0966   
N3225 G0  Z0.1000 
N3230 G1  Z-2.0000  
N3235  X61.3175  Y34.0967   
N3240 G0  Z0.1000 
N3245 G1  Z-2.0000  
N3250  X61.3199  Y33.3681   
N3255 G0  Z0.1000 
N3260 G1  Z-2.0000  
N3265  X61.3477  Y32.6676   
N3270 G0  Z1.0000 
N3275  X61.3175  Y34.0967 
N3280  Z0.1000 
N3285 G1  Z-2.0000  
N3290  X61.3201  Y33.3681   
N3295  X61.3479  Y32.6676   
N3300  X61.4010  Y31.9951   
N3305 G0  Z0.1000 
N3310 G1  Z-2.0000  
N3315  X61.4542  Y31.3226   
N3320 G0  Z1.0000 
N3325  X61.3477  Y32.6676 
N3330  Z0.1000 
N3335 G1  Z-2.0000  
N3340  X61.4009  Y31.9951   
N3345  X61.4540  Y31.3226   
N3350  X61.5324  Y30.6781   
N3355 G0  Z0.1000 
N3360 G1  Z-2.0000  
N3365  X61.6360  Y30.0616   
N3370 G0  Z1.0000 
N3375  X61.4542  Y31.3226 
N3380  Z0.1000 
N3385 G1  Z-2.0000  
N3390  X61.5325  Y30.6781   
N3395  X61.6362  Y30.0616   
N3400  X61.7399  Y29.4452   
N3405 G0  Z1.0000 
N3410  X61.6360  Y30.0616 
N3415  Z0.1000 
N3420 G1  Z-2.0000  
N3425  X61.7397  Y29.4451   
N3430 G0  Z0.1000 
N3435 G1  Z-2.0000  
N3440  X61.8686  Y28.8567   
N3445 G0  Z1.0000 
N3450  X61.7399  Y29.4452 
N3455  Z0.1000 
N3460 G1  Z-2.0000  
N3465  X61.8688  Y28.8567   
N3470  X62.0230  Y28.2963   
N3475 G0  Z1.0000 
N3480  X63.6034  Y27.8940 
N3485  Z0.1000 
N3490 G1  Z-2.0000  
N3495  X63.4093  Y28.4241   
N3500  X63.2481  Y28.9684   
N3505 G0  Z0.1000 
N3510 G1  Z-2.0000  
N3515  X63.1188  Y29.5193   
N3520 G0  Z0.1000 
N3525 G1  Z-2.0000  
N3530  X62.9894  Y30.0701   
N3535  X62.8920  Y30.6275   
N3540  X62.8252  Y31.1837   
N3545 G0  Z0.1000 
N3550 G1  Z-2.0000  
N3555  X62.7584  Y31.7400   
N3560  X62.7223  Y32.2950   
N3565 G0  Z0.1000 
N3570 G1  Z-2.0000  
N3575  X62.7158  Y32.8412   
N3580 G0  Z0.1000 
N3585 G1  Z-2.0000  
N3590  X62.8397  Y32.8636   
N3595  X62.9641  Y32.8837   
N3600  X63.0891  Y32.9018   
N3605  X63.2140  Y32.9199   
N3610  X63.3395  Y32.9361   
N3615  X63.4653  Y32.9506   
N3620  X63.5911  Y32.9651   
N3625  X63.7173  Y32.9780   
N3630 G0  Z0.1000 
N3635 G1  Z-2.0000  
N3640  X63.8438  Y32.9898   
N3645 G0  Z1.0000 
N3650  X64.0970  Y33.0120 
N3655  Z0.1000 
N3660 G1  Z-2.0000  
N3665  X63.9703  Y33.0015   
N3670  X63.8438  Y32.9898   
N3675 G0  Z1.0000 
N3680  X64.3509  Y33.0314 
N3685  Z0.1000 
N3690 G1  Z-2.0000  
N3695  X64.2240  Y33.0217   
N3700  X64.0970  Y33.0120   
N3705 G0  Z1.0000 
N3710  X64.4781  Y33.0403 
N3715  Z0.1000 
N3720 G1  Z-2.0000  
N3725  X64.3509  Y33.0314   
N3730 G0  Z1.0000 
N3735  X64.7325  Y33.0572 
N3740  Z0.1000 
N3745 G1  Z-2.0000  
N3750  X64.6053  Y33.0488   
N3755  X64.4781  Y33.0403   
N3760 G0  Z1.0000 
N3765  X64.8598  Y33.0652 
N3770  Z0.1000 
N3775 G1  Z-2.0000  
N3780  X64.7325  Y33.0572   
N3785 G0  Z1.0000 
N3790  X64.9871  Y33.0732 
N3795  Z0.1000 
N3800 G1  Z-2.0000  
N3805  X64.8598  Y33.0652   
N3810 G0  Z1.0000 
N3815  X65.2416  Y33.0891 
N3820  Z0.1000 
N3825 G1  Z-2.0000  
N3830  X65.1144  Y33.0811   
N3835  X64.9871  Y33.0732   
N3840 G0  Z1.0000 
N3845  X65.8671  Y32.6221 
N3850  Z0.1000 
N3855 G1  Z-2.0000  
N3860  X65.8493  Y32.7288   
N3865  X65.8276  Y32.8310   
N3870  X65.8059  Y32.9333   
N3875  X65.7804  Y33.0311   
N3880  X65.7497  Y33.1234   
N3885  X65.6229  Y33.1141   
N3890  X65.4959  Y33.1055   
N3895  X65.3687  Y33.0973   
N3900  X65.2416  Y33.0891   
N3905 G0  Z1.0000 
N3910  X65.8823  Y32.5123 
N3915  Z0.1000 
N3920 G1  Z-2.0000  
N3925  X65.8671  Y32.6221   
N3930 G0  Z1.0000 
N3935  X65.9521  Y31.8236 
N3940  Z0.1000 
N3945 G1  Z-2.0000  
N3950  X65.9423  Y31.9417   
N3955  X65.9325  Y32.0590   
N3960  X65.9213  Y32.1741   
N3965  X65.9100  Y32.2893   
N3970  X65.8975  Y32.4024   
N3975  X65.8823  Y32.5123   
N3980 G0  Z1.0000 
N3985  X65.9618  Y31.7054 
N3990  Z0.1000 
N3995 G1  Z-2.0000  
N4000  X65.9521  Y31.8236   
N4005 G0  Z1.0000 
N4010  X65.9931  Y31.3486 
N4015  Z0.1000 
N4020 G1  Z-2.0000  
N4025  X65.9823  Y31.4674   
N4030  X65.9715  Y31.5863   
N4035  X65.9618  Y31.7054   
N4040 G0  Z1.0000 
N4045  X66.0195  Y31.1127 
N4050  Z0.1000 
N4055 G1  Z-2.0000  
N4060  X66.0051  Y31.2300   
N4065  X65.9931  Y31.3486   
N4070 G0  Z1.0000 
N4075  X66.0711  Y30.7664 
N4080  Z0.1000 
N4085 G1  Z-2.0000  
N4090  X66.0507  Y30.8796   
N4095  X66.0339  Y30.9955   
N4100  X66.0195  Y31.1127   
N4105 G0  Z1.0000 
N4110  X66.0916  Y30.6531 
N4115  Z0.1000 
N4120 G1  Z-2.0000  
N4125  X66.0711  Y30.7664   
N4130 G0  Z1.0000 
N4135  X66.3842  Y29.3986 
N4140  Z0.1000 
N4145 G1  Z-2.0000  
N4150  X66.2392  Y29.9053   
N4155  X66.1448  Y30.4353   
N4160  X66.1157  Y30.5423   
N4165  X66.0916  Y30.6531   
N4170 G0  Z1.0000 
N4175  X66.5734  Y28.9162 
N4180  Z0.1000 
N4185 G1  Z-2.0000  
N4190  X66.3842  Y29.3986   
N4195 G0  Z1.0000 
N4200  X66.7627  Y28.4337 
N4205  Z0.1000 
N4210 G1  Z-2.0000  
N4215  X66.5734  Y28.9162   
N4220 G0  Z1.0000 
N4225  X66.9963  Y27.9755 
N4230  Z0.1000 
N4235 G1  Z-2.0000  
N4240  X66.7627  Y28.4337   
N4245 G0  Z1.0000 
N4250  X67.2680  Y27.5426 
N4255  Z0.1000 
N4260 G1  Z-2.0000  
N4265  X66.9963  Y27.9755   
N4270 G0  Z1.0000 
N4275  X67.5396  Y27.1096 
N4280  Z0.1000 
N4285 G1  Z-2.0000  
N4290  X67.2680  Y27.5426   
N4295 G0  Z1.0000 
N4300  X68.1908  Y26.3205 
N4305  Z0.1000 
N4310 G1  Z-2.0000  
N4315  X67.8493  Y26.7020   
N4320  X67.5396  Y27.1096   
N4325 G0  Z1.0000 
N4330  X68.5323  Y25.9391 
N4335  Z0.1000 
N4340 G1  Z-2.0000  
N4345  X68.1908  Y26.3205   
N4350 G0  Z1.0000 
N4355  X68.9055  Y25.5840 
N4360  Z0.1000 
N4365 G1  Z-2.0000  
N4370  X68.5323  Y25.9391   
N4375 G0  Z1.0000 
N4380  X71.9535  Y23.6243 
N4385  Z0.1000 
N4390 G1  Z-2.0000  
N4395  X71.4776  Y23.8390   
N4400  X71.0147  Y24.0830   
N4405  X70.5711  Y24.3553   
N4410  X70.1275  Y24.6277   
N4415  X69.7032  Y24.9283   
N4420  X69.3044  Y25.2561   
N4425  X68.9055  Y25.5840   
N4430 G0  Z1.0000 
N4435  X70.0211  Y26.3153 
N4440  Z0.1000 
N4445 G1  Z-2.0000  
N4450  X69.8544  Y26.4561   
N4455 G0  Z1.0000 
N4460  X70.1876  Y26.1745 
N4465  Z0.1000 
N4470 G1  Z-2.0000  
N4475  X70.0210  Y26.3153   
N4480 G0  Z1.0000 
N4485  X70.7288  Y25.7779 
N4490  Z0.1000 
N4495 G1  Z-2.0000  
N4500  X70.5457  Y25.9084   
N4505  X70.3626  Y26.0389   
N4510  X70.1877  Y26.1745   
N4515  X70.0211  Y26.3153   
N4520 G0  Z1.0000 
N4525  X71.1196  Y25.5325 
N4530  Z0.1000 
N4535 G1  Z-2.0000  
N4540  X70.9200  Y25.6526   
N4545  X70.7287  Y25.7779   
N4550  X70.5456  Y25.9084   
N4555  X70.3625  Y26.0389   
N4560  X70.1876  Y26.1745   
N4565 G0  Z1.0000 
N4570  X70.9201  Y25.6526 
N4575  Z0.1000 
N4580 G1  Z-2.0000  
N4585  X70.7288  Y25.7779   
N4590 G0  Z1.0000 
N4595  X71.1197  Y25.5325 
N4600  Z0.1000 
N4605 G1  Z-2.0000  
N4610  X70.9201  Y25.6526   
N4615 G0  Z1.0000 
N4620  X72.8864  Y24.6810 
N4625  Z0.1000 
N4630 G1  Z-2.0000  
N4635  X72.6484  Y24.7743   
N4640  X72.4158  Y24.8737   
N4645  X72.1833  Y24.9732   
N4650  X71.9591  Y25.0778   
N4655  X71.7430  Y25.1876   
N4660  X71.5270  Y25.2974   
N4665  X71.3192  Y25.4124   
N4670  X71.1196  Y25.5325   
N4675 G0  Z1.0000 
N4680  X71.3193  Y25.4124 
N4685  Z0.1000 
N4690 G1  Z-2.0000  
N4695  X71.1197  Y25.5325   
N4700 G0  Z1.0000 
N4705  X71.5271  Y25.2974 
N4710  Z0.1000 
N4715 G1  Z-2.0000  
N4720  X71.3193  Y25.4124   
N4725 G0  Z1.0000 
N4730  X71.7431  Y25.1876 
N4735  Z0.1000 
N4740 G1  Z-2.0000  
N4745  X71.5271  Y25.2974   
N4750 G0  Z1.0000 
N4755  X71.9592  Y25.0778 
N4760  Z0.1000 
N4765 G1  Z-2.0000  
N4770  X71.7431  Y25.1876   
N4775 G0  Z1.0000 
N4780  X72.1834  Y24.9732 
N4785  Z0.1000 
N4790 G1  Z-2.0000  
N4795  X71.9592  Y25.0778   
N4800 G0  Z1.0000 
N4805  X72.4160  Y24.8737 
N4810  Z0.1000 
N4815 G1  Z-2.0000  
N4820  X72.1834  Y24.9732   
N4825 G0  Z1.0000 
N4830  X72.6485  Y24.7743 
N4835  Z0.1000 
N4840 G1  Z-2.0000  
N4845  X72.4160  Y24.8737   
N4850 G0  Z1.0000 
N4855  X72.8865  Y24.6810 
N4860  Z0.1000 
N4865 G1  Z-2.0000  
N4870  X72.6485  Y24.7743   
N4875 G0  Z1.0000 
N4880  X73.1298  Y24.5940 
N4885  Z0.1000 
N4890 G1  Z-2.0000  
N4895  X72.8864  Y24.6810   
N4900 G0  Z1.0000 
N4905  X73.3734  Y24.5070 
N4910  Z0.1000 
N4915 G1  Z-2.0000  
N4920  X73.1299  Y24.5940   
N4925  X72.8865  Y24.6810   
N4930 G0  Z1.0000 
N4935  X73.8768  Y24.3516 
N4940  Z0.1000 
N4945 G1  Z-2.0000  
N4950  X73.6223  Y24.4262   
N4955  X73.3733  Y24.5070   
N4960  X73.1298  Y24.5940   
N4965 G0  Z1.0000 
N4970  X74.6568  Y24.1464 
N4975  Z0.1000 
N4980 G1  Z-2.0000  
N4985  X74.3913  Y24.2086   
N4990  X74.1314  Y24.2770   
N4995  X73.8769  Y24.3516   
N5000  X73.6224  Y24.4262   
N5005  X73.3734  Y24.5070   
N5010 G0  Z1.0000 
N5015  X74.3912  Y24.2086 
N5020  Z0.1000 
N5025 G1  Z-2.0000  
N5030  X74.1313  Y24.2770   
N5035  X73.8768  Y24.3516   
N5040 G0  Z1.0000 
N5045  X74.9221  Y24.0843 
N5050  Z0.1000 
N5055 G1  Z-2.0000  
N5060  X74.6567  Y24.1464   
N5065  X74.3912  Y24.2086   
N5070 G0  Z1.0000 
N5075  X76.0279  Y23.8853 
N5080  Z0.1000 
N5085 G1  Z-2.0000  
N5090  X75.7460  Y23.9288   
N5095  X75.4696  Y23.9786   
N5100  X75.1932  Y24.0283   
N5105  X74.9222  Y24.0843   
N5110  X74.6568  Y24.1464   
N5115 G0  Z1.0000 
N5120  X75.4695  Y23.9786 
N5125  Z0.1000 
N5130 G1  Z-2.0000  
N5135  X75.1931  Y24.0283   
N5140  X74.9221  Y24.0843   
N5145 G0  Z1.0000 
N5150  X75.4695  Y23.9786 
N5155  Z0.1000 
N5160 G1  Z-2.0000  
N5165  X75.7459  Y23.9288   
N5170 G0  Z1.0000 
N5175  X76.0278  Y23.8853 
N5180  Z0.1000 
N5185 G1  Z-2.0000  
N5190  X75.7459  Y23.9288   
N5195 G0  Z1.0000 
N5200  X76.8955  Y23.7796 
N5205  Z0.1000 
N5210 G1  Z-2.0000  
N5215  X76.6026  Y23.8107   
N5220  X76.3152  Y23.8480   
N5225  X76.0278  Y23.8853   
N5230 G0  Z1.0000 
N5235  X76.3153  Y23.8480 
N5240  Z0.1000 
N5245 G1  Z-2.0000  
N5250  X76.0279  Y23.8853   
N5255 G0  Z1.0000 
N5260  X77.1940  Y23.7548 
N5265  Z0.1000 
N5270 G1  Z-2.0000  
N5275  X76.8957  Y23.7796   
N5280  X76.6028  Y23.8107   
N5285  X76.3153  Y23.8480   
N5290 G0  Z1.0000 
N5295  X77.7962  Y23.7113 
N5300  Z0.1000 
N5305 G1  Z-2.0000  
N5310  X77.4923  Y23.7299   
N5315  X77.1939  Y23.7548   
N5320  X76.8955  Y23.7796   
N5325 G0  Z1.0000 
N5330  X77.7963  Y23.7113 
N5335  Z0.1000 
N5340 G1  Z-2.0000  
N5345  X77.4924  Y23.7299   
N5350  X77.1940  Y23.7548   
N5355 G0  Z1.0000 
N5360  X78.1056  Y23.6988 
N5365  Z0.1000 
N5370 G1  Z-2.0000  
N5375  X77.7962  Y23.7113   
N5380 G0  Z1.0000 
N5385  X79.0503  Y23.6802 
N5390  Z0.1000 
N5395 G1  Z-2.0000  
N5400  X78.7299   
N5405  X78.4150  Y23.6864   
N5410  X78.1057  Y23.6988   
N5415  X77.7963  Y23.7113   
N5420 G0  Z1.0000 
N5425  X79.0502  Y23.6802 
N5430  Z0.1000 
N5435 G1  Z-2.0000  
N5440  X78.7298   
N5445  X78.4149  Y23.6864   
N5450  X78.1056  Y23.6988   
N5455 G0  Z1.0000 
N5460  X79.5048  Y23.6802 
N5465  Z0.1000 
N5470 G1  Z-2.0000  
N5475  X79.0502   
N5480 G0  Z1.0000 
N5485  X79.5049  Y23.6802 
N5490  Z0.1000 
N5495 G1  Z-2.0000  
N5500  X79.0503   
N5505 G0  Z1.0000 
N5510  X79.9460  Y23.6926 
N5515  Z0.1000 
N5520 G1  Z-2.0000  
N5525  X79.5048  Y23.6802   
N5530 G0  Z1.0000 
N5535  X80.3739  Y23.7175 
N5540  Z0.1000 
N5545 G1  Z-2.0000  
N5550  X79.9461  Y23.6926   
N5555  X79.5049  Y23.6802   
N5560 G0  Z1.0000 
N5565  X80.3738  Y23.7175 
N5570  Z0.1000 
N5575 G1  Z-2.0000  
N5580  X79.9460  Y23.6926   
N5585 G0  Z1.0000 
N5590  X81.6165  Y23.8294 
N5595  Z0.1000 
N5600 G1  Z-2.0000  
N5605  X81.2157  Y23.7796   
N5610  X80.8015  Y23.7423   
N5615  X80.3738  Y23.7175   
N5620 G0  Z1.0000 
N5625  X80.8016  Y23.7423 
N5630  Z0.1000 
N5635 G1  Z-2.0000  
N5640  X80.3739  Y23.7175   
N5645 G0  Z1.0000 
N5650  X82.0173  Y23.8791 
N5655  Z0.1000 
N5660 G1  Z-2.0000  
N5665  X81.6166  Y23.8294   
N5670  X81.2158  Y23.7796   
N5675  X80.8016  Y23.7423   
N5680 G0  Z1.0000 
N5685  X83.5124  Y24.1775 
N5690  Z0.1000 
N5695 G1  Z-2.0000  
N5700  X83.1521  Y24.0905   
N5705  X82.7783  Y24.0159   
N5710  X82.4045  Y23.9413   
N5715  X82.0172  Y23.8791   
N5720  X81.6165  Y23.8294   
N5725 G0  Z1.0000 
N5730  X82.7784  Y24.0159 
N5735  Z0.1000 
N5740 G1  Z-2.0000  
N5745  X82.4046  Y23.9413   
N5750  X82.0173  Y23.8791   
N5755 G0  Z1.0000 
N5760  X83.1522  Y24.0905 
N5765  Z0.1000 
N5770 G1  Z-2.0000  
N5775  X82.7784  Y24.0159   
N5780 G0  Z1.0000 
N5785  X83.5125  Y24.1775 
N5790  Z0.1000 
N5795 G1  Z-2.0000  
N5800  X83.1522  Y24.0905   
N5805 G0  Z1.0000 
N5810  X85.7784  Y25.0229 
N5815  Z0.1000 
N5820 G1  Z-2.0000  
N5825  X85.4855  Y24.8737   
N5830  X85.1791  Y24.7370   
N5835  X84.8593  Y24.6126   
N5840  X84.5394  Y24.4883   
N5845  X84.2061  Y24.3764   
N5850  X83.8592  Y24.2770   
N5855  X83.5124  Y24.1775   
N5860 G0  Z1.0000 
N5865  X83.8593  Y24.2770 
N5870  Z0.1000 
N5875 G1  Z-2.0000  
N5880  X83.5125  Y24.1775   
N5885 G0  Z1.0000 
N5890  X84.2062  Y24.3764 
N5895  Z0.1000 
N5900 G1  Z-2.0000  
N5905  X83.8593  Y24.2770   
N5910 G0  Z1.0000 
N5915  X84.8594  Y24.6126 
N5920  Z0.1000 
N5925 G1  Z-2.0000  
N5930  X84.5395  Y24.4883   
N5935  X84.2062  Y24.3764   
N5940 G0  Z1.0000 
N5945  X85.1792  Y24.7370 
N5950  Z0.1000 
N5955 G1  Z-2.0000  
N5960  X84.8594  Y24.6126   
N5965 G0  Z1.0000 
N5970  X85.4856  Y24.8737 
N5975  Z0.1000 
N5980 G1  Z-2.0000  
N5985  X85.1792  Y24.7370   
N5990 G0  Z1.0000 
N5995  X86.6168  Y25.5078 
N6000  Z0.1000 
N6005 G1  Z-2.0000  
N6010  X86.3508  Y25.3337   
N6015  X86.0714  Y25.1721   
N6020  X85.7785  Y25.0229   
N6025  X85.4856  Y24.8737   
N6030 G0  Z1.0000 
N6035  X86.6167  Y25.5078 
N6040  Z0.1000 
N6045 G1  Z-2.0000  
N6050  X86.3507  Y25.3338   
N6055  X86.0713  Y25.1721   
N6060  X85.7784  Y25.0229   
N6065 G0  Z1.0000 
N6070  X86.8826  Y25.6819 
N6075  Z0.1000 
N6080 G1  Z-2.0000  
N6085  X86.6167  Y25.5078   
N6090 G0  Z1.0000 
N6095  X86.8827  Y25.6819 
N6100  Z0.1000 
N6105 G1  Z-2.0000  
N6110  X86.6168  Y25.5078   
N6115 G0  Z1.0000 
N6120  X87.6130  Y26.2662 
N6125  Z0.1000 
N6130 G1  Z-2.0000  
N6135  X87.3740  Y26.0673   
N6140  X87.1351  Y25.8684   
N6145  X86.8826  Y25.6819   
N6150 G0  Z1.0000 
N6155  X87.1352  Y25.8684 
N6160  Z0.1000 
N6165 G1  Z-2.0000  
N6170  X86.8827  Y25.6819   
N6175 G0  Z1.0000 
N6180  X87.8371  Y26.4687 
N6185  Z0.1000 
N6190 G1  Z-2.0000  
N6195  X87.6131  Y26.2662   
N6200  X87.3741  Y26.0673   
N6205  X87.1352  Y25.8684   
N6210 G0  Z1.0000 
N6215  X88.0461  Y26.6747 
N6220  Z0.1000 
N6225 G1  Z-2.0000  
N6230  X87.8370  Y26.4687   
N6235  X87.6130  Y26.2662   
N6240 G0  Z1.0000 
N6245  X88.6287  Y27.3035 
N6250  Z0.1000 
N6255 G1  Z-2.0000  
N6260  X88.4495  Y27.0903   
N6265  X88.2553  Y26.8807   
N6270  X88.0462  Y26.6747   
N6275  X87.8371  Y26.4687   
N6280 G0  Z1.0000 
N6285  X88.2552  Y26.8807 
N6290  Z0.1000 
N6295 G1  Z-2.0000  
N6300  X88.0461  Y26.6747   
N6305 G0  Z1.0000 
N6310  X88.4494  Y27.0903 
N6315  Z0.1000 
N6320 G1  Z-2.0000  
N6325  X88.2552  Y26.8807   
N6330 G0  Z1.0000 
N6335  X88.6286  Y27.3035 
N6340  Z0.1000 
N6345 G1  Z-2.0000  
N6350  X88.4494  Y27.0903   
N6355 G0  Z1.0000 
N6360  X89.1215  Y27.9535 
N6365  Z0.1000 
N6370 G1  Z-2.0000  
N6375  X88.9721  Y27.7333   
N6380  X88.8079  Y27.5166   
N6385  X88.6286  Y27.3035   
N6390 G0  Z1.0000 
N6395  X88.8080  Y27.5166 
N6400  Z0.1000 
N6405 G1  Z-2.0000  
N6410  X88.6287  Y27.3035   
N6415 G0  Z1.0000 
N6420  X88.9722  Y27.7333 
N6425  Z0.1000 
N6430 G1  Z-2.0000  
N6435  X88.8080  Y27.5166   
N6440 G0  Z1.0000 
N6445  X89.2710  Y28.1738 
N6450  Z0.1000 
N6455 G1  Z-2.0000  
N6460  X89.1216  Y27.9535   
N6465  X88.9722  Y27.7333   
N6470 G0  Z1.0000 
N6475  X89.5248  Y28.6249 
N6480  Z0.1000 
N6485 G1  Z-2.0000  
N6490  X89.4053  Y28.3976   
N6495  X89.2708  Y28.1738   
N6500  X89.1215  Y27.9535   
N6505 G0  Z1.0000 
N6510  X89.4054  Y28.3975 
N6515  Z0.1000 
N6520 G1  Z-2.0000  
N6525  X89.2710  Y28.1738   
N6530 G0  Z1.0000 
N6535  X89.5249  Y28.6249 
N6540  Z0.1000 
N6545 G1  Z-2.0000  
N6550  X89.4054  Y28.3975   
N6555 G0  Z1.0000 
N6560  X89.8384  Y29.3176 
N6565  Z0.1000 
N6570 G1  Z-2.0000  
N6575  X89.7488  Y29.0831   
N6580  X89.6442  Y28.8522   
N6585  X89.5248  Y28.6249   
N6590 G0  Z1.0000 
N6595  X89.6443  Y28.8522 
N6600  Z0.1000 
N6605 G1  Z-2.0000  
N6610  X89.5249  Y28.6249   
N6615 G0  Z1.0000 
N6620  X89.8385  Y29.3176 
N6625  Z0.1000 
N6630 G1  Z-2.0000  
N6635  X89.7489  Y29.0831   
N6640  X89.6443  Y28.8522   
N6645 G0  Z1.0000 
N6650  X90.0027  Y29.7900 
N6655  Z0.1000 
N6660 G1  Z-2.0000  
N6665  X89.9280  Y29.5520   
N6670  X89.8384  Y29.3176   
N6675 G0  Z1.0000 
N6680  X89.9281  Y29.5520 
N6685  Z0.1000 
N6690 G1  Z-2.0000  
N6695  X89.8385  Y29.3176   
N6700 G0  Z1.0000 
N6705  X90.0028  Y29.7900 
N6710  Z0.1000 
N6715 G1  Z-2.0000  
N6720  X89.9281  Y29.5520   
N6725 G0  Z1.0000 
N6730  X90.0624  Y30.0316 
N6735  Z0.1000 
N6740 G1  Z-2.0000  
N6745  X90.0027  Y29.7900   
N6750 G0  Z1.0000 
N6755  X90.1223  Y30.2731 
N6760  Z0.1000 
N6765 G1  Z-2.0000  
N6770  X90.0625  Y30.0316   
N6775  X90.0028  Y29.7900   
N6780 G0  Z1.0000 
N6785  X90.1670  Y30.5183 
N6790  Z0.1000 
N6795 G1  Z-2.0000  
N6800  X90.1222  Y30.2732   
N6805  X90.0624  Y30.0316   
N6810 G0  Z1.0000 
N6815  X90.2268  Y31.0156 
N6820  Z0.1000 
N6825 G1  Z-2.0000  
N6830  X90.1970  Y30.7669   
N6835  X90.1671  Y30.5182   
N6840  X90.1223  Y30.2731   
N6845 G0  Z1.0000 
N6850  X90.2267  Y31.0156 
N6855  Z0.1000 
N6860 G1  Z-2.0000  
N6865  X90.1969  Y30.7669   
N6870  X90.1670  Y30.5183   
N6875 G0  Z1.0000 
N6880  X90.2417  Y31.7018 
N6885  Z0.1000 
N6890 G1  Z-2.0000  
N6895  X90.2417  Y31.5235   
N6900  X90.2417  Y31.2678   
N6905  X90.2267  Y31.0156   
N6910 G0  Z1.0000 
N6915  X90.2418  Y31.7018 
N6920  Z0.1000 
N6925 G1  Z-2.0000  
N6930  X90.2418  Y31.5235   
N6935  X90.2418  Y31.2678   
N6940  X90.2268  Y31.0156   
N6945 G0  Z1.0000 
N6950  X90.2339  Y31.8781 
N6955  Z0.1000 
N6960 G1  Z-2.0000  
N6965  X90.2418  Y31.7018   
N6970 G0  Z1.0000 
N6975  X90.2180  Y32.0525 
N6980  Z0.1000 
N6985 G1  Z-2.0000  
N6990  X90.2339  Y31.8781   
N6995 G0  Z1.0000 
N7000  X90.2417  Y31.7018 
N7005  Z0.1000 
N7010 G1  Z-2.0000  
N7015  X90.2338  Y31.8781   
N7020  X90.2179  Y32.0525   
N7025 G0  Z0.1000 
N7030 G1  Z-2.0000  
N7035  X90.2022  Y32.2269   
N7040 G0  Z1.0000 
N7045  X90.2179  Y32.0525 
N7050  Z0.1000 
N7055 G1  Z-2.0000  
N7060  X90.2021  Y32.2269   
N7065  X90.1784  Y32.3993   
N7070 G0  Z1.0000 
N7075  X90.2022  Y32.2269 
N7080  Z0.1000 
N7085 G1  Z-2.0000  
N7090  X90.1785  Y32.3993   
N7095  X90.1468  Y32.5698   
N7100 G0  Z0.1000 
N7105 G1  Z-2.0000  
N7110  X90.1152  Y32.7403   
N7115 G0  Z1.0000 
N7120  X90.1784  Y32.3993 
N7125  Z0.1000 
N7130 G1  Z-2.0000  
N7135  X90.1467  Y32.5698   
N7140  X90.1151  Y32.7403   
N7145 G0  Z0.1000 
N7150 G1  Z-2.0000  
N7155  X90.0755  Y32.9089   
N7160 G0  Z1.0000 
N7165  X90.1152  Y32.7403 
N7170  Z0.1000 
N7175 G1  Z-2.0000  
N7180  X90.0756  Y32.9089   
N7185  X90.0282  Y33.0755   
N7190 G0  Z0.1000 
N7195 G1  Z-2.0000  
N7200  X89.9807  Y33.2422   
N7205 G0  Z0.1000 
N7210 G1  Z-2.0000  
N7215  X89.9253  Y33.4069   
N7220 G0  Z1.0000 
N7225  X90.0755  Y32.9089 
N7230  Z0.1000 
N7235 G1  Z-2.0000  
N7240  X90.0280  Y33.0755   
N7245  X89.9806  Y33.2422   
N7250  X89.9252  Y33.4069   
N7255  X89.8619  Y33.5696   
N7260 G0  Z1.0000 
N7265  X89.9253  Y33.4069 
N7270  Z0.1000 
N7275 G1  Z-2.0000  
N7280  X89.8620  Y33.5696   
N7285  X89.7987  Y33.7324   
N7290  X89.7275  Y33.8932   
N7295  X89.6484  Y34.0521   
N7300 G0  Z1.0000 
N7305  X89.8619  Y33.5696 
N7310  Z0.1000 
N7315 G1  Z-2.0000  
N7320  X89.7986  Y33.7324   
N7325  X89.7274  Y33.8932   
N7330  X89.6483  Y34.0521   
N7335 G0  Z0.1000 
N7340 G1  Z-2.0000  
N7345  X89.5692  Y34.2110   
N7350  X89.4821  Y34.3679   
N7355 G0  Z1.0000 
N7360  X89.6484  Y34.0521 
N7365  Z0.1000 
N7370 G1  Z-2.0000  
N7375  X89.5693  Y34.2110   
N7380  X89.4822  Y34.3679   
N7385  X89.3873  Y34.5229   
N7390  X89.2924  Y34.6779   
N7395 G0  Z0.1000 
N7400 G1  Z-2.0000  
N7405  X89.1895  Y34.8310   
N7410  X89.0787  Y34.9821   
N7415 G0  Z0.1000 
N7420 G1  Z-2.0000  
N7425  X88.9680  Y35.1333   
N7430  X88.8493  Y35.2825   
N7435  X88.7227  Y35.4297   
N7440 G0  Z1.0000 
N7445  X89.4821  Y34.3679 
N7450  Z0.1000 
N7455 G1  Z-2.0000  
N7460  X89.3872  Y34.5229   
N7465  X89.2922  Y34.6779   
N7470  X89.1894  Y34.8310   
N7475  X89.0786  Y34.9821   
N7480  X88.9679  Y35.1333   
N7485  X88.8492  Y35.2825   
N7490  X88.7226  Y35.4297   
N7495 G0  Z0.1000 
N7500 G1  Z-2.0000  
N7505  X88.5934  Y35.5744   
N7510 G0  Z1.0000 
N7515  X88.7227  Y35.4297 
N7520  Z0.1000 
N7525 G1  Z-2.0000  
N7530  X88.5935  Y35.5744   
N7535  X88.4364  Y35.7255   
N7540 G0  Z1.0000 
N7545  X88.5934  Y35.5744 
N7550  Z0.1000 
N7555 G1  Z-2.0000  
N7560  X88.4363  Y35.7255   
N7565 G0  Z0.1000 
N7570 G1  Z-2.0000  
N7575  X88.2514  Y35.8831   
N7580 G0  Z0.1000 
N7585 G1  Z-2.0000  
N7590  X88.0664  Y36.0407   
N7595  X87.8534  Y36.2048   
N7600 G0  Z1.0000 
N7605  X88.4363  Y35.7255 
N7610  Z0.1000 
N7615 G1  Z-2.0000  
N7620  X88.2513  Y35.8831   
N7625  X88.0662  Y36.0407   
N7630  X87.8533  Y36.2048   
N7635 G0  Z0.1000 
N7640 G1  Z-2.0000  
N7645  X87.6125  Y36.3753   
N7650 G0  Z0.1000 
N7655 G1  Z-2.0000  
N7660  X87.3716  Y36.5458   
N7665 G0  Z1.0000 
N7670  X87.8533  Y36.2048 
N7675  Z0.1000 
N7680 G1  Z-2.0000  
N7685  X87.6124  Y36.3753   
N7690  X87.3714  Y36.5458   
N7695 G0  Z0.1000 
N7700 G1  Z-2.0000  
N7705  X87.1027  Y36.7227   
N7710  X86.8059  Y36.9062   
N7715 G0  Z0.1000 
N7720 G1  Z-2.0000  
N7725  X86.5092  Y37.0896   
N7730 G0  Z0.1000 
N7735 G1  Z-2.0000  
N7740  X86.1845  Y37.2795   
N7745 G0  Z1.0000 
N7750  X87.3714  Y36.5458 
N7755  Z0.1000 
N7760 G1  Z-2.0000  
N7765  X87.1026  Y36.7227   
N7770  X86.8058  Y36.9062   
N7775  X86.5091  Y37.0896   
N7780  X86.1843  Y37.2795   
N7785 G0  Z0.1000 
N7790 G1  Z-2.0000  
N7795  X85.8318  Y37.4758   
N7800 G0  Z1.0000 
N7805  X86.1843  Y37.2795 
N7810  Z0.1000 
N7815 G1  Z-2.0000  
N7820  X85.8317  Y37.4758   
N7825 G0  Z0.1000 
N7830 G1  Z-2.0000  
N7835  X85.4792  Y37.6721   
N7840  X85.0986  Y37.8749   
N7845 G0  Z0.1000 
N7850 G1  Z-2.0000  
N7855  X84.6901  Y38.0842   
N7860 G0  Z1.0000 
N7865  X85.8317  Y37.4758 
N7870  Z0.1000 
N7875 G1  Z-2.0000  
N7880  X85.4791  Y37.6722   
N7885  X85.0985  Y37.8750   
N7890  X84.6900  Y38.0842   
N7895 G0  Z0.1000 
N7900 G1  Z-2.0000  
N7905  X84.2816  Y38.2935   
N7910 G0  Z0.1000 
N7915 G1  Z-2.0000  
N7920  X83.8451  Y38.5092   
N7925 G0  Z1.0000 
N7930  X84.6900  Y38.0842 
N7935  Z0.1000 
N7940 G1  Z-2.0000  
N7945  X84.2815  Y38.2935   
N7950  X83.8450  Y38.5092   
N7955 G0  Z0.1000 
N7960 G1  Z-2.0000  
N7965  X83.3808  Y38.7314   
N7970 G0  Z1.0000 
N7975  X83.8450  Y38.5092 
N7980  Z0.1000 
N7985 G1  Z-2.0000  
N7990  X83.3807  Y38.7314   
N7995 G0  Z0.1000 
N8000 G1  Z-2.0000  
N8005  X82.9164  Y38.9535   
N8010  X82.4241  Y39.1822   
N8015 G0  Z0.1000 
N8020 G1  Z-2.0000  
N8025  X81.9038  Y39.4173   
N8030 G0  Z1.0000 
N8035  X83.3807  Y38.7314 
N8040  Z0.1000 
N8045 G1  Z-2.0000  
N8050  X82.9163  Y38.9536   
N8055  X82.4240  Y39.1822   
N8060  X81.9037  Y39.4173   
N8065 G0  Z0.1000 
N8070 G1  Z-2.0000  
N8075  X81.3836  Y39.6524   
N8080 G0  Z0.1000 
N8085 G1  Z-2.0000  
N8090  X80.8354  Y39.8939   
N8095 G0  Z0.1000 
N8100 G1  Z-2.0000  
N8105  X80.2593  Y40.1419   
N8110 G0  Z1.0000 
N8115  X81.9037  Y39.4173 
N8120  Z0.1000 
N8125 G1  Z-2.0000  
N8130  X81.3835  Y39.6524   
N8135  X80.8353  Y39.8939   
N8140  X80.2592  Y40.1419   
N8145 G0  Z0.1000 
N8150 G1  Z-2.0000  
N8155  X79.8124  Y40.3357   
N8160 G0  Z0.1000 
N8165 G1  Z-2.0000  
N8170  X79.3832  Y40.5238   
N8175 G0  Z1.0000 
N8180  X80.2592  Y40.1419 
N8185  Z0.1000 
N8190 G1  Z-2.0000  
N8195  X79.8123  Y40.3357   
N8200  X79.3831  Y40.5238   
N8205  X78.9717  Y40.7063   
N8210 G0  Z1.0000 
N8215  X79.3832  Y40.5238 
N8220  Z0.1000 
N8225 G1  Z-2.0000  
N8230  X78.9718  Y40.7063   
N8235  X78.5604  Y40.8887   
N8240 G0  Z0.1000 
N8245 G1  Z-2.0000  
N8250  X78.1667  Y41.0655   
N8255 G0  Z0.1000 
N8260 G1  Z-2.0000  
N8265  X77.7908  Y41.2367   
N8270  X77.4149  Y41.4078   
N8275 G0  Z0.1000 
N8280 G1  Z-2.0000  
N8285  X77.0568  Y41.5733   
N8290  X76.7164  Y41.7332   
N8295 G0  Z1.0000 
N8300  X78.9717  Y40.7063 
N8305  Z0.1000 
N8310 G1  Z-2.0000  
N8315  X78.5603  Y40.8887   
N8320  X78.1666  Y41.0655   
N8325  X77.7907  Y41.2367   
N8330  X77.4148  Y41.4078   
N8335  X77.0567  Y41.5733   
N8340  X76.7163  Y41.7332   
N8345 G0  Z0.1000 
N8350 G1  Z-2.0000  
N8355  X76.3761  Y41.8930   
N8360 G0  Z1.0000 
N8365  X76.7163  Y41.7332 
N8370  Z0.1000 
N8375 G1  Z-2.0000  
N8380  X76.3759  Y41.8930   
N8385 G0  Z0.1000 
N8390 G1  Z-2.0000  
N8395  X76.0535  Y42.0472   
N8400  X75.7486  Y42.1958   
N8405  X75.4438  Y42.3443   
N8410 G0  Z1.0000 
N8415  X76.3759  Y41.8930 
N8420  Z0.1000 
N8425 G1  Z-2.0000  
N8430  X76.0533  Y42.0472   
N8435  X75.7485  Y42.1958   
N8440  X75.4436  Y42.3443   
N8445  X75.1566  Y42.4872   
N8450 G0  Z1.0000 
N8455  X75.4438  Y42.3443 
N8460  Z0.1000 
N8465 G1  Z-2.0000  
N8470  X75.1567  Y42.4872   
N8475  X74.8873  Y42.6245   
N8480 G0  Z1.0000 
N8485  X75.1566  Y42.4872 
N8490  Z0.1000 
N8495 G1  Z-2.0000  
N8500  X74.8872  Y42.6245   
N8505  X74.6179  Y42.7617   
N8510  X74.3663  Y42.8933   
N8515 G0  Z1.0000 
N8520  X74.8873  Y42.6245 
N8525  Z0.1000 
N8530 G1  Z-2.0000  
N8535  X74.6180  Y42.7617   
N8540  X74.3665  Y42.8933   
N8545  X74.1327  Y43.0192   
N8550 G0  Z1.0000 
N8555  X74.3663  Y42.8933 
N8560  Z0.1000 
N8565 G1  Z-2.0000  
N8570  X74.1325  Y43.0193   
N8575 G0  Z0.1000 
N8580 G1  Z-2.0000  
N8585  X73.8989  Y43.1452   
N8590 G0  Z0.1000 
N8595 G1  Z-2.0000  
N8600  X73.6828  Y43.2655   
N8605 G0  Z1.0000 
N8610  X74.1325  Y43.0193 
N8615  Z0.1000 
N8620 G1  Z-2.0000  
N8625  X73.8987  Y43.1452   
N8630  X73.6827  Y43.2655   
N8635 G0  Z0.1000 
N8640 G1  Z-2.0000  
N8645  X73.4845  Y43.3801   
N8650 G0  Z0.1000 
N8655 G1  Z-2.0000  
N8660  X73.2863  Y43.4948   
N8665 G0  Z1.0000 
N8670  X73.6827  Y43.2655 
N8675  Z0.1000 
N8680 G1  Z-2.0000  
N8685  X73.4844  Y43.3801   
N8690  X73.2861  Y43.4948   
N8695 G0  Z0.1000 
N8700 G1  Z-2.0000  
N8705  X73.1057  Y43.6038   
N8710 G0  Z1.0000 
N8715  X73.2861  Y43.4948 
N8720  Z0.1000 
N8725 G1  Z-2.0000  
N8730  X73.1056  Y43.6038   
N8735 G0  Z0.1000 
N8740 G1  Z-2.0000  
N8745  X72.9429  Y43.7071   
N8750 G0  Z1.0000 
N8755  X73.1057  Y43.6038 
N8760  Z0.1000 
N8765 G1  Z-2.0000  
N8770  X72.9430  Y43.7071   
N8775  X72.6872  Y43.8750   
N8780 G0  Z0.1000 
N8785 G1  Z-2.0000  
N8790  X72.4399  Y44.0448   
N8795 G0  Z0.1000 
N8800 G1  Z-2.0000  
N8805  X72.2009  Y44.2164   
N8810 G0  Z1.0000 
N8815  X72.9429  Y43.7071 
N8820  Z0.1000 
N8825 G1  Z-2.0000  
N8830  X72.6871  Y43.8750   
N8835  X72.4397  Y44.0448   
N8840  X72.2008  Y44.2165   
N8845 G0  Z0.1000 
N8850 G1  Z-2.0000  
N8855  X71.9618  Y44.3881   
N8860  X71.7312  Y44.5616   
N8865 G0  Z1.0000 
N8870  X72.2009  Y44.2164 
N8875  Z0.1000 
N8880 G1  Z-2.0000  
N8885  X71.9619  Y44.3881   
N8890  X71.7313  Y44.5616   
N8895  X71.5092  Y44.7369   
N8900 G0  Z0.1000 
N8905 G1  Z-2.0000  
N8910  X71.2870  Y44.9123   
N8915 G0  Z0.1000 
N8920 G1  Z-2.0000  
N8925  X71.0732  Y45.0895   
N8930 G0  Z1.0000 
N8935  X71.7312  Y44.5616 
N8940  Z0.1000 
N8945 G1  Z-2.0000  
N8950  X71.5091  Y44.7369   
N8955  X71.2869  Y44.9123   
N8960  X71.0731  Y45.0895   
N8965 G0  Z0.1000 
N8970 G1  Z-2.0000  
N8975  X70.8678  Y45.2685   
N8980 G0  Z0.1000 
N8985 G1  Z-2.0000  
N8990  X70.6624  Y45.4476   
N8995 G0  Z0.1000 
N9000 G1  Z-2.0000  
N9005  X70.4654  Y45.6285   
N9010 G0  Z1.0000 
N9015  X71.0731  Y45.0895 
N9020  Z0.1000 
N9025 G1  Z-2.0000  
N9030  X70.8677  Y45.2686   
N9035  X70.6623  Y45.4476   
N9040  X70.4653  Y45.6285   
N9045 G0  Z0.1000 
N9050 G1  Z-2.0000  
N9055  X70.2769  Y45.8113   
N9060 G0  Z1.0000 
N9065  X70.4653  Y45.6285 
N9070  Z0.1000 
N9075 G1  Z-2.0000  
N9080  X70.2767  Y45.8113   
N9085 G0  Z0.1000 
N9090 G1  Z-2.0000  
N9095  X70.0883  Y45.9941   
N9100 G0  Z0.1000 
N9105 G1  Z-2.0000  
N9110  X69.9081  Y46.1787   
N9115  X69.7363  Y46.3652   
N9120 G0  Z1.0000 
N9125  X70.2767  Y45.8113 
N9130  Z0.1000 
N9135 G1  Z-2.0000  
N9140  X70.0881  Y45.9941   
N9145  X69.9080  Y46.1787   
N9150  X69.7362  Y46.3652   
N9155 G0  Z0.1000 
N9160 G1  Z-2.0000  
N9165  X69.5644  Y46.5517   
N9170 G0  Z1.0000 
N9175  X69.7363  Y46.3652 
N9180  Z0.1000 
N9185 G1  Z-2.0000  
N9190  X69.5645  Y46.5517   
N9195  X69.4011  Y46.7401   
N9200 G0  Z0.1000 
N9205 G1  Z-2.0000  
N9210  X69.2461  Y46.9303   
N9215 G0  Z1.0000 
N9220  X69.5644  Y46.5517 
N9225  Z0.1000 
N9230 G1  Z-2.0000  
N9235  X69.4010  Y46.7401   
N9240  X69.2459  Y46.9303   
N9245 G0  Z0.1000 
N9250 G1  Z-2.0000  
N9255  X69.0911  Y47.1205   
N9260 G0  Z0.1000 
N9265 G1  Z-2.0000  
N9270  X68.9444  Y47.3125   
N9275  X68.8062  Y47.5065   
N9280 G0  Z1.0000 
N9285  X68.5382  Y47.8962 
N9290  Z0.1000 
N9295 G1  Z-2.0000  
N9300  X68.6680  Y47.7004   
N9305 G0  Z1.0000 
N9310  X68.8062  Y47.5065 
N9315  Z0.1000 
N9320 G1  Z-2.0000  
N9325  X68.6680  Y47.7004   
N9330 G0  Z1.0000 
N9335  X68.4168  Y48.0938 
N9340  Z0.1000 
N9345 G1  Z-2.0000  
N9350  X68.5382  Y47.8962   
N9355 G0  Z1.0000 
N9360  X68.2954  Y48.2914 
N9365  Z0.1000 
N9370 G1  Z-2.0000  
N9375  X68.4168  Y48.0938   
N9380 G0  Z1.0000 
N9385  X68.2952  Y48.2914 
N9390  Z0.1000 
N9395 G1  Z-2.0000  
N9400  X68.4167  Y48.0938   
N9405 G0  Z1.0000 
N9410  X69.2459  Y46.9303 
N9415  Z0.1000 
N9420 G1  Z-2.0000  
N9425  X69.0909  Y47.1205   
N9430  X68.9443  Y47.3126   
N9435  X68.8061  Y47.5065   
N9440  X68.6679  Y47.7004   
N9445  X68.5381  Y47.8962   
N9450  X68.4167  Y48.0938   
N9455 G0  Z1.0000 
N9460  X68.1815  Y48.4925 
N9465  Z0.1000 
N9470 G1  Z-2.0000  
N9475  X68.2954  Y48.2914   
N9480 G0  Z1.0000 
N9485  X68.1814  Y48.4926 
N9490  Z0.1000 
N9495 G1  Z-2.0000  
N9500  X68.2952  Y48.2914   
N9505 G0  Z1.0000 
N9510  X67.8704  Y49.1097 
N9515  Z0.1000 
N9520 G1  Z-2.0000  
N9525  X67.9690  Y48.9017   
N9530  X68.0753  Y48.6971   
N9535  X68.1815  Y48.4925   
N9540 G0  Z1.0000 
N9545  X67.8703  Y49.1097 
N9550  Z0.1000 
N9555 G1  Z-2.0000  
N9560  X67.9689  Y48.9017   
N9565  X68.0752  Y48.6971   
N9570  X68.1814  Y48.4926   
N9575 G0  Z1.0000 
N9580  X67.7793  Y49.3213 
N9585  Z0.1000 
N9590 G1  Z-2.0000  
N9595  X67.8704  Y49.1097   
N9600 G0  Z1.0000 
N9605  X67.7792  Y49.3213 
N9610  Z0.1000 
N9615 G1  Z-2.0000  
N9620  X67.8703  Y49.1097   
N9625 G0  Z1.0000 
N9630  X67.6882  Y49.5328 
N9635  Z0.1000 
N9640 G1  Z-2.0000  
N9645  X67.7793  Y49.3213   
N9650 G0  Z1.0000 
N9655  X67.5288  Y49.9662 
N9660  Z0.1000 
N9665 G1  Z-2.0000  
N9670  X67.6046  Y49.7478   
N9675  X67.6881  Y49.5328   
N9680  X67.7792  Y49.3213   
N9685 G0  Z1.0000 
N9690  X67.5289  Y49.9662 
N9695  Z0.1000 
N9700 G1  Z-2.0000  
N9705  X67.6048  Y49.7478   
N9710  X67.6882  Y49.5328   
N9715 G0  Z1.0000 
N9720  X67.4530  Y50.1847 
N9725  Z0.1000 
N9730 G1  Z-2.0000  
N9735  X67.5289  Y49.9662   
N9740 G0  Z1.0000 
N9745  X67.4529  Y50.1847 
N9750  Z0.1000 
N9755 G1  Z-2.0000  
N9760  X67.5288  Y49.9662   
N9765 G0  Z1.0000 
N9770  X67.3240  Y50.6320 
N9775  Z0.1000 
N9780 G1  Z-2.0000  
N9785  X67.3847  Y50.4066   
N9790  X67.4530  Y50.1847   
N9795 G0  Z1.0000 
N9800  X67.3239  Y50.6320 
N9805  Z0.1000 
N9810 G1  Z-2.0000  
N9815  X67.3846  Y50.4066   
N9820  X67.4529  Y50.1847   
N9825 G0  Z1.0000 
N9830  X67.2101  Y51.0863 
N9835  Z0.1000 
N9840 G1  Z-2.0000  
N9845  X67.2633  Y50.8574   
N9850  X67.3240  Y50.6320   
N9855 G0  Z1.0000 
N9860  X67.2631  Y50.8574 
N9865  Z0.1000 
N9870 G1  Z-2.0000  
N9875  X67.3239  Y50.6320   
N9880 G0  Z1.0000 
N9885  X67.1645  Y51.3187 
N9890  Z0.1000 
N9895 G1  Z-2.0000  
N9900  X67.2100  Y51.0863   
N9905  X67.2631  Y50.8574   
N9910 G0  Z1.0000 
N9915  X67.0204  Y52.2654 
N9920  Z0.1000 
N9925 G1  Z-2.0000  
N9930  X67.0508  Y52.0261   
N9935  X67.0811  Y51.7868   
N9940  X67.1191  Y51.5510   
N9945  X67.1646  Y51.3187   
N9950  X67.2101  Y51.0863   
N9955 G0  Z1.0000 
N9960  X67.0507  Y52.0261 
N9965  Z0.1000 
N9970 G1  Z-2.0000  
N9975  X67.0810  Y51.7868   
N9980  X67.1190  Y51.5510   
N9985  X67.1645  Y51.3187   
N9990 G0  Z1.0000 
N9995  X66.9975  Y52.5082 
N10000  Z0.1000 
N10005 G1  Z-2.0000  
N10010  X67.0203  Y52.2654   
N10015  X67.0507  Y52.0261   
N10020 G0  Z1.0000 
N10025  X66.9825  Y52.7544 
N10030  Z0.1000 
N10035 G1  Z-2.0000  
N10040  X66.9976  Y52.5082   
N10045  X67.0204  Y52.2654   
N10050 G0  Z1.0000 
N10055  X66.9596  Y53.5036 
N10060  Z0.1000 
N10065 G1  Z-2.0000  
N10070  X66.9596  Y53.2504   
N10075  X66.9672  Y53.0007   
N10080  X66.9824  Y52.7544   
N10085  X66.9975  Y52.5082   
N10090 G0  Z1.0000 
N10095  X66.9597  Y53.5036 
N10100  Z0.1000 
N10105 G1  Z-2.0000  
N10110  Y53.2504   
N10115  X66.9673  Y53.0007   
N10120  X66.9825  Y52.7544   
N10125 G0  Z1.0000 
N10130  X66.9597  Y53.7955 
N10135  Z0.1000 
N10140 G1  Z-2.0000  
N10145  X66.9597  Y53.5036   
N10150 G0  Z1.0000 
N10155  X66.9696  Y54.0839 
N10160  Z0.1000 
N10165 G1  Z-2.0000  
N10170  X66.9596  Y53.7955   
N10175  X66.9596  Y53.5036   
N10180 G0  Z1.0000 
N10185  X66.9897  Y54.3687 
N10190  Z0.1000 
N10195 G1  Z-2.0000  
N10200  X66.9697  Y54.0839   
N10205  X66.9597  Y53.7955   
N10210 G0  Z1.0000 
N10215  X66.9896  Y54.3687 
N10220  Z0.1000 
N10225 G1  Z-2.0000  
N10230  X66.9696  Y54.0839   
N10235 G0  Z1.0000 
N10240  X67.0797  Y55.2125 
N10245  Z0.1000 
N10250 G1  Z-2.0000  
N10255  X67.0397  Y54.9348   
N10260  X67.0097  Y54.6535   
N10265  X66.9896  Y54.3687   
N10270 G0  Z1.0000 
N10275  X67.0097  Y54.6535 
N10280  Z0.1000 
N10285 G1  Z-2.0000  
N10290  X66.9897  Y54.3687   
N10295 G0  Z1.0000 
N10300  X67.0798  Y55.2125 
N10305  Z0.1000 
N10310 G1  Z-2.0000  
N10315  X67.0398  Y54.9348   
N10320  X67.0097  Y54.6535   
N10325 G0  Z1.0000 
N10330  X67.1698  Y55.7644 
N10335  Z0.1000 
N10340 G1  Z-2.0000  
N10345  X67.1198  Y55.4902   
N10350  X67.0797  Y55.2125   
N10355 G0  Z1.0000 
N10360  X67.2300  Y56.0350 
N10365  Z0.1000 
N10370 G1  Z-2.0000  
N10375  X67.1699  Y55.7644   
N10380  X67.1199  Y55.4902   
N10385  X67.0798  Y55.2125   
N10390 G0  Z1.0000 
N10395  X67.2299  Y56.0350 
N10400  Z0.1000 
N10405 G1  Z-2.0000  
N10410  X67.1698  Y55.7644   
N10415 G0  Z1.0000 
N10420  X67.4401  Y56.8362 
N10425  Z0.1000 
N10430 G1  Z-2.0000  
N10435  X67.3600  Y56.5727   
N10440  X67.2900  Y56.3056   
N10445  X67.2299  Y56.0350   
N10450 G0  Z1.0000 
N10455  X67.2901  Y56.3056 
N10460  Z0.1000 
N10465 G1  Z-2.0000  
N10470  X67.2300  Y56.0350   
N10475 G0  Z1.0000 
N10480  X67.7105  Y57.6161 
N10485  Z0.1000 
N10490 G1  Z-2.0000  
N10495  X67.6104  Y57.3597   
N10500  X67.5203  Y57.0997   
N10505  X67.4402  Y56.8362   
N10510  X67.3601  Y56.5727   
N10515  X67.2901  Y56.3056   
N10520 G0  Z1.0000 
N10525  X67.7104  Y57.6161 
N10530  Z0.1000 
N10535 G1  Z-2.0000  
N10540  X67.6103  Y57.3597   
N10545  X67.5202  Y57.0997   
N10550  X67.4401  Y56.8362   
N10555 G0  Z1.0000 
N10560  X67.9206  Y58.1253 
N10565  Z0.1000 
N10570 G1  Z-2.0000  
N10575  X67.8105  Y57.8725   
N10580  X67.7104  Y57.6161   
N10585 G0  Z1.0000 
N10590  X68.0409  Y58.3746 
N10595  Z0.1000 
N10600 G1  Z-2.0000  
N10605  X67.9207  Y58.1253   
N10610  X67.8106  Y57.8725   
N10615  X67.7105  Y57.6161   
N10620 G0  Z1.0000 
N10625  X68.1609  Y58.6240 
N10630  Z0.1000 
N10635 G1  Z-2.0000  
N10640  X68.0408  Y58.3747   
N10645  X67.9206  Y58.1253   
N10650 G0  Z1.0000 
N10655  X68.1610  Y58.6240 
N10660  Z0.1000 
N10665 G1  Z-2.0000  
N10670  X68.0409  Y58.3746   
N10675 G0  Z1.0000 
N10680  X68.4312  Y59.1119 
N10685  Z0.1000 
N10690 G1  Z-2.0000  
N10695  X68.2910  Y58.8697   
N10700  X68.1609  Y58.6240   
N10705 G0  Z1.0000 
N10710  X68.2911  Y58.8697 
N10715  Z0.1000 
N10720 G1  Z-2.0000  
N10725  X68.1610  Y58.6240   
N10730 G0  Z1.0000 
N10735  X68.4313  Y59.1119 
N10740  Z0.1000 
N10745 G1  Z-2.0000  
N10750  X68.2911  Y58.8697   
N10755 G0  Z1.0000 
N10760  X69.9541  Y61.1551 
N10765  Z0.1000 
N10770 G1  Z-2.0000  
N10775  X69.7568  Y60.9478   
N10780  X69.5688  Y60.7335   
N10785  X69.3901  Y60.5123   
N10790  X69.2113  Y60.2911   
N10795  X69.0419  Y60.0630   
N10800  X68.8817  Y59.8279   
N10805  X68.7215  Y59.5928   
N10810  X68.5713  Y59.3541   
N10815  X68.4312  Y59.1119   
N10820 G0  Z1.0000 
N10825  X68.5714  Y59.3541 
N10830  Z0.1000 
N10835 G1  Z-2.0000  
N10840  X68.4313  Y59.1119   
N10845 G0  Z1.0000 
N10850  X68.8818  Y59.8279 
N10855  Z0.1000 
N10860 G1  Z-2.0000  
N10865  X68.7216  Y59.5928   
N10870  X68.5714  Y59.3541   
N10875 G0  Z1.0000 
N10880  X69.0420  Y60.0630 
N10885  Z0.1000 
N10890 G1  Z-2.0000  
N10895  X68.8818  Y59.8279   
N10900 G0  Z1.0000 
N10905  X69.2114  Y60.2911 
N10910  Z0.1000 
N10915 G1  Z-2.0000  
N10920  X69.0420  Y60.0630   
N10925 G0  Z1.0000 
N10930  X69.5689  Y60.7335 
N10935  Z0.1000 
N10940 G1  Z-2.0000  
N10945  X69.3902  Y60.5123   
N10950  X69.2114  Y60.2911   
N10955 G0  Z1.0000 
N10960  X69.9542  Y61.1551 
N10965  Z0.1000 
N10970 G1  Z-2.0000  
N10975  X69.7569  Y60.9478   
N10980  X69.5689  Y60.7335   
N10985 G0  Z1.0000 
N10990  X70.1514  Y61.3624 
N10995  Z0.1000 
N11000 G1  Z-2.0000  
N11005  X69.9541  Y61.1551   
N11010 G0  Z1.0000 
N11015  X70.1515  Y61.3624 
N11020  Z0.1000 
N11025 G1  Z-2.0000  
N11030  X69.9542  Y61.1551   
N11035 G0  Z1.0000 
N11040  X70.5739  Y61.7562 
N11045  Z0.1000 
N11050 G1  Z-2.0000  
N11055  X70.3580  Y61.5628   
N11060  X70.1514  Y61.3624   
N11065 G0  Z1.0000 
N11070  X71.0151  Y62.1362 
N11075  Z0.1000 
N11080 G1  Z-2.0000  
N11085  X70.7899  Y61.9497   
N11090  X70.5740  Y61.7562   
N11095  X70.3581  Y61.5628   
N11100  X70.1515  Y61.3624   
N11105 G0  Z1.0000 
N11110  X71.4840  Y62.4952 
N11115  Z0.1000 
N11120 G1  Z-2.0000  
N11125  X71.2495  Y62.3157   
N11130  X71.0151  Y62.1362   
N11135 G0  Z1.0000 
N11140  X71.7277  Y62.6679 
N11145  Z0.1000 
N11150 G1  Z-2.0000  
N11155  X71.4840  Y62.4952   
N11160 G0  Z1.0000 
N11165  X71.9807  Y62.8335 
N11170  Z0.1000 
N11175 G1  Z-2.0000  
N11180  X71.7277  Y62.6679   
N11185 G0  Z1.0000 
N11190  X70.5739  Y61.7562 
N11195  Z0.1000 
N11200 G1  Z-2.0000  
N11205  X70.7898  Y61.9497   
N11210  X71.0150  Y62.1362   
N11215  X71.2494  Y62.3157   
N11220  X71.4839  Y62.4953   
N11225  X71.7276  Y62.6679   
N11230  X71.9806  Y62.8335   
N11235 G0  Z1.0000 
N11240  X73.3200  Y63.6063 
N11245  Z0.1000 
N11250 G1  Z-2.0000  
N11255  X73.0391  Y63.4615   
N11260  X72.7675  Y63.3097   
N11265  X72.4959  Y63.1579   
N11270  X72.2336  Y62.9992   
N11275  X71.9806  Y62.8335   
N11280 G0  Z1.0000 
N11285  X72.2337  Y62.9992 
N11290  Z0.1000 
N11295 G1  Z-2.0000  
N11300  X71.9807  Y62.8335   
N11305 G0  Z1.0000 
N11310  X72.4960  Y63.1579 
N11315  Z0.1000 
N11320 G1  Z-2.0000  
N11325  X72.2337  Y62.9992   
N11330 G0  Z1.0000 
N11335  X73.6102  Y63.7442 
N11340  Z0.1000 
N11345 G1  Z-2.0000  
N11350  X73.3201  Y63.6063   
N11355  X73.0392  Y63.4615   
N11360  X72.7676  Y63.3097   
N11365  X72.4960  Y63.1579   
N11370 G0  Z1.0000 
N11375  X73.6101  Y63.7442 
N11380  Z0.1000 
N11385 G1  Z-2.0000  
N11390  X73.3200  Y63.6063   
N11395 G0  Z1.0000 
N11400  X74.5084  Y64.1371 
N11405  Z0.1000 
N11410 G1  Z-2.0000  
N11415  X74.1997  Y64.0131   
N11420  X73.9003  Y63.8821   
N11425  X73.6101  Y63.7442   
N11430 G0  Z1.0000 
N11435  X73.9004  Y63.8821 
N11440  Z0.1000 
N11445 G1  Z-2.0000  
N11450  X73.6102  Y63.7442   
N11455 G0  Z1.0000 
N11460  X74.8173  Y64.2611 
N11465  Z0.1000 
N11470 G1  Z-2.0000  
N11475  X74.5085  Y64.1371   
N11480  X74.1998  Y64.0130   
N11485  X73.9004  Y63.8821   
N11490 G0  Z1.0000 
N11495  X75.1308  Y64.3773 
N11500  Z0.1000 
N11505 G1  Z-2.0000  
N11510  X74.8172  Y64.2611   
N11515  X74.5084  Y64.1371   
N11520 G0  Z1.0000 
N11525  X75.1309  Y64.3773 
N11530  Z0.1000 
N11535 G1  Z-2.0000  
N11540  X74.8173  Y64.2611   
N11545 G0  Z1.0000 
N11550  X76.0914  Y64.6951 
N11555  Z0.1000 
N11560 G1  Z-2.0000  
N11565  X75.7680  Y64.5943   
N11570  X75.4494  Y64.4858   
N11575  X75.1308  Y64.3773   
N11580 G0  Z1.0000 
N11585  X75.4495  Y64.4858 
N11590  Z0.1000 
N11595 G1  Z-2.0000  
N11600  X75.1309  Y64.3773   
N11605 G0  Z1.0000 
N11610  X76.4200  Y64.7881 
N11615  Z0.1000 
N11620 G1  Z-2.0000  
N11625  X76.0915  Y64.6951   
N11630  X75.7681  Y64.5943   
N11635  X75.4495  Y64.4858   
N11640 G0  Z1.0000 
N11645  X76.4199  Y64.7881 
N11650  Z0.1000 
N11655 G1  Z-2.0000  
N11660  X76.0914  Y64.6951   
N11665 G0  Z1.0000 
N11670  X77.4199  Y65.0438 
N11675  Z0.1000 
N11680 G1  Z-2.0000  
N11685  X77.0816  Y64.9663   
N11690  X76.7483  Y64.8811   
N11695  X76.4199  Y64.7881   
N11700 G0  Z1.0000 
N11705  X76.7484  Y64.8811 
N11710  Z0.1000 
N11715 G1  Z-2.0000  
N11720  X76.4200  Y64.7881   
N11725 G0  Z1.0000 
N11730  X77.0817  Y64.9663 
N11735  Z0.1000 
N11740 G1  Z-2.0000  
N11745  X76.7484  Y64.8811   
N11750 G0  Z1.0000 
N11755  X77.4200  Y65.0438 
N11760  Z0.1000 
N11765 G1  Z-2.0000  
N11770  X77.0817  Y64.9663   
N11775 G0  Z1.0000 
N11780  X78.4495  Y65.2531 
N11785  Z0.1000 
N11790 G1  Z-2.0000  
N11795  X78.1014  Y65.1911   
N11800  X77.7582  Y65.1213   
N11805  X77.4199  Y65.0438   
N11810 G0  Z1.0000 
N11815  X77.7583  Y65.1213 
N11820  Z0.1000 
N11825 G1  Z-2.0000  
N11830  X77.4200  Y65.0438   
N11835 G0  Z1.0000 
N11840  X78.7977  Y65.3151 
N11845  Z0.1000 
N11850 G1  Z-2.0000  
N11855  X78.4496  Y65.2531   
N11860  X78.1015  Y65.1911   
N11865  X77.7583  Y65.1213   
N11870 G0  Z1.0000 
N11875  X79.1507  Y65.3693 
N11880  Z0.1000 
N11885 G1  Z-2.0000  
N11890  X78.7976  Y65.3151   
N11895  X78.4495  Y65.2531   
N11900 G0  Z1.0000 
N11905  X79.1508  Y65.3693 
N11910  Z0.1000 
N11915 G1  Z-2.0000  
N11920  X78.7977  Y65.3151   
N11925 G0  Z1.0000 
N11930  X79.5086  Y65.4158 
N11935  Z0.1000 
N11940 G1  Z-2.0000  
N11945  X79.1507  Y65.3693   
N11950 G0  Z1.0000 
N11955  X79.5087  Y65.4158 
N11960  Z0.1000 
N11965 G1  Z-2.0000  
N11970  X79.1508  Y65.3693   
N11975 G0  Z1.0000 
N11980  X83.3258  Y65.6251 
N11985  Z0.1000 
N11990 G1  Z-2.0000  
N11995  X82.8633  Y65.6251   
N12000  X82.4758  Y65.6251   
N12005  X82.0932  Y65.6174   
N12010  X81.7155  Y65.6019   
N12015  X81.3379  Y65.5864   
N12020  X80.9651  Y65.5631   
N12025  X80.5973  Y65.5321   
N12030  X80.2295  Y65.5011   
N12035  X79.8666  Y65.4623   
N12040  X79.5086  Y65.4158   
N12045 G0  Z1.0000 
N12050  X79.8667  Y65.4623 
N12055  Z0.1000 
N12060 G1  Z-2.0000  
N12065  X79.5087  Y65.4158   
N12070 G0  Z1.0000 
N12075  X80.2296  Y65.5011 
N12080  Z0.1000 
N12085 G1  Z-2.0000  
N12090  X79.8667  Y65.4623   
N12095 G0  Z1.0000 
N12100  X80.5974  Y65.5321 
N12105  Z0.1000 
N12110 G1  Z-2.0000  
N12115  X80.2296  Y65.5011   
N12120 G0  Z1.0000 
N12125  X81.3380  Y65.5864 
N12130  Z0.1000 
N12135 G1  Z-2.0000  
N12140  X80.9652  Y65.5631   
N12145  X80.5974  Y65.5321   
N12150 G0  Z1.0000 
N12155  X81.7157  Y65.6019 
N12160  Z0.1000 
N12165 G1  Z-2.0000  
N12170  X81.3380  Y65.5864   
N12175 G0  Z1.0000 
N12180  X82.8634  Y65.6251 
N12185  Z0.1000 
N12190 G1  Z-2.0000  
N12195  X82.4759   
N12200  X82.0933  Y65.6174   
N12205  X81.7157  Y65.6019   
N12210 G0  Z1.0000 
N12215  X82.3020  Y65.1697 
N12220  Z0.1000 
N12225 G1  Z-2.0000  
N12230  X83.4913  Y65.1661   
N12235  X84.6809  Y65.1190   
N12240  X85.8667  Y65.0219   
N12245  X87.0446  Y64.8685   
N12250  X88.2103  Y64.6522   
N12255  X89.3597  Y64.3668   
N12260  X90.4887  Y64.0058   
N12265  X91.5932  Y63.5628   
N12270  X93.1920  Y62.7688   
N12275  X94.6466  Y61.7416   
N12280  X95.9333  Y60.5123   
N12285  X97.0283  Y59.1118   
N12290  X97.9078  Y57.5713   
N12295  X98.5482  Y55.9218   
N12300  X98.9257  Y54.1945   
N12305  X99.0166  Y52.4204   
N12310  X98.4188  Y52.3393   
N12315  X97.8066  Y52.2735   
N12320  X97.1835  Y52.2190   
N12325  X96.5533  Y52.1717   
N12330  X95.9197  Y52.1277   
N12335  X95.2864  Y52.0830   
N12340  X94.6570  Y52.0337   
N12345  X94.0353  Y51.9759   
N12350  X94.0220  Y52.5027   
N12355  X93.9830  Y53.0284   
N12360  X93.9161  Y53.5507   
N12365  X93.8192  Y54.0674   
N12370  X93.6903  Y54.5761   
N12375  X93.5272  Y55.0748   
N12380  X93.3277  Y55.5611   
N12385  X93.0899  Y56.0328   
N12390  X92.2219  Y57.3613   
N12395  X91.1310  Y58.4568   
N12400  X89.8593  Y59.3351   
N12405  X88.4486  Y60.0118   
N12410  X86.9406  Y60.5029   
N12415  X85.3774  Y60.8239   
N12420  X83.8008  Y60.9908   
N12425  X82.2525  Y61.0193   
N12430  X80.9162  Y60.9549   
N12435  X79.5561  Y60.7785   
N12440  X78.2089  Y60.4755   
N12445  X76.9108  Y60.0308   
N12450  X75.6983  Y59.4299   
N12455  X74.6080  Y58.6578   
N12460  X73.6762  Y57.6997   
N12465  X72.9393  Y56.5408   
N12470  X72.5483  Y55.4800   
N12475  X72.3689  Y54.3724   
N12480  X72.3930  Y53.2522   
N12485  X72.6124  Y52.1539   
N12490  X73.0190  Y51.1118   
N12495  X73.6049  Y50.1604   
N12500  X74.3618  Y49.3339   
N12505  X75.2817  Y48.6668   
N12510  X77.1699  Y47.5673   
N12515  X79.1186  Y46.5752   
N12520  X81.1081  Y45.6549   
N12525  X83.1185  Y44.7710   
N12530  X85.1300  Y43.8882   
N12535  X87.1229  Y42.9710   
N12540  X89.0772  Y41.9839   
N12545  X90.9733  Y40.8916   
N12550  X92.2437  Y39.9750   
N12555  X93.3512  Y38.8810   
N12560  X94.2816  Y37.6387   
N12565  X95.0212  Y36.2770   
N12570  X95.5560  Y34.8249   
N12575  X95.8720  Y33.3115   
N12580  X95.9554  Y31.7657   
N12585  X95.7922  Y30.2166   
N12590  X95.2947  Y28.2642   
N12595  X94.4604  Y26.4740   
N12600  X93.3352  Y24.8577   
N12605  X91.9650  Y23.4271   
N12610  X90.3960  Y22.1938   
N12615  X88.6739  Y21.1696   
N12620  X86.8449  Y20.3663   
N12625  X84.9549  Y19.7955   
N12630  X82.7033  Y19.3779   
N12635  X80.4088  Y19.1304   
N12640  X78.0956  Y19.0663   
N12645  X75.7879  Y19.1987   
N12650  X73.5100  Y19.5406   
N12655  X71.2861  Y20.1051   
N12660  X69.1404  Y20.9054   
N12665  X67.0973  Y21.9545   
N12670  X65.7165  Y22.9392   
N12675  X64.5750  Y24.1332   
N12680  X63.6554  Y25.4984   
N12685  X62.9403  Y26.9968   
N12690  X62.4124  Y28.5903   
N12695  X62.0541  Y30.2408   
N12700  X61.8483  Y31.9104   
N12705  X61.7774  Y33.5609   
N12710  X62.3337  Y33.6995   
N12715  X62.9313  Y33.7999   
N12720  X63.5597  Y33.8720   
N12725  X64.2082  Y33.9257   
N12730  X64.8665  Y33.9708   
N12735  X65.5239  Y34.0172   
N12740  X66.1699  Y34.0749   
N12745  X66.7939  Y34.1536   
N12750  X66.7509  Y33.0081   
N12755  X66.8213  Y31.8553   
N12760  X67.0092  Y30.7144   
N12765  X67.3188  Y29.6047   
N12770  X67.7542  Y28.5455   
N12775  X68.3194  Y27.5560   
N12780  X69.0187  Y26.6555   
N12785  X69.8560  Y25.8633   
N12790  X71.3497  Y24.9114   
N12795  X72.9508  Y24.1900   
N12800  X74.6346  Y23.6812   
N12805  X76.3764  Y23.3671   
N12810  X78.1517  Y23.2295   
N12815  X79.9356  Y23.2507   
N12820  X81.7035  Y23.4126   
N12825  X83.4309  Y23.6972   
N12830  X84.8601  Y24.1138   
N12835  X86.2335  Y24.7522   
N12840  X87.5040  Y25.5915   
N12845  X88.6248  Y26.6108   
N12850  X89.5487  Y27.7894   
N12855  X90.2289  Y29.1064   
N12860  X90.6182  Y30.5409   
N12865  X90.6699  Y32.0722   
N12870  X90.5092  Y33.0753   
N12875  X90.1788  Y34.0050   
N12880  X89.7012  Y34.8599   
N12885  X89.0987  Y35.6382   
N12890  X88.3938  Y36.3383   
N12895  X87.6089  Y36.9588   
N12900  X86.7663  Y37.4979   
N12905  X85.8887  Y37.9541   
N12910  X84.0098  Y38.9504   
N12915  X82.0765  Y39.8492   
N12920  X80.1163  Y40.6983   
N12925  X78.1570  Y41.5454   
N12930  X76.2260  Y42.4386   
N12935  X74.3509  Y43.4256   
N12940  X72.5594  Y44.5544   
N12945  X70.8791  Y45.8728   
N12950  X69.5905  Y47.1644   
N12955  X68.5992  Y48.6719   
N12960  X67.9056  Y50.3380   
N12965  X67.5104  Y52.1059   
N12970  X67.4142  Y53.9183   
N12975  X67.6174  Y55.7182   
N12980  X68.1207  Y57.4487   
N12985  X68.9247  Y59.0526   
N12990  X70.0772  Y60.6080   
N12995  X71.4646  Y61.8986   
N13000  X73.0437  Y62.9438   
N13005  X74.7712  Y63.7631   
N13010  X76.6041  Y64.3759   
N13015  X78.4990  Y64.8016   
N13020  X80.4127  Y65.0597   
N13025  X82.3020  Y65.1697   
N13030 G0  Z1.0000 
N13035  X85.1033  Y65.5476 
N13040  Z0.1000 
N13045 G1  Z-2.0000  
N13050  X84.6680  Y65.5767   
N13055  X84.2236  Y65.5960   
N13060  X83.7793  Y65.6154   
N13065  X83.3259  Y65.6251   
N13070  X82.8634  Y65.6251   
N13075 G0  Z1.0000 
N13080  X84.6679  Y65.5767 
N13085  Z0.1000 
N13090 G1  Z-2.0000  
N13095  X84.2235  Y65.5961   
N13100  X83.7792  Y65.6154   
N13105  X83.3258  Y65.6251   
N13110 G0  Z1.0000 
N13115  X85.5294  Y65.5089 
N13120  Z0.1000 
N13125 G1  Z-2.0000  
N13130  X85.1032  Y65.5476   
N13135  X84.6679  Y65.5767   
N13140 G0  Z1.0000 
N13145  X87.1894  Y65.3054 
N13150  Z0.1000 
N13155 G1  Z-2.0000  
N13160  X86.7812  Y65.3635   
N13165  X86.3730  Y65.4216   
N13170  X85.9558  Y65.4701   
N13175  X85.5295  Y65.5088   
N13180  X85.1033  Y65.5476   
N13185 G0  Z1.0000 
N13190  X85.9557  Y65.4701 
N13195  Z0.1000 
N13200 G1  Z-2.0000  
N13205  X85.5294  Y65.5089   
N13210 G0  Z1.0000 
N13215  X86.3729  Y65.4217 
N13220  Z0.1000 
N13225 G1  Z-2.0000  
N13230  X85.9557  Y65.4701   
N13235 G0  Z1.0000 
N13240  X86.7811  Y65.3635 
N13245  Z0.1000 
N13250 G1  Z-2.0000  
N13255  X86.3729  Y65.4217   
N13260 G0  Z1.0000 
N13265  X87.1893  Y65.3054 
N13270  Z0.1000 
N13275 G1  Z-2.0000  
N13280  X86.7811  Y65.3635   
N13285 G0  Z1.0000 
N13290  X87.9786  Y65.1601 
N13295  Z0.1000 
N13300 G1  Z-2.0000  
N13305  X87.5884  Y65.2376   
N13310  X87.1893  Y65.3054   
N13315 G0  Z1.0000 
N13320  X87.5886  Y65.2376 
N13325  Z0.1000 
N13330 G1  Z-2.0000  
N13335  X87.1894  Y65.3054   
N13340 G0  Z1.0000 
N13345  X87.9787  Y65.1601 
N13350  Z0.1000 
N13355 G1  Z-2.0000  
N13360  X87.5886  Y65.2376   
N13365 G0  Z1.0000 
N13370  X88.3687  Y65.0826 
N13375  Z0.1000 
N13380 G1  Z-2.0000  
N13385  X87.9786  Y65.1601   
N13390 G0  Z1.0000 
N13395  X88.7498  Y64.9954 
N13400  Z0.1000 
N13405 G1  Z-2.0000  
N13410  X88.3688  Y65.0826   
N13415  X87.9787  Y65.1601   
N13420 G0  Z1.0000 
N13425  X89.8567  Y64.6951 
N13430  Z0.1000 
N13435 G1  Z-2.0000  
N13440  X89.4937  Y64.8016   
N13445  X89.1217  Y64.8985   
N13450  X88.7497  Y64.9954   
N13455  X88.3687  Y65.0826   
N13460 G0  Z1.0000 
N13465  X89.1218  Y64.8985 
N13470  Z0.1000 
N13475 G1  Z-2.0000  
N13480  X88.7498  Y64.9954   
N13485 G0  Z1.0000 
N13490  X89.4939  Y64.8016 
N13495  Z0.1000 
N13500 G1  Z-2.0000  
N13505  X89.1218  Y64.8985   
N13510 G0  Z1.0000 
N13515  X89.8568  Y64.6950 
N13520  Z0.1000 
N13525 G1  Z-2.0000  
N13530  X89.4939  Y64.8016   
N13535 G0  Z1.0000 
N13540  X90.2107  Y64.5788 
N13545  Z0.1000 
N13550 G1  Z-2.0000  
N13555  X89.8567  Y64.6951   
N13560 G0  Z1.0000 
N13565  X90.5647  Y64.4625 
N13570  Z0.1000 
N13575 G1  Z-2.0000  
N13580  X90.2108  Y64.5788   
N13585  X89.8568  Y64.6950   
N13590 G0  Z1.0000 
N13595  X91.2453  Y64.2010 
N13600  Z0.1000 
N13605 G1  Z-2.0000  
N13610  X90.9095  Y64.3366   
N13615  X90.5646  Y64.4626   
N13620  X90.2107  Y64.5788   
N13625 G0  Z1.0000 
N13630  X90.9096  Y64.3366 
N13635  Z0.1000 
N13640 G1  Z-2.0000  
N13645  X90.5647  Y64.4625   
N13650 G0  Z1.0000 
N13655  X91.5813  Y64.0653 
N13660  Z0.1000 
N13665 G1  Z-2.0000  
N13670  X91.2454  Y64.2010   
N13675  X90.9096  Y64.3366   
N13680 G0  Z1.0000 
N13685  X92.8504  Y63.4486 
N13690  Z0.1000 
N13695 G1  Z-2.0000  
N13700  X92.5435  Y63.6100   
N13705  X92.2258  Y63.7651   
N13710  X91.9080  Y63.9201   
N13715  X91.5812  Y64.0654   
N13720  X91.2453  Y64.2010   
N13725 G0  Z1.0000 
N13730  X91.9081  Y63.9200 
N13735  Z0.1000 
N13740 G1  Z-2.0000  
N13745  X91.5813  Y64.0653   
N13750 G0  Z1.0000 
N13755  X92.2259  Y63.7650 
N13760  Z0.1000 
N13765 G1  Z-2.0000  
N13770  X91.9081  Y63.9200   
N13775 G0  Z1.0000 
N13780  X93.1465  Y63.2806 
N13785  Z0.1000 
N13790 G1  Z-2.0000  
N13795  X92.8505  Y63.4485   
N13800  X92.5436  Y63.6100   
N13805  X92.2259  Y63.7650   
N13810 G0  Z1.0000 
N13815  X93.1464  Y63.2806 
N13820  Z0.1000 
N13825 G1  Z-2.0000  
N13830  X92.8504  Y63.4486   
N13835 G0  Z1.0000 
N13840  X95.7463  Y61.3882 
N13845  Z0.1000 
N13850 G1  Z-2.0000  
N13855  X95.5158  Y61.5949   
N13860  X95.2852  Y61.8016   
N13865  X95.0437  Y62.0018   
N13870  X94.7914  Y62.1956   
N13875  X94.5390  Y62.3893   
N13880  X94.2757  Y62.5766   
N13885  X94.0016  Y62.7575   
N13890  X93.7274  Y62.9383   
N13895  X93.4423  Y63.1127   
N13900  X93.1464  Y63.2806   
N13905 G0  Z1.0000 
N13910  X93.7275  Y62.9383 
N13915  Z0.1000 
N13920 G1  Z-2.0000  
N13925  X93.4424  Y63.1127   
N13930  X93.1465  Y63.2806   
N13935 G0  Z1.0000 
N13940  X94.7915  Y62.1956 
N13945  Z0.1000 
N13950 G1  Z-2.0000  
N13955  X94.5391  Y62.3893   
N13960  X94.2758  Y62.5766   
N13965  X94.0017  Y62.7575   
N13970  X93.7275  Y62.9383   
N13975 G0  Z1.0000 
N13980  X95.0438  Y62.0018 
N13985  Z0.1000 
N13990 G1  Z-2.0000  
N13995  X94.7915  Y62.1956   
N14000 G0  Z1.0000 
N14005  X95.2853  Y61.8016 
N14010  Z0.1000 
N14015 G1  Z-2.0000  
N14020  X95.0438  Y62.0018   
N14025 G0  Z1.0000 
N14030  X95.5159  Y61.5949 
N14035  Z0.1000 
N14040 G1  Z-2.0000  
N14045  X95.2853  Y61.8016   
N14050 G0  Z1.0000 
N14055  X95.7464  Y61.3882 
N14060  Z0.1000 
N14065 G1  Z-2.0000  
N14070  X95.5159  Y61.5949   
N14075 G0  Z1.0000 
N14080  X95.9660  Y61.1751 
N14085  Z0.1000 
N14090 G1  Z-2.0000  
N14095  X95.7463  Y61.3882   
N14100 G0  Z1.0000 
N14105  X96.5816  Y60.5099 
N14110  Z0.1000 
N14115 G1  Z-2.0000  
N14120  X96.3837  Y60.7359   
N14125  X96.1749  Y60.9555   
N14130  X95.9661  Y61.1751   
N14135  X95.7464  Y61.3882   
N14140 G0  Z1.0000 
N14145  X98.1628  Y58.0341 
N14150  Z0.1000 
N14155 G1  Z-2.0000  
N14160  X98.0373  Y58.2896   
N14165  X97.9029  Y58.5465   
N14170  X97.7595  Y58.8048   
N14175  X97.6161  Y59.0632   
N14180  X97.4619  Y59.3150   
N14185  X97.2967  Y59.5605   
N14190  X97.1315  Y59.8059   
N14195  X96.9554  Y60.0449   
N14200  X96.7684  Y60.2774   
N14205  X96.5815  Y60.5099   
N14210  X96.3836  Y60.7359   
N14215  X96.1748  Y60.9555   
N14220  X95.9660  Y61.1751   
N14225 G0  Z1.0000 
N14230  X96.7685  Y60.2773 
N14235  Z0.1000 
N14240 G1  Z-2.0000  
N14245  X96.5816  Y60.5099   
N14250 G0  Z1.0000 
N14255  X97.1316  Y59.8059 
N14260  Z0.1000 
N14265 G1  Z-2.0000  
N14270  X96.9555  Y60.0448   
N14275  X96.7685  Y60.2773   
N14280 G0  Z1.0000 
N14285  X97.4620  Y59.3150 
N14290  Z0.1000 
N14295 G1  Z-2.0000  
N14300  X97.2968  Y59.5604   
N14305  X97.1316  Y59.8059   
N14310 G0  Z1.0000 
N14315  X97.6162  Y59.0631 
N14320  Z0.1000 
N14325 G1  Z-2.0000  
N14330  X97.4620  Y59.3150   
N14335 G0  Z1.0000 
N14340  X97.9030  Y58.5465 
N14345  Z0.1000 
N14350 G1  Z-2.0000  
N14355  X97.7596  Y58.8048   
N14360  X97.6162  Y59.0631   
N14365 G0  Z1.0000 
N14370  X98.1629  Y58.0341 
N14375  Z0.1000 
N14380 G1  Z-2.0000  
N14385  X98.0374  Y58.2896   
N14390  X97.9030  Y58.5465   
N14395 G0  Z1.0000 
N14400  X98.4048  Y57.5247 
N14405  Z0.1000 
N14410 G1  Z-2.0000  
N14415  X98.2883  Y57.7787   
N14420  X98.1629  Y58.0341   
N14425 G0  Z0.1000 
N14430 G1  Z-2.0000  
N14435  X98.2882  Y57.7787   
N14440 G0  Z1.0000 
N14445  X98.7184  Y56.7685 
N14450  Z0.1000 
N14455 G1  Z-2.0000  
N14460  X98.6198  Y57.0196   
N14465  X98.5123  Y57.2722   
N14470  X98.4047  Y57.5247   
N14475  X98.2882  Y57.7787   
N14480 G0  Z1.0000 
N14485  X98.5124  Y57.2721 
N14490  Z0.1000 
N14495 G1  Z-2.0000  
N14500  X98.4048  Y57.5247   
N14505 G0  Z1.0000 
N14510  X98.8080  Y56.5189 
N14515  Z0.1000 
N14520 G1  Z-2.0000  
N14525  X98.7184  Y56.7685   
N14530 G0  Z1.0000 
N14535  X98.5124  Y57.2721 
N14540  Z0.1000 
N14545 G1  Z-2.0000  
N14550  X98.6199  Y57.0196   
N14555  X98.7185  Y56.7685   
N14560 G0  Z1.0000 
N14565  X98.8081  Y56.5189 
N14570  Z0.1000 
N14575 G1  Z-2.0000  
N14580  X98.7185  Y56.7685   
N14585 G0  Z1.0000 
N14590  X98.8976  Y56.2693 
N14595  Z0.1000 
N14600 G1  Z-2.0000  
N14605  X98.8080  Y56.5189   
N14610 G0  Z1.0000 
N14615  X98.8977  Y56.2693 
N14620  Z0.1000 
N14625 G1  Z-2.0000  
N14630  X98.8081  Y56.5189   
N14635 G0  Z1.0000 
N14640  X99.0499  Y55.7744 
N14645  Z0.1000 
N14650 G1  Z-2.0000  
N14655  X98.9782  Y56.0211   
N14660  X98.8976  Y56.2693   
N14665 G0  Z1.0000 
N14670  X99.3368  Y54.5524 
N14675  Z0.1000 
N14680 G1  Z-2.0000  
N14685  X99.2920  Y54.7948   
N14690  X99.2382  Y55.0386   
N14695  X99.1845  Y55.2824   
N14700  X99.1217  Y55.5277   
N14705  X99.0500  Y55.7744   
N14710  X98.9783  Y56.0211   
N14715  X98.8977  Y56.2693   
N14720 G0  Z1.0000 
N14725  X99.1216  Y55.5277 
N14730  Z0.1000 
N14735 G1  Z-2.0000  
N14740  X99.0499  Y55.7744   
N14745 G0  Z1.0000 
N14750  X99.2381  Y55.0386 
N14755  Z0.1000 
N14760 G1  Z-2.0000  
N14765  X99.1844  Y55.2824   
N14770  X99.1216  Y55.5277   
N14775 G0  Z1.0000 
N14780  X99.3725  Y54.3115 
N14785  Z0.1000 
N14790 G1  Z-2.0000  
N14795  X99.3367  Y54.5524   
N14800  X99.2919  Y54.7948   
N14805  X99.2381  Y55.0386   
N14810 G0  Z1.0000 
N14815  X99.3727  Y54.3115 
N14820  Z0.1000 
N14825 G1  Z-2.0000  
N14830  X99.3368  Y54.5524   
N14835 G0  Z1.0000 
N14840  X99.4353  Y53.8312 
N14845  Z0.1000 
N14850 G1  Z-2.0000  
N14855  X99.4084  Y54.0706   
N14860  X99.3725  Y54.3115   
N14865 G0  Z1.0000 
N14870  X99.4712  Y53.3552 
N14875  Z0.1000 
N14880 G1  Z-2.0000  
N14885  X99.4533  Y53.5932   
N14890  X99.4354  Y53.8312   
N14895  X99.4085  Y54.0706   
N14900  X99.3727  Y54.3115   
N14905 G0  Z1.0000 
N14910  X99.4532  Y53.5932 
N14915  Z0.1000 
N14920 G1  Z-2.0000  
N14925  X99.4353  Y53.8312   
N14930 G0  Z1.0000 
N14935  X99.4797  Y52.8080 
N14940  Z0.1000 
N14945 G1  Z-2.0000  
N14950  X99.4799  Y52.8351   
N14955  X99.4801  Y52.8603   
N14960  X99.4801  Y52.8835   
N14965  X99.4801  Y53.1186   
N14970  X99.4711  Y53.3552   
N14975  X99.4532  Y53.5932   
N14980 G0  Z1.0000 
N14985  X99.4802  Y53.1186 
N14990  Z0.1000 
N14995 G1  Z-2.0000  
N15000  X99.4712  Y53.3552   
N15005 G0  Z1.0000 
N15010  X99.4802  Y52.8603 
N15015  Z0.1000 
N15020 G1  Z-2.0000  
N15025  X99.4802  Y52.8835   
N15030  Y53.1186   
N15035 G0  Z1.0000 
N15040  X99.4800  Y52.8351 
N15045  Z0.1000 
N15050 G1  Z-2.0000  
N15055  X99.4802  Y52.8603   
N15060 G0  Z0.1000 
N15065 G1  Z-2.0000  
N15070  X99.4800  Y52.8351   
N15075 G0  Z1.0000 
N15080  X99.4783  Y52.7208 
N15085  Z0.1000 
N15090 G1  Z-2.0000  
N15095  X99.4788  Y52.7518   
N15100  X99.4794  Y52.7808   
N15105  X99.4797  Y52.8080   
N15110 G0  Z0.1000 
N15115 G1  Z-2.0000  
N15120  X99.4788  Y52.7518   
N15125  X99.4794  Y52.7808   
N15130  X99.4796  Y52.8079   
N15135 G0  Z1.0000 
N15140  X99.4776  Y52.6898 
N15145  Z0.1000 
N15150 G1  Z-2.0000  
N15155  X99.4783  Y52.7208   
N15160 G0  Z0.1000 
N15165 G1  Z-2.0000  
N15170  X99.4782  Y52.7207   
N15175 G0  Z1.0000 
N15180  X99.4750  Y52.5871 
N15185  Z0.1000 
N15190 G1  Z-2.0000  
N15195  X99.4759  Y52.6219   
N15200  X99.4769  Y52.6568   
N15205  X99.4776  Y52.6898   
N15210 G0  Z0.1000 
N15215 G1  Z-2.0000  
N15220  X99.4768  Y52.6568   
N15225  X99.4777  Y52.6897   
N15230 G0  Z1.0000 
N15235  X99.4737  Y52.5502 
N15240  Z0.1000 
N15245 G1  Z-2.0000  
N15250  X99.4748  Y52.5870   
N15255  X99.4757  Y52.6219   
N15260 G0  Z1.0000 
N15265  X99.4723  Y52.5115 
N15270  Z0.1000 
N15275 G1  Z-2.0000  
N15280  X99.4737  Y52.5502   
N15285 G0  Z0.1000 
N15290 G1  Z-2.0000  
N15295  X99.4709  Y52.4727   
N15300 G0  Z1.0000 
N15305  X99.4750  Y52.5871 
N15310  Z0.1000 
N15315 G1  Z-2.0000  
N15320  X99.4738  Y52.5503   
N15325  X99.4725  Y52.5115   
N15330  X99.4711  Y52.4727   
N15335  X99.4697  Y52.4321   
N15340  X99.4681  Y52.3894   
N15345 G0  Z0.1000 
N15350 G1  Z-2.0000  
N15355  X99.4695  Y52.4320   
N15360  X99.4680  Y52.3894   
N15365 G0  Z0.1000 
N15370 G1  Z-2.0000  
N15375  X99.4663  Y52.3468   
N15380  X99.4646  Y52.3022   
N15385 G0  Z0.1000 
N15390 G1  Z-2.0000  
N15395  X99.4626  Y52.2557   
N15400 G0  Z0.1000 
N15405 G1  Z-2.0000  
N15410  X99.4607  Y52.2092   
N15415 G0  Z1.0000 
N15420  X99.4681  Y52.3894 
N15425  Z0.1000 
N15430 G1  Z-2.0000  
N15435  X99.4665  Y52.3468   
N15440  X99.4647  Y52.3022   
N15445  X99.4628  Y52.2557   
N15450  X99.4608  Y52.2092   
N15455  X99.4588  Y52.1608   
N15460 G0  Z0.1000 
N15465 G1  Z-2.0000  
N15470  X99.4586  Y52.1608   
N15475 G0  Z0.1000 
N15480 G1  Z-2.0000  
N15485  X99.4565  Y52.1104   
N15490 G0  Z0.1000 
N15495 G1  Z-2.0000  
N15500  X99.4564  Y52.1104   
N15505 G0  Z0.1000 
N15510 G1  Z-2.0000  
N15515  X99.4543  Y52.0601   
N15520 G0  Z0.1000 
N15525 G1  Z-2.0000  
N15530  X99.4541  Y52.0600   
N15535  X99.4517  Y52.0077   
N15540 G0  Z0.1000 
N15545 G1  Z-2.0000  
N15550  X99.4518  Y52.0077   
N15555  X99.4493  Y51.9535   
N15560 G0  Z0.1000 
N15565 G1  Z-2.0000  
N15570  X99.4491  Y51.9535   
N15575 G0  Z1.0000 
N15580  X97.6261  Y55.8159 
N15585  Z0.1000 
N15590 G1  Z-2.0000  
N15595  X97.7813  Y55.1797   
N15600  X97.9365  Y54.5435   
N15605  X98.0287  Y53.8856   
N15610  X98.0500  Y53.2105   
N15615 G0  Z0.1000 
N15620 G1  Z-2.0000  
N15625  X97.9210  Y53.1957   
N15630  X97.7920  Y53.1822   
N15635  X97.6628  Y53.1696   
N15640 G0  Z0.1000 
N15645 G1  Z-2.0000  
N15650  X97.5337  Y53.1571   
N15655  X97.4044  Y53.1456   
N15660  X97.2751  Y53.1348   
N15665 G0  Z0.1000 
N15670 G1  Z-2.0000  
N15675  X97.1458  Y53.1241   
N15680 G0  Z0.1000 
N15685 G1  Z-2.0000  
N15690  X97.0164  Y53.1141   
N15695  X96.8870  Y53.1045   
N15700 G0  Z0.1000 
N15705 G1  Z-2.0000  
N15710  X96.7576  Y53.0950   
N15715 G0  Z0.1000 
N15720 G1  Z-2.0000  
N15725  X96.6282  Y53.0859   
N15730 G0  Z0.1000 
N15735 G1  Z-2.0000  
N15740  X96.4987  Y53.0771   
N15745 G0  Z0.1000 
N15750 G1  Z-2.0000  
N15755  X96.3692  Y53.0682   
N15760  X96.2397  Y53.0596   
N15765 G0  Z0.1000 
N15770 G1  Z-2.0000  
N15775  X96.1102  Y53.0509   
N15780 G0  Z0.1000 
N15785 G1  Z-2.0000  
N15790  X95.9807  Y53.0422   
N15795 G0  Z0.1000 
N15800 G1  Z-2.0000  
N15805  X95.8512  Y53.0334   
N15810  X95.7218  Y53.0243   
N15815  X95.5923  Y53.0153   
N15820 G0  Z0.1000 
N15825 G1  Z-2.0000  
N15830  X95.4629  Y53.0058   
N15835  X95.3335  Y52.9958   
N15840  X95.2041  Y52.9858   
N15845 G0  Z0.1000 
N15850 G1  Z-2.0000  
N15855  X95.0748  Y52.9751   
N15860  X94.9455  Y52.9636   
N15865 G0  Z1.0000 
N15870  X93.5525  Y52.6783 
N15875  Z0.1000 
N15880 G1  Z-2.0000  
N15885  X93.5419  Y52.8123   
N15890 G0  Z1.0000 
N15895  X93.5685  Y52.3972 
N15900  Z0.1000 
N15905 G1  Z-2.0000  
N15910  X93.5614  Y52.5399   
N15915  X93.5525  Y52.6783   
N15920 G0  Z1.0000 
N15925  X93.5811  Y52.1074 
N15930  Z0.1000 
N15935 G1  Z-2.0000  
N15940  X93.5757  Y52.2545   
N15945  X93.5687  Y52.3972   
N15950  X93.5615  Y52.5399   
N15955  X93.5527  Y52.6783   
N15960  X93.5420  Y52.8123   
N15965  X93.5314  Y52.9463   
N15970 G0  Z1.0000 
N15975  X93.5419  Y52.8123 
N15980  Z0.1000 
N15985 G1  Z-2.0000  
N15990  X93.5312  Y52.9463   
N15995  X93.5188  Y53.0760   
N16000 G0  Z1.0000 
N16005  X93.5314  Y52.9463 
N16010  Z0.1000 
N16015 G1  Z-2.0000  
N16020  X93.5189  Y53.0760   
N16025  X93.5047  Y53.2013   
N16030 G0  Z0.1000 
N16035 G1  Z-2.0000  
N16040  X93.4905  Y53.3266   
N16045 G0  Z1.0000 
N16050  X93.5188  Y53.0760 
N16055  Z0.1000 
N16060 G1  Z-2.0000  
N16065  X93.5046  Y53.2013   
N16070  X93.4904  Y53.3266   
N16075  X93.4744  Y53.4475   
N16080  X93.4566  Y53.5641   
N16085 G0  Z0.1000 
N16090 G1  Z-2.0000  
N16095  X93.4388  Y53.6807   
N16100 G0  Z1.0000 
N16105  X93.3767  Y54.0086 
N16110  Z0.1000 
N16115 G1  Z-2.0000  
N16120  X93.3980  Y53.9007   
N16125 G0  Z1.0000 
N16130  X93.4388  Y53.6807 
N16135  Z0.1000 
N16140 G1  Z-2.0000  
N16145  X93.4193  Y53.7929   
N16150  X93.3980  Y53.9007   
N16155 G0  Z1.0000 
N16160  X93.3289  Y54.2113 
N16165  Z0.1000 
N16170 G1  Z-2.0000  
N16175  X93.3538  Y54.1121   
N16180  X93.3768  Y54.0086   
N16185 G0  Z1.0000 
N16190  X93.4905  Y53.3266 
N16195  Z0.1000 
N16200 G1  Z-2.0000  
N16205  X93.4745  Y53.4475   
N16210  X93.4568  Y53.5641   
N16215  X93.4390  Y53.6807   
N16220  X93.4195  Y53.7929   
N16225  X93.3982  Y53.9008   
N16230  X93.3768  Y54.0086   
N16235 G0  Z1.0000 
N16240  X93.3536  Y54.1121 
N16245  Z0.1000 
N16250 G1  Z-2.0000  
N16255  X93.3767  Y54.0086   
N16260 G0  Z1.0000 
N16265  X93.3039  Y54.3104 
N16270  Z0.1000 
N16275 G1  Z-2.0000  
N16280  X93.3287  Y54.2112   
N16285  X93.3536  Y54.1121   
N16290 G0  Z1.0000 
N16295  X93.2774  Y54.4052 
N16300  Z0.1000 
N16305 G1  Z-2.0000  
N16310  X93.3040  Y54.3104   
N16315  X93.3289  Y54.2113   
N16320 G0  Z1.0000 
N16325  X93.2772  Y54.4052 
N16330  Z0.1000 
N16335 G1  Z-2.0000  
N16340  X93.3039  Y54.3104   
N16345 G0  Z1.0000 
N16350  X93.1421  Y54.8077 
N16355  Z0.1000 
N16360 G1  Z-2.0000  
N16365  X93.1973  Y54.6532   
N16370  X93.2490  Y54.4956   
N16375  X93.2774  Y54.4052   
N16380 G0  Z1.0000 
N16385  X93.1419  Y54.8077 
N16390  Z0.1000 
N16395 G1  Z-2.0000  
N16400  X93.1971  Y54.6532   
N16405  X93.2488  Y54.4956   
N16410  X93.2772  Y54.4052   
N16415 G0  Z1.0000 
N16420  X93.0833  Y54.9592 
N16425  Z0.1000 
N16430 G1  Z-2.0000  
N16435  X93.1421  Y54.8077   
N16440 G0  Z1.0000 
N16445  X93.0244  Y55.1106 
N16450  Z0.1000 
N16455 G1  Z-2.0000  
N16460  X93.0831  Y54.9592   
N16465  X93.1419  Y54.8077   
N16470 G0  Z1.0000 
N16475  X93.0245  Y55.1106 
N16480  Z0.1000 
N16485 G1  Z-2.0000  
N16490  X93.0833  Y54.9592   
N16495 G0  Z1.0000 
N16500  X92.8963  Y55.4043 
N16505  Z0.1000 
N16510 G1  Z-2.0000  
N16515  X92.9622  Y55.2590   
N16520  X93.0245  Y55.1106   
N16525 G0  Z1.0000 
N16530  X92.8303  Y55.5496 
N16535  Z0.1000 
N16540 G1  Z-2.0000  
N16545  X92.8962  Y55.4043   
N16550  X92.9620  Y55.2590   
N16555  X93.0244  Y55.1106   
N16560 G0  Z1.0000 
N16565  X92.6880  Y55.8311 
N16570  Z0.1000 
N16575 G1  Z-2.0000  
N16580  X92.7610  Y55.6919   
N16585  X92.8304  Y55.5496   
N16590  X92.8963  Y55.4043   
N16595 G0  Z1.0000 
N16600  X92.6879  Y55.8311 
N16605  Z0.1000 
N16610 G1  Z-2.0000  
N16615  X92.7608  Y55.6919   
N16620  X92.8303  Y55.5496   
N16625 G0  Z1.0000 
N16630  X92.6150  Y55.9703 
N16635  Z0.1000 
N16640 G1  Z-2.0000  
N16645  X92.6880  Y55.8311   
N16650 G0  Z1.0000 
N16655  X92.5383  Y56.1064 
N16660  Z0.1000 
N16665 G1  Z-2.0000  
N16670  X92.6149  Y55.9702   
N16675  X92.6879  Y55.8311   
N16680 G0  Z1.0000 
N16685  X92.5385  Y56.1064 
N16690  Z0.1000 
N16695 G1  Z-2.0000  
N16700  X92.6150  Y55.9703   
N16705 G0  Z1.0000 
N16710  X92.4584  Y56.2394 
N16715  Z0.1000 
N16720 G1  Z-2.0000  
N16725  X92.5385  Y56.1064   
N16730 G0  Z1.0000 
N16735  X92.4583  Y56.2394 
N16740  Z0.1000 
N16745 G1  Z-2.0000  
N16750  X92.5383  Y56.1064   
N16755 G0  Z1.0000 
N16760  X92.2947  Y56.5024 
N16765  Z0.1000 
N16770 G1  Z-2.0000  
N16775  X92.3783  Y56.3725   
N16780  X92.4584  Y56.2394   
N16785 G0  Z1.0000 
N16790  X92.3782  Y56.3725 
N16795  Z0.1000 
N16800 G1  Z-2.0000  
N16805  X92.4583  Y56.2394   
N16810 G0  Z1.0000 
N16815  X92.2073  Y56.6293 
N16820  Z0.1000 
N16825 G1  Z-2.0000  
N16830  X92.2945  Y56.5024   
N16835  X92.3782  Y56.3725   
N16840 G0  Z1.0000 
N16845  X92.0296  Y56.8801 
N16850  Z0.1000 
N16855 G1  Z-2.0000  
N16860  X92.1203  Y56.7563   
N16865  X92.2075  Y56.6294   
N16870  X92.2947  Y56.5024   
N16875 G0  Z1.0000 
N16880  X91.9351  Y57.0009 
N16885  Z0.1000 
N16890 G1  Z-2.0000  
N16895  X92.0294  Y56.8801   
N16900  X92.1202  Y56.7563   
N16905  X92.2073  Y56.6293   
N16910 G0  Z1.0000 
N16915  X91.9353  Y57.0009 
N16920  Z0.1000 
N16925 G1  Z-2.0000  
N16930  X92.0296  Y56.8801   
N16935 G0  Z1.0000 
N16940  X91.8410  Y57.1217 
N16945  Z0.1000 
N16950 G1  Z-2.0000  
N16955  X91.9353  Y57.0009   
N16960 G0  Z1.0000 
N16965  X91.7430  Y57.2394 
N16970  Z0.1000 
N16975 G1  Z-2.0000  
N16980  X91.8408  Y57.1217   
N16985  X91.9351  Y57.0009   
N16990 G0  Z1.0000 
N16995  X91.6417  Y57.3540 
N17000  Z0.1000 
N17005 G1  Z-2.0000  
N17010  X91.7431  Y57.2394   
N17015  X91.8410  Y57.1217   
N17020 G0  Z1.0000 
N17025  X91.6416  Y57.3540 
N17030  Z0.1000 
N17035 G1  Z-2.0000  
N17040  X91.7430  Y57.2394   
N17045 G0  Z1.0000 
N17050  X91.5403  Y57.4687 
N17055  Z0.1000 
N17060 G1  Z-2.0000  
N17065  X91.6417  Y57.3540   
N17070 G0  Z1.0000 
N17075  X91.4352  Y57.5802 
N17080  Z0.1000 
N17085 G1  Z-2.0000  
N17090  X91.5402  Y57.4687   
N17095  X91.6416  Y57.3540   
N17100 G0  Z1.0000 
N17105  X91.3267  Y57.6887 
N17110  Z0.1000 
N17115 G1  Z-2.0000  
N17120  X91.4352  Y57.5802   
N17125 G0  Z1.0000 
N17130  X91.5403  Y57.4687 
N17135  Z0.1000 
N17140 G1  Z-2.0000  
N17145  X91.4354  Y57.5803   
N17150  X91.3269  Y57.6888   
N17155  X91.2184  Y57.7973   
N17160 G0  Z1.0000 
N17165  X91.3267  Y57.6887 
N17170  Z0.1000 
N17175 G1  Z-2.0000  
N17180  X91.2182  Y57.7972   
N17185 G0  Z0.1000 
N17190 G1  Z-2.0000  
N17195  X91.1046  Y57.9031   
N17200  X90.9860  Y58.0063   
N17205 G0  Z1.0000 
N17210  X91.2184  Y57.7973 
N17215  Z0.1000 
N17220 G1  Z-2.0000  
N17225  X91.1048  Y57.9031   
N17230  X90.9861  Y58.0063   
N17235  X90.8674  Y58.1094   
N17240 G0  Z1.0000 
N17245  X90.9860  Y58.0063 
N17250  Z0.1000 
N17255 G1  Z-2.0000  
N17260  X90.8673  Y58.1094   
N17265 G0  Z0.1000 
N17270 G1  Z-2.0000  
N17275  X90.7435  Y58.2099   
N17280 G0  Z1.0000 
N17285  X90.8674  Y58.1094 
N17290  Z0.1000 
N17295 G1  Z-2.0000  
N17300  X90.7437  Y58.2100   
N17305  X90.6148  Y58.3078   
N17310 G0  Z0.1000 
N17315 G1  Z-2.0000  
N17320  X90.4860  Y58.4056   
N17325  X90.3520  Y58.5008   
N17330  X90.2130  Y58.5933   
N17335 G0  Z1.0000 
N17340  X90.7435  Y58.2099 
N17345  Z0.1000 
N17350 G1  Z-2.0000  
N17355  X90.6147  Y58.3078   
N17360  X90.4858  Y58.4056   
N17365  X90.3519  Y58.5008   
N17370  X90.2128  Y58.5933   
N17375 G0  Z0.1000 
N17380 G1  Z-2.0000  
N17385  X90.0738  Y58.6859   
N17390  X89.9297  Y58.7757   
N17395 G0  Z0.1000 
N17400 G1  Z-2.0000  
N17405  X89.7805  Y58.8629   
N17410 G0  Z0.1000 
N17415 G1  Z-2.0000  
N17420  X89.6313  Y58.9501   
N17425  X89.4770  Y59.0346   
N17430 G0  Z1.0000 
N17435  X90.2130  Y58.5933 
N17440  Z0.1000 
N17445 G1  Z-2.0000  
N17450  X90.0740  Y58.6859   
N17455  X89.9299  Y58.7757   
N17460  X89.7807  Y58.8629   
N17465  X89.6315  Y58.9501   
N17470  X89.4772  Y59.0346   
N17475  X89.3178  Y59.1165   
N17480 G0  Z1.0000 
N17485  X89.4770  Y59.0346 
N17490  Z0.1000 
N17495 G1  Z-2.0000  
N17500  X89.3177  Y59.1165   
N17505 G0  Z0.1000 
N17510 G1  Z-2.0000  
N17515  X89.1583  Y59.1983   
N17520 G0  Z0.1000 
N17525 G1  Z-2.0000  
N17530  X88.9939  Y59.2775   
N17535 G0  Z1.0000 
N17540  X89.3178  Y59.1165 
N17545  Z0.1000 
N17550 G1  Z-2.0000  
N17555  X89.1585  Y59.1984   
N17560  X88.9940  Y59.2776   
N17565  X88.8245  Y59.3541   
N17570 G0  Z0.1000 
N17575 G1  Z-2.0000  
N17580  X88.6549  Y59.4306   
N17585 G0  Z1.0000 
N17590  X88.9939  Y59.2775 
N17595  Z0.1000 
N17600 G1  Z-2.0000  
N17605  X88.8243  Y59.3541   
N17610  X88.6548  Y59.4306   
N17615 G0  Z0.1000 
N17620 G1  Z-2.0000  
N17625  X88.4803  Y59.5045   
N17630 G0  Z1.0000 
N17635  X88.6548  Y59.4306 
N17640  Z0.1000 
N17645 G1  Z-2.0000  
N17650  X88.4802  Y59.5045   
N17655 G0  Z0.1000 
N17660 G1  Z-2.0000  
N17665  X88.3006  Y59.5757   
N17670 G0  Z1.0000 
N17675  X88.4802  Y59.5045 
N17680  Z0.1000 
N17685 G1  Z-2.0000  
N17690  X88.3004  Y59.5757   
N17695  X88.1207  Y59.6469   
N17700 G0  Z1.0000 
N17705  X88.3006  Y59.5757 
N17710  Z0.1000 
N17715 G1  Z-2.0000  
N17720  X88.1209  Y59.6469   
N17725  X87.9361  Y59.7155   
N17730  X87.7462  Y59.7814   
N17735 G0  Z1.0000 
N17740  X88.1207  Y59.6469 
N17745  Z0.1000 
N17750 G1  Z-2.0000  
N17755  X87.9359  Y59.7155   
N17760  X87.7461  Y59.7813   
N17765 G0  Z0.1000 
N17770 G1  Z-2.0000  
N17775  X87.5562  Y59.8472   
N17780  X87.3635  Y59.9090   
N17785 G0  Z1.0000 
N17790  X87.7462  Y59.7814 
N17795  Z0.1000 
N17800 G1  Z-2.0000  
N17805  X87.5563  Y59.8472   
N17810  X87.3636  Y59.9090   
N17815  X87.1681  Y59.9666   
N17820 G0  Z1.0000 
N17825  X87.3635  Y59.9090 
N17830  Z0.1000 
N17835 G1  Z-2.0000  
N17840  X87.1679  Y59.9666   
N17845 G0  Z0.1000 
N17850 G1  Z-2.0000  
N17855  X86.9725  Y60.0243   
N17860 G0  Z1.0000 
N17865  X87.1679  Y59.9666 
N17870  Z0.1000 
N17875 G1  Z-2.0000  
N17880  X86.9724  Y60.0243   
N17885  X86.7740  Y60.0778   
N17890 G0  Z0.1000 
N17895 G1  Z-2.0000  
N17900  X86.5728  Y60.1272   
N17905 G0  Z1.0000 
N17910  X86.9725  Y60.0243 
N17915  Z0.1000 
N17920 G1  Z-2.0000  
N17925  X86.7742  Y60.0778   
N17930  X86.5730  Y60.1272   
N17935  X86.3718  Y60.1766   
N17940 G0  Z1.0000 
N17945  X86.5728  Y60.1272 
N17950  Z0.1000 
N17955 G1  Z-2.0000  
N17960  X86.3717  Y60.1766   
N17965  X86.1676  Y60.2219   
N17970 G0  Z1.0000 
N17975  X86.3718  Y60.1766 
N17980  Z0.1000 
N17985 G1  Z-2.0000  
N17990  X86.1678  Y60.2219   
N17995  X85.9610  Y60.2631   
N18000 G0  Z1.0000 
N18005  X86.1676  Y60.2219 
N18010  Z0.1000 
N18015 G1  Z-2.0000  
N18020  X85.9608  Y60.2630   
N18025 G0  Z0.1000 
N18030 G1  Z-2.0000  
N18035  X85.7540  Y60.3042   
N18040 G0  Z1.0000 
N18045  X85.9610  Y60.2631 
N18050  Z0.1000 
N18055 G1  Z-2.0000  
N18060  X85.7541  Y60.3042   
N18065  X85.5445  Y60.3413   
N18070  X85.3320  Y60.3742   
N18075 G0  Z1.0000 
N18080  X85.7540  Y60.3042 
N18085  Z0.1000 
N18090 G1  Z-2.0000  
N18095  X85.5443  Y60.3413   
N18100  X85.3318  Y60.3742   
N18105 G0  Z0.1000 
N18110 G1  Z-2.0000  
N18115  X85.1193  Y60.4072   
N18120  X84.9040  Y60.4360   
N18125  X84.6859  Y60.4607   
N18130 G0  Z1.0000 
N18135  X85.3320  Y60.3742 
N18140  Z0.1000 
N18145 G1  Z-2.0000  
N18150  X85.1195  Y60.4072   
N18155  X84.9042  Y60.4360   
N18160  X84.6860  Y60.4607   
N18165  X84.4679  Y60.4854   
N18170  X84.2469  Y60.5060   
N18175 G0  Z1.0000 
N18180  X84.6859  Y60.4607 
N18185  Z0.1000 
N18190 G1  Z-2.0000  
N18195  X84.4677  Y60.4854   
N18200  X84.2468  Y60.5060   
N18205 G0  Z0.1000 
N18210 G1  Z-2.0000  
N18215  X84.0231  Y60.5225   
N18220 G0  Z1.0000 
N18225  X84.2468  Y60.5060 
N18230  Z0.1000 
N18235 G1  Z-2.0000  
N18240  X84.0230  Y60.5225   
N18245 G0  Z0.1000 
N18250 G1  Z-2.0000  
N18255  X83.7992  Y60.5389   
N18260 G0  Z0.1000 
N18265 G1  Z-2.0000  
N18270  X83.5726  Y60.5513   
N18275 G0  Z0.1000 
N18280 G1  Z-2.0000  
N18285  X83.3431  Y60.5595   
N18290 G0  Z1.0000 
N18295  X84.0231  Y60.5225 
N18300  Z0.1000 
N18305 G1  Z-2.0000  
N18310  X83.7993  Y60.5390   
N18315  X83.5727  Y60.5513   
N18320  X83.3433  Y60.5595   
N18325  X83.1138  Y60.5678   
N18330 G0  Z0.1000 
N18335 G1  Z-2.0000  
N18340  X82.8816  Y60.5719   
N18345 G0  Z1.0000 
N18350  X83.3431  Y60.5595 
N18355  Z0.1000 
N18360 G1  Z-2.0000  
N18365  X83.1137  Y60.5678   
N18370  X82.8814  Y60.5719   
N18375 G0  Z0.1000 
N18380 G1  Z-2.0000  
N18385  X82.6465  Y60.5719   
N18390 G0  Z1.0000 
N18395  X82.8814  Y60.5719 
N18400  Z0.1000 
N18405 G1  Z-2.0000  
N18410  X82.6463   
N18415 G0  Z0.1000 
N18420 G1  Z-2.0000  
N18425  X82.2331  Y60.5719   
N18430 G0  Z1.0000 
N18435  X82.6463  Y60.5719 
N18440  Z0.1000 
N18445 G1  Z-2.0000  
N18450  X82.2330  Y60.5719   
N18455 G0  Z0.1000 
N18460 G1  Z-2.0000  
N18465  X81.8312  Y60.5603   
N18470 G0  Z1.0000 
N18475  X82.2330  Y60.5719 
N18480  Z0.1000 
N18485 G1  Z-2.0000  
N18490  X81.8311  Y60.5602   
N18495  X81.4407  Y60.5370   
N18500  X81.0502  Y60.5137   
N18505  X80.6713  Y60.4789   
N18510 G0  Z0.1000 
N18515 G1  Z-2.0000  
N18520  X80.3038  Y60.4323   
N18525  X79.9363  Y60.3858   
N18530 G0  Z1.0000 
N18535  X81.8312  Y60.5603 
N18540  Z0.1000 
N18545 G1  Z-2.0000  
N18550  X81.4408  Y60.5370   
N18555  X81.0504  Y60.5138   
N18560  X80.6714  Y60.4789   
N18565  X80.3039  Y60.4324   
N18570  X79.9364  Y60.3859   
N18575  X79.5804  Y60.3277   
N18580 G0  Z0.1000 
N18585 G1  Z-2.0000  
N18590  X79.2358  Y60.2580   
N18595 G0  Z1.0000 
N18600  X79.9363  Y60.3858 
N18605  Z0.1000 
N18610 G1  Z-2.0000  
N18615  X79.5802  Y60.3277   
N18620  X79.2357  Y60.2580   
N18625  X78.8911  Y60.1882   
N18630  X78.5580  Y60.1068   
N18635 G0  Z1.0000 
N18640  X79.2358  Y60.2580 
N18645  Z0.1000 
N18650 G1  Z-2.0000  
N18655  X78.8913  Y60.1882   
N18660  X78.5582  Y60.1069   
N18665  X78.2365  Y60.0138   
N18670 G0  Z0.1000 
N18675 G1  Z-2.0000  
N18680  X77.9149  Y59.9208   
N18685 G0  Z0.1000 
N18690 G1  Z-2.0000  
N18695  X77.6047  Y59.8162   
N18700 G0  Z0.1000 
N18705 G1  Z-2.0000  
N18710  X77.3060  Y59.7000   
N18715 G0  Z0.1000 
N18720 G1  Z-2.0000  
N18725  X77.0073  Y59.5837   
N18730 G0  Z1.0000 
N18735  X78.5580  Y60.1068 
N18740  Z0.1000 
N18745 G1  Z-2.0000  
N18750  X78.2364  Y60.0138   
N18755  X77.9147  Y59.9208   
N18760  X77.6045  Y59.8162   
N18765  X77.3058  Y59.6999   
N18770  X77.0071  Y59.5837   
N18775 G0  Z0.1000 
N18780 G1  Z-2.0000  
N18785  X76.7200  Y59.4558   
N18790  X76.4442  Y59.3163   
N18795  X76.1685  Y59.1768   
N18800 G0  Z1.0000 
N18805  X77.0071  Y59.5837 
N18810  Z0.1000 
N18815 G1  Z-2.0000  
N18820  X76.7199  Y59.4558   
N18825  X76.4441  Y59.3163   
N18830  X76.1683  Y59.1768   
N18835 G0  Z0.1000 
N18840 G1  Z-2.0000  
N18845  X75.9040  Y59.0257   
N18850  X75.6511  Y58.8629   
N18855 G0  Z0.1000 
N18860 G1  Z-2.0000  
N18865  X75.3983  Y58.7002   
N18870 G0  Z1.0000 
N18875  X76.1685  Y59.1768 
N18880  Z0.1000 
N18885 G1  Z-2.0000  
N18890  X75.9041  Y59.0257   
N18895  X75.6513  Y58.8629   
N18900  X75.3984  Y58.7002   
N18905  X75.1570  Y58.5258   
N18910 G0  Z1.0000 
N18915  X75.3983  Y58.7002 
N18920  Z0.1000 
N18925 G1  Z-2.0000  
N18930  X75.1569  Y58.5258   
N18935  X74.9270  Y58.3398   
N18940 G0  Z1.0000 
N18945  X75.1570  Y58.5258 
N18950  Z0.1000 
N18955 G1  Z-2.0000  
N18960  X74.9271  Y58.3398   
N18965  X74.7514  Y58.1977   
N18970 G0  Z0.1000 
N18975 G1  Z-2.0000  
N18980  X74.5868  Y58.0498   
N18985 G0  Z0.1000 
N18990 G1  Z-2.0000  
N18995  X74.4330  Y57.8961   
N19000 G0  Z0.1000 
N19005 G1  Z-2.0000  
N19010  X74.2793  Y57.7424   
N19015  X74.1366  Y57.5828   
N19020 G0  Z1.0000 
N19025  X74.9270  Y58.3398 
N19030  Z0.1000 
N19035 G1  Z-2.0000  
N19040  X74.7513  Y58.1977   
N19045  X74.5866  Y58.0498   
N19050  X74.4329  Y57.8961   
N19055  X74.2792  Y57.7423   
N19060  X74.1364  Y57.5828   
N19065  X74.0047  Y57.4175   
N19070 G0  Z1.0000 
N19075  X74.1366  Y57.5828 
N19080  Z0.1000 
N19085 G1  Z-2.0000  
N19090  X74.0048  Y57.4175   
N19095  X73.8731  Y57.2521   
N19100 G0  Z0.1000 
N19105 G1  Z-2.0000  
N19110  X73.7523  Y57.0810   
N19115 G0  Z0.1000 
N19120 G1  Z-2.0000  
N19125  X73.6425  Y56.9040   
N19130 G0  Z1.0000 
N19135  X74.0047  Y57.4175 
N19140  Z0.1000 
N19145 G1  Z-2.0000  
N19150  X73.8729  Y57.2521   
N19155  X73.7521  Y57.0810   
N19160  X73.6423  Y56.9040   
N19165  X73.5325  Y56.7270   
N19170  X73.4337  Y56.5442   
N19175 G0  Z0.1000 
N19180 G1  Z-2.0000  
N19185  X73.3459  Y56.3557   
N19190 G0  Z1.0000 
N19195  X73.6425  Y56.9040 
N19200  Z0.1000 
N19205 G1  Z-2.0000  
N19210  X73.5327  Y56.7271   
N19215  X73.4339  Y56.5443   
N19220  X73.3460  Y56.3557   
N19225  X73.2582  Y56.1671   
N19230 G0  Z1.0000 
N19235  X73.3459  Y56.3557 
N19240  Z0.1000 
N19245 G1  Z-2.0000  
N19250  X73.2580  Y56.1671   
N19255  X73.1812  Y55.9727   
N19260  X73.1153  Y55.7724   
N19265 G0  Z1.0000 
N19270  X73.2582  Y56.1671 
N19275  Z0.1000 
N19280 G1  Z-2.0000  
N19285  X73.1813  Y55.9727   
N19290  X73.1155  Y55.7725   
N19295  X73.0496  Y55.5723   
N19300 G0  Z1.0000 
N19305  X73.1153  Y55.7724 
N19310  Z0.1000 
N19315 G1  Z-2.0000  
N19320  X73.0494  Y55.5722   
N19325 G0  Z0.1000 
N19330 G1  Z-2.0000  
N19335  X72.9945  Y55.3662   
N19340 G0  Z0.1000 
N19345 G1  Z-2.0000  
N19350  X72.9506  Y55.1544   
N19355 G0  Z1.0000 
N19360  X72.8739  Y54.7249 
N19365  Z0.1000 
N19370 G1  Z-2.0000  
N19375  X72.9069  Y54.9425   
N19380 G0  Z1.0000 
N19385  X73.0496  Y55.5723 
N19390  Z0.1000 
N19395 G1  Z-2.0000  
N19400  X72.9947  Y55.3662   
N19405  X72.9508  Y55.1544   
N19410  X72.9069  Y54.9425   
N19415 G0  Z1.0000 
N19420  X72.8520  Y54.5014 
N19425  Z0.1000 
N19430 G1  Z-2.0000  
N19435  X72.8739  Y54.7249   
N19440 G0  Z1.0000 
N19445  X72.8190  Y53.8136 
N19450  Z0.1000 
N19455 G1  Z-2.0000  
N19460  X72.8190  Y54.0487   
N19465  X72.8300  Y54.2780   
N19470  X72.8520  Y54.5014   
N19475 G0  Z1.0000 
N19480  X72.8189  Y53.8136 
N19485  Z0.1000 
N19490 G1  Z-2.0000  
N19495  X72.8189  Y54.0487   
N19500  X72.8298  Y54.2779   
N19505  X72.8518  Y54.5014   
N19510 G0  Z1.0000 
N19515  X72.9506  Y55.1544 
N19520  Z0.1000 
N19525 G1  Z-2.0000  
N19530  X72.9067  Y54.9425   
N19535  X72.8738  Y54.7249   
N19540  X72.8518  Y54.5014   
N19545 G0  Z1.0000 
N19550  X72.8552  Y53.1309 
N19555  Z0.1000 
N19560 G1  Z-2.0000  
N19565  X72.8416  Y53.2648   
N19570  X72.8326  Y53.4006   
N19575  X72.8235  Y53.5364   
N19580  X72.8190  Y53.6741   
N19585  X72.8190  Y53.8136   
N19590 G0  Z1.0000 
N19595  X72.8189  Y53.6741 
N19600  Z0.1000 
N19605 G1  Z-2.0000  
N19610  X72.8189  Y53.8136   
N19615 G0  Z1.0000 
N19620  X72.8324  Y53.4006 
N19625  Z0.1000 
N19630 G1  Z-2.0000  
N19635  X72.8234  Y53.5364   
N19640  X72.8189  Y53.6741   
N19645 G0  Z1.0000 
N19650  X72.8415  Y53.2648 
N19655  Z0.1000 
N19660 G1  Z-2.0000  
N19665  X72.8324  Y53.4006   
N19670 G0  Z1.0000 
N19675  X72.8550  Y53.1309 
N19680  Z0.1000 
N19685 G1  Z-2.0000  
N19690  X72.8415  Y53.2648   
N19695 G0  Z1.0000 
N19700  X72.8733  Y52.9988 
N19705  Z0.1000 
N19710 G1  Z-2.0000  
N19715  X72.8552  Y53.1309   
N19720 G0  Z1.0000 
N19725  X72.8912  Y52.8667 
N19730  Z0.1000 
N19735 G1  Z-2.0000  
N19740  X72.8731  Y52.9988   
N19745  X72.8550  Y53.1309   
N19750 G0  Z1.0000 
N19755  X73.0360  Y52.2286 
N19760  Z0.1000 
N19765 G1  Z-2.0000  
N19770  X72.9998  Y52.3533   
N19775  X72.9682  Y52.4798   
N19780  X72.9411  Y52.6081   
N19785  X72.9139  Y52.7365   
N19790  X72.8913  Y52.8667   
N19795  X72.8733  Y52.9988   
N19800 G0  Z1.0000 
N19805  X72.9138  Y52.7365 
N19810  Z0.1000 
N19815 G1  Z-2.0000  
N19820  X72.8912  Y52.8667   
N19825 G0  Z1.0000 
N19830  X73.0359  Y52.2286 
N19835  Z0.1000 
N19840 G1  Z-2.0000  
N19845  X72.9997  Y52.3532   
N19850  X72.9680  Y52.4798   
N19855  X72.9409  Y52.6081   
N19860  X72.9138  Y52.7365   
N19865 G0  Z1.0000 
N19870  X73.1127  Y51.9811 
N19875  Z0.1000 
N19880 G1  Z-2.0000  
N19885  X73.0720  Y52.1039   
N19890  X73.0359  Y52.2286   
N19895 G0  Z1.0000 
N19900  X73.0722  Y52.1040 
N19905  Z0.1000 
N19910 G1  Z-2.0000  
N19915  X73.0360  Y52.2286   
N19920 G0  Z1.0000 
N19925  X73.2530  Y51.6202 
N19930  Z0.1000 
N19935 G1  Z-2.0000  
N19940  X73.2033  Y51.7393   
N19945  X73.1581  Y51.8602   
N19950  X73.1129  Y51.9812   
N19955  X73.0722  Y52.1040   
N19960 G0  Z1.0000 
N19965  X73.3071  Y51.5030 
N19970  Z0.1000 
N19975 G1  Z-2.0000  
N19980  X73.2529  Y51.6202   
N19985  X73.2031  Y51.7393   
N19990  X73.1579  Y51.8602   
N19995  X73.1127  Y51.9811   
N20000 G0  Z1.0000 
N20005  X73.3073  Y51.5030 
N20010  Z0.1000 
N20015 G1  Z-2.0000  
N20020  X73.2530  Y51.6202   
N20025 G0  Z1.0000 
N20030  X73.4834  Y51.1569 
N20035  Z0.1000 
N20040 G1  Z-2.0000  
N20045  X73.4202  Y51.2704   
N20050  X73.3614  Y51.3857   
N20055  X73.3071  Y51.5030   
N20060 G0  Z1.0000 
N20065  X73.4203  Y51.2704 
N20070  Z0.1000 
N20075 G1  Z-2.0000  
N20080  X73.3615  Y51.3858   
N20085  X73.3073  Y51.5030   
N20090 G0  Z1.0000 
N20095  X73.6871  Y50.8220 
N20100  Z0.1000 
N20105 G1  Z-2.0000  
N20110  X73.6147  Y50.9317   
N20115  X73.5469  Y51.0434   
N20120  X73.4836  Y51.1569   
N20125  X73.4203  Y51.2704   
N20130 G0  Z1.0000 
N20135  X73.6146  Y50.9317 
N20140  Z0.1000 
N20145 G1  Z-2.0000  
N20150  X73.5467  Y51.0434   
N20155  X73.4834  Y51.1569   
N20160 G0  Z1.0000 
N20165  X73.6869  Y50.8219 
N20170  Z0.1000 
N20175 G1  Z-2.0000  
N20180  X73.6146  Y50.9317   
N20185 G0  Z1.0000 
N20190  X73.8388  Y50.6026 
N20195  Z0.1000 
N20200 G1  Z-2.0000  
N20205  X73.7592  Y50.7121   
N20210  X73.6869  Y50.8219   
N20215 G0  Z1.0000 
N20220  X73.9257  Y50.4933 
N20225  Z0.1000 
N20230 G1  Z-2.0000  
N20235  X73.8388  Y50.6026   
N20240 G0  Z1.0000 
N20245  X73.9259  Y50.4933 
N20250  Z0.1000 
N20255 G1  Z-2.0000  
N20260  X73.8390  Y50.6026   
N20265 G0  Z1.0000 
N20270  X73.6871  Y50.8220 
N20275  Z0.1000 
N20280 G1  Z-2.0000  
N20285  X73.7594  Y50.7122   
